(G-CODE GENERATED BY FLATCAM v8.991 - www.flatcam.org - Version Date: 2019/12/27)

(Name: Esp32x4-B_Cu.gbr_iso_cnc)
(Type: G-code from Geometry)
(Units: MM)

(Created on Tuesday, 21 June 2022 at 00:22)

(TOOL DIAMETER: 0.2 mm)
(Feedrate: 250.0 mm/min)
(Feedrate_Z: 60.0 mm/min)
(Feedrate rapids 1500.0 mm/min)

(Z_Cut: -0.095 mm)
(DepthPerCut: 0.0475 mm <=>2 passes)
(Z_Move: 2.0 mm)
(Z Toolchange: 15.0 mm)
(X,Y Toolchange: 0.0000, 0.0000 mm)
(Z Start: None mm)
(Z End: 15.0 mm)
(Steps per circle: 64)
(Preprocessor Geometry: default)

(X range:    2.7480 ...  106.4720  mm)
(Y range:    2.7480 ...   55.6720  mm)

(Spindle Speed: None RPM)
G21
G90
G94

M03 S200
G4 P1
M03 S400
G4 P1
M03 S600
G4 P1
M03 S800
G4 P1
M03 S1000


G01 F250.00
G00 Z2.0000

M03
G00 X5.2716 Y6.0410
G01 F60.00
G01 Z-0.0475
G01 F250.00
G01 X5.2758 Y6.0378
G01 X5.4989 Y5.9074
G01 X5.7392 Y5.8078
G01 X5.9908 Y5.7416
G01 X6.2508 Y5.7102
G01 X6.5109 Y5.7144
G01 X6.7680 Y5.7538
G01 X7.0174 Y5.8278
G01 X7.2529 Y5.9342
G01 X7.4265 Y6.0429
G01 X7.2020 Y6.2674
G01 X7.1085 Y6.2113
G01 X7.0999 Y6.2067
G01 X6.9668 Y6.1438
G01 X6.9577 Y6.1400
G01 X6.8191 Y6.0904
G01 X6.8097 Y6.0876
G01 X6.6669 Y6.0518
G01 X6.6573 Y6.0499
G01 X6.5117 Y6.0283
G01 X6.5019 Y6.0273
G01 X6.3549 Y6.0201
G01 X6.3451 Y6.0201
G01 X6.1981 Y6.0273
G01 X6.1883 Y6.0283
G01 X6.0427 Y6.0499
G01 X6.0331 Y6.0518
G01 X5.8903 Y6.0876
G01 X5.8809 Y6.0904
G01 X5.7423 Y6.1400
G01 X5.7332 Y6.1438
G01 X5.6001 Y6.2067
G01 X5.5915 Y6.2113
G01 X5.4980 Y6.2674
G01 X5.2716 Y6.0410
G00 X5.2716 Y6.0410
G01 F60.00
G01 Z-0.0950
G01 F250.00
G01 X5.2758 Y6.0378
G01 X5.4989 Y5.9074
G01 X5.7392 Y5.8078
G01 X5.9908 Y5.7416
G01 X6.2508 Y5.7102
G01 X6.5109 Y5.7144
G01 X6.7680 Y5.7538
G01 X7.0174 Y5.8278
G01 X7.2529 Y5.9342
G01 X7.4265 Y6.0429
G01 X7.2020 Y6.2674
G01 X7.1085 Y6.2113
G01 X7.0999 Y6.2067
G01 X6.9668 Y6.1438
G01 X6.9577 Y6.1400
G01 X6.8191 Y6.0904
G01 X6.8097 Y6.0876
G01 X6.6669 Y6.0518
G01 X6.6573 Y6.0499
G01 X6.5117 Y6.0283
G01 X6.5019 Y6.0273
G01 X6.3549 Y6.0201
G01 X6.3451 Y6.0201
G01 X6.1981 Y6.0273
G01 X6.1883 Y6.0283
G01 X6.0427 Y6.0499
G01 X6.0331 Y6.0518
G01 X5.8903 Y6.0876
G01 X5.8809 Y6.0904
G01 X5.7423 Y6.1400
G01 X5.7332 Y6.1438
G01 X5.6001 Y6.2067
G01 X5.5915 Y6.2113
G01 X5.4980 Y6.2674
G01 X5.2716 Y6.0410
G00 Z2.0000
G00 X5.4335 Y6.0615
G01 F60.00
G01 Z-0.0475
G01 F250.00
G01 X5.5442 Y5.9968
G01 X5.7720 Y5.9024
G01 X6.0104 Y5.8399
G01 X6.2552 Y5.8103
G01 X6.5016 Y5.8141
G01 X6.7453 Y5.8514
G01 X6.9817 Y5.9214
G01 X7.2064 Y6.0229
G01 X7.2670 Y6.0609
G01 X7.1865 Y6.1415
G01 X7.1599 Y6.1256
G01 X7.1426 Y6.1163
G01 X7.0095 Y6.0534
G01 X6.9914 Y6.0459
G01 X6.8528 Y5.9963
G01 X6.8340 Y5.9906
G01 X6.6912 Y5.9548
G01 X6.6720 Y5.9510
G01 X6.5264 Y5.9294
G01 X6.5068 Y5.9275
G01 X6.3598 Y5.9202
G01 X6.3402 Y5.9202
G01 X6.1932 Y5.9275
G01 X6.1736 Y5.9294
G01 X6.0280 Y5.9510
G01 X6.0088 Y5.9548
G01 X5.8660 Y5.9906
G01 X5.8472 Y5.9963
G01 X5.7086 Y6.0459
G01 X5.6905 Y6.0534
G01 X5.5574 Y6.1163
G01 X5.5401 Y6.1256
G01 X5.5135 Y6.1415
G01 X5.4335 Y6.0615
G00 X5.4335 Y6.0615
G01 F60.00
G01 Z-0.0950
G01 F250.00
G01 X5.5442 Y5.9968
G01 X5.7720 Y5.9024
G01 X6.0104 Y5.8399
G01 X6.2552 Y5.8103
G01 X6.5016 Y5.8141
G01 X6.7453 Y5.8514
G01 X6.9817 Y5.9214
G01 X7.2064 Y6.0229
G01 X7.2670 Y6.0609
G01 X7.1865 Y6.1415
G01 X7.1599 Y6.1256
G01 X7.1426 Y6.1163
G01 X7.0095 Y6.0534
G01 X6.9914 Y6.0459
G01 X6.8528 Y5.9963
G01 X6.8340 Y5.9906
G01 X6.6912 Y5.9548
G01 X6.6720 Y5.9510
G01 X6.5264 Y5.9294
G01 X6.5068 Y5.9275
G01 X6.3598 Y5.9202
G01 X6.3402 Y5.9202
G01 X6.1932 Y5.9275
G01 X6.1736 Y5.9294
G01 X6.0280 Y5.9510
G01 X6.0088 Y5.9548
G01 X5.8660 Y5.9906
G01 X5.8472 Y5.9963
G01 X5.7086 Y6.0459
G01 X5.6905 Y6.0534
G01 X5.5574 Y6.1163
G01 X5.5401 Y6.1256
G01 X5.5135 Y6.1415
G01 X5.4335 Y6.0615
G00 Z2.0000
G00 X4.7731 Y6.5437
G01 F60.00
G01 Z-0.0475
G01 F250.00
G01 X4.9974 Y6.7680
G01 X4.9413 Y6.8615
G01 X4.9367 Y6.8701
G01 X4.8738 Y7.0032
G01 X4.8700 Y7.0123
G01 X4.8204 Y7.1509
G01 X4.8176 Y7.1603
G01 X4.7818 Y7.3031
G01 X4.7799 Y7.3127
G01 X4.7583 Y7.4583
G01 X4.7573 Y7.4681
G01 X4.7501 Y7.6151
G01 X4.7501 Y7.6249
G01 X4.7573 Y7.7719
G01 X4.7583 Y7.7817
G01 X4.7799 Y7.9273
G01 X4.7818 Y7.9369
G01 X4.8176 Y8.0797
G01 X4.8204 Y8.0891
G01 X4.8700 Y8.2277
G01 X4.8738 Y8.2368
G01 X4.9367 Y8.3699
G01 X4.9413 Y8.3785
G01 X4.9974 Y8.4720
G01 X4.7738 Y8.6956
G01 X4.7138 Y8.6099
G01 X4.5952 Y8.3803
G01 X4.5083 Y8.1351
G01 X4.4552 Y7.8787
G01 X4.4373 Y7.6166
G01 X4.4377 Y7.5823
G01 X4.4610 Y7.3217
G01 X4.5195 Y7.0664
G01 X4.6115 Y6.8231
G01 X4.7348 Y6.5960
G01 X4.7731 Y6.5437
G00 X4.7731 Y6.5437
G01 F60.00
G01 Z-0.0950
G01 F250.00
G01 X4.9974 Y6.7680
G01 X4.9413 Y6.8615
G01 X4.9367 Y6.8701
G01 X4.8738 Y7.0032
G01 X4.8700 Y7.0123
G01 X4.8204 Y7.1509
G01 X4.8176 Y7.1603
G01 X4.7818 Y7.3031
G01 X4.7799 Y7.3127
G01 X4.7583 Y7.4583
G01 X4.7573 Y7.4681
G01 X4.7501 Y7.6151
G01 X4.7501 Y7.6249
G01 X4.7573 Y7.7719
G01 X4.7583 Y7.7817
G01 X4.7799 Y7.9273
G01 X4.7818 Y7.9369
G01 X4.8176 Y8.0797
G01 X4.8204 Y8.0891
G01 X4.8700 Y8.2277
G01 X4.8738 Y8.2368
G01 X4.9367 Y8.3699
G01 X4.9413 Y8.3785
G01 X4.9974 Y8.4720
G01 X4.7738 Y8.6956
G01 X4.7138 Y8.6099
G01 X4.5952 Y8.3803
G01 X4.5083 Y8.1351
G01 X4.4552 Y7.8787
G01 X4.4373 Y7.6166
G01 X4.4377 Y7.5823
G01 X4.4610 Y7.3217
G01 X4.5195 Y7.0664
G01 X4.6115 Y6.8231
G01 X4.7348 Y6.5960
G01 X4.7731 Y6.5437
G00 Z2.0000
G00 X4.5374 Y7.6142
G01 F60.00
G01 Z-0.0475
G01 F250.00
G01 X4.5377 Y7.5878
G01 X4.5601 Y7.3365
G01 X4.6151 Y7.0962
G01 X4.7023 Y6.8656
G01 X4.7907 Y6.7027
G01 X4.8715 Y6.7835
G01 X4.8556 Y6.8101
G01 X4.8463 Y6.8274
G01 X4.7834 Y6.9605
G01 X4.7759 Y6.9786
G01 X4.7263 Y7.1172
G01 X4.7206 Y7.1360
G01 X4.6848 Y7.2788
G01 X4.6810 Y7.2980
G01 X4.6594 Y7.4436
G01 X4.6575 Y7.4632
G01 X4.6502 Y7.6102
G01 X4.6502 Y7.6298
G01 X4.6575 Y7.7768
G01 X4.6594 Y7.7964
G01 X4.6810 Y7.9420
G01 X4.6848 Y7.9612
G01 X4.7206 Y8.1040
G01 X4.7263 Y8.1228
G01 X4.7759 Y8.2614
G01 X4.7834 Y8.2795
G01 X4.8463 Y8.4126
G01 X4.8556 Y8.4299
G01 X4.8715 Y8.4565
G01 X4.7894 Y8.5385
G01 X4.6868 Y8.3397
G01 X4.6045 Y8.1073
G01 X4.5545 Y7.8659
G01 X4.5374 Y7.6142
G00 X4.5374 Y7.6142
G01 F60.00
G01 Z-0.0950
G01 F250.00
G01 X4.5377 Y7.5878
G01 X4.5601 Y7.3365
G01 X4.6151 Y7.0962
G01 X4.7023 Y6.8656
G01 X4.7907 Y6.7027
G01 X4.8715 Y6.7835
G01 X4.8556 Y6.8101
G01 X4.8463 Y6.8274
G01 X4.7834 Y6.9605
G01 X4.7759 Y6.9786
G01 X4.7263 Y7.1172
G01 X4.7206 Y7.1360
G01 X4.6848 Y7.2788
G01 X4.6810 Y7.2980
G01 X4.6594 Y7.4436
G01 X4.6575 Y7.4632
G01 X4.6502 Y7.6102
G01 X4.6502 Y7.6298
G01 X4.6575 Y7.7768
G01 X4.6594 Y7.7964
G01 X4.6810 Y7.9420
G01 X4.6848 Y7.9612
G01 X4.7206 Y8.1040
G01 X4.7263 Y8.1228
G01 X4.7759 Y8.2614
G01 X4.7834 Y8.2795
G01 X4.8463 Y8.4126
G01 X4.8556 Y8.4299
G01 X4.8715 Y8.4565
G01 X4.7894 Y8.5385
G01 X4.6868 Y8.3397
G01 X4.6045 Y8.1073
G01 X4.5545 Y7.8659
G01 X4.5374 Y7.6142
G00 Z2.0000
G00 X5.2729 Y9.1977
G01 F60.00
G01 Z-0.0475
G01 F250.00
G01 X5.4980 Y8.9726
G01 X5.5915 Y9.0287
G01 X5.6001 Y9.0333
G01 X5.7332 Y9.0962
G01 X5.7423 Y9.1000
G01 X5.8809 Y9.1496
G01 X5.8903 Y9.1524
G01 X6.0331 Y9.1882
G01 X6.0427 Y9.1901
G01 X6.1883 Y9.2117
G01 X6.1981 Y9.2127
G01 X6.3451 Y9.2199
G01 X6.3549 Y9.2199
G01 X6.5019 Y9.2127
G01 X6.5117 Y9.2117
G01 X6.6573 Y9.1901
G01 X6.6669 Y9.1882
G01 X6.8097 Y9.1524
G01 X6.8191 Y9.1496
G01 X6.9577 Y9.1000
G01 X6.9668 Y9.0962
G01 X7.0999 Y9.0333
G01 X7.1085 Y9.0287
G01 X7.2020 Y8.9726
G01 X7.4279 Y9.1985
G01 X7.2174 Y9.3244
G01 X6.9781 Y9.4263
G01 X6.7271 Y9.4948
G01 X6.4692 Y9.5287
G01 X6.2091 Y9.5272
G01 X5.9515 Y9.4904
G01 X5.7014 Y9.4190
G01 X5.4648 Y9.3152
G01 X5.2729 Y9.1977
G00 X5.2729 Y9.1977
G01 F60.00
G01 Z-0.0950
G01 F250.00
G01 X5.4980 Y8.9726
G01 X5.5915 Y9.0287
G01 X5.6001 Y9.0333
G01 X5.7332 Y9.0962
G01 X5.7423 Y9.1000
G01 X5.8809 Y9.1496
G01 X5.8903 Y9.1524
G01 X6.0331 Y9.1882
G01 X6.0427 Y9.1901
G01 X6.1883 Y9.2117
G01 X6.1981 Y9.2127
G01 X6.3451 Y9.2199
G01 X6.3549 Y9.2199
G01 X6.5019 Y9.2127
G01 X6.5117 Y9.2117
G01 X6.6573 Y9.1901
G01 X6.6669 Y9.1882
G01 X6.8097 Y9.1524
G01 X6.8191 Y9.1496
G01 X6.9577 Y9.1000
G01 X6.9668 Y9.0962
G01 X7.0999 Y9.0333
G01 X7.1085 Y9.0287
G01 X7.2020 Y8.9726
G01 X7.4279 Y9.1985
G01 X7.2174 Y9.3244
G01 X6.9781 Y9.4263
G01 X6.7271 Y9.4948
G01 X6.4692 Y9.5287
G01 X6.2091 Y9.5272
G01 X5.9515 Y9.4904
G01 X5.7014 Y9.4190
G01 X5.4648 Y9.3152
G01 X5.2729 Y9.1977
G00 Z2.0000
G00 X5.4333 Y9.1788
G01 F60.00
G01 Z-0.0475
G01 F250.00
G01 X5.5135 Y9.0985
G01 X5.5401 Y9.1144
G01 X5.5574 Y9.1237
G01 X5.6905 Y9.1866
G01 X5.7086 Y9.1941
G01 X5.8472 Y9.2437
G01 X5.8660 Y9.2494
G01 X6.0088 Y9.2852
G01 X6.0280 Y9.2890
G01 X6.1736 Y9.3106
G01 X6.1932 Y9.3125
G01 X6.3402 Y9.3198
G01 X6.3598 Y9.3198
G01 X6.5068 Y9.3125
G01 X6.5264 Y9.3106
G01 X6.6720 Y9.2890
G01 X6.6912 Y9.2852
G01 X6.8340 Y9.2494
G01 X6.8528 Y9.2437
G01 X6.9914 Y9.1941
G01 X7.0095 Y9.1866
G01 X7.1426 Y9.1237
G01 X7.1599 Y9.1144
G01 X7.1865 Y9.0985
G01 X7.2665 Y9.1786
G01 X7.1727 Y9.2347
G01 X6.9460 Y9.3314
G01 X6.7082 Y9.3965
G01 X6.4638 Y9.4287
G01 X6.2173 Y9.4274
G01 X5.9732 Y9.3926
G01 X5.7361 Y9.3251
G01 X5.5104 Y9.2260
G01 X5.4333 Y9.1788
G00 X5.4333 Y9.1788
G01 F60.00
G01 Z-0.0950
G01 F250.00
G01 X5.5135 Y9.0985
G01 X5.5401 Y9.1144
G01 X5.5574 Y9.1237
G01 X5.6905 Y9.1866
G01 X5.7086 Y9.1941
G01 X5.8472 Y9.2437
G01 X5.8660 Y9.2494
G01 X6.0088 Y9.2852
G01 X6.0280 Y9.2890
G01 X6.1736 Y9.3106
G01 X6.1932 Y9.3125
G01 X6.3402 Y9.3198
G01 X6.3598 Y9.3198
G01 X6.5068 Y9.3125
G01 X6.5264 Y9.3106
G01 X6.6720 Y9.2890
G01 X6.6912 Y9.2852
G01 X6.8340 Y9.2494
G01 X6.8528 Y9.2437
G01 X6.9914 Y9.1941
G01 X7.0095 Y9.1866
G01 X7.1426 Y9.1237
G01 X7.1599 Y9.1144
G01 X7.1865 Y9.0985
G01 X7.2665 Y9.1786
G01 X7.1727 Y9.2347
G01 X6.9460 Y9.3314
G01 X6.7082 Y9.3965
G01 X6.4638 Y9.4287
G01 X6.2173 Y9.4274
G01 X5.9732 Y9.3926
G01 X5.7361 Y9.3251
G01 X5.5104 Y9.2260
G01 X5.4333 Y9.1788
G00 Z2.0000
G00 X7.7026 Y6.7680
G01 F60.00
G01 Z-0.0475
G01 F250.00
G01 X7.9261 Y6.5445
G01 X7.9965 Y6.6473
G01 X8.1133 Y6.8797
G01 X8.1975 Y7.1259
G01 X8.2474 Y7.3812
G01 X8.2623 Y7.6409
G01 X8.2420 Y7.8985
G01 X8.1867 Y8.1527
G01 X8.0967 Y8.3986
G01 X7.9758 Y8.6270
G01 X7.9265 Y8.6958
G01 X7.7026 Y8.4720
G01 X7.7587 Y8.3785
G01 X7.7633 Y8.3699
G01 X7.8262 Y8.2368
G01 X7.8300 Y8.2277
G01 X7.8796 Y8.0891
G01 X7.8824 Y8.0797
G01 X7.9182 Y7.9369
G01 X7.9201 Y7.9273
G01 X7.9417 Y7.7817
G01 X7.9427 Y7.7719
G01 X7.9499 Y7.6249
G01 X7.9499 Y7.6151
G01 X7.9427 Y7.4681
G01 X7.9417 Y7.4583
G01 X7.9201 Y7.3127
G01 X7.9182 Y7.3031
G01 X7.8824 Y7.1603
G01 X7.8796 Y7.1509
G01 X7.8300 Y7.0123
G01 X7.8262 Y7.0032
G01 X7.7633 Y6.8701
G01 X7.7587 Y6.8615
G01 X7.7026 Y6.7680
G00 X7.7026 Y6.7680
G01 F60.00
G01 Z-0.0950
G01 F250.00
G01 X7.9261 Y6.5445
G01 X7.9965 Y6.6473
G01 X8.1133 Y6.8797
G01 X8.1975 Y7.1259
G01 X8.2474 Y7.3812
G01 X8.2623 Y7.6409
G01 X8.2420 Y7.8985
G01 X8.1867 Y8.1527
G01 X8.0967 Y8.3986
G01 X7.9758 Y8.6270
G01 X7.9265 Y8.6958
G01 X7.7026 Y8.4720
G01 X7.7587 Y8.3785
G01 X7.7633 Y8.3699
G01 X7.8262 Y8.2368
G01 X7.8300 Y8.2277
G01 X7.8796 Y8.0891
G01 X7.8824 Y8.0797
G01 X7.9182 Y7.9369
G01 X7.9201 Y7.9273
G01 X7.9417 Y7.7817
G01 X7.9427 Y7.7719
G01 X7.9499 Y7.6249
G01 X7.9499 Y7.6151
G01 X7.9427 Y7.4681
G01 X7.9417 Y7.4583
G01 X7.9201 Y7.3127
G01 X7.9182 Y7.3031
G01 X7.8824 Y7.1603
G01 X7.8796 Y7.1509
G01 X7.8300 Y7.0123
G01 X7.8262 Y7.0032
G01 X7.7633 Y6.8701
G01 X7.7587 Y6.8615
G01 X7.7026 Y6.7680
G00 Z2.0000
G00 X7.9114 Y6.7006
G01 F60.00
G01 Z-0.0475
G01 F250.00
G01 X8.0206 Y6.9177
G01 X8.1005 Y7.1510
G01 X8.1479 Y7.3929
G01 X8.1621 Y7.6390
G01 X8.1428 Y7.8847
G01 X8.0903 Y8.1256
G01 X8.0056 Y8.3571
G01 X7.9099 Y8.5378
G01 X7.8285 Y8.4565
G01 X7.8444 Y8.4299
G01 X7.8537 Y8.4126
G01 X7.9166 Y8.2795
G01 X7.9241 Y8.2614
G01 X7.9737 Y8.1228
G01 X7.9794 Y8.1040
G01 X8.0152 Y7.9612
G01 X8.0190 Y7.9420
G01 X8.0406 Y7.7964
G01 X8.0425 Y7.7768
G01 X8.0498 Y7.6298
G01 X8.0498 Y7.6102
G01 X8.0425 Y7.4632
G01 X8.0406 Y7.4436
G01 X8.0190 Y7.2980
G01 X8.0152 Y7.2788
G01 X7.9794 Y7.1360
G01 X7.9737 Y7.1172
G01 X7.9241 Y6.9786
G01 X7.9166 Y6.9605
G01 X7.8537 Y6.8274
G01 X7.8444 Y6.8101
G01 X7.8285 Y6.7835
G01 X7.9114 Y6.7006
G00 X7.9114 Y6.7006
G01 F60.00
G01 Z-0.0950
G01 F250.00
G01 X8.0206 Y6.9177
G01 X8.1005 Y7.1510
G01 X8.1479 Y7.3929
G01 X8.1621 Y7.6390
G01 X8.1428 Y7.8847
G01 X8.0903 Y8.1256
G01 X8.0056 Y8.3571
G01 X7.9099 Y8.5378
G01 X7.8285 Y8.4565
G01 X7.8444 Y8.4299
G01 X7.8537 Y8.4126
G01 X7.9166 Y8.2795
G01 X7.9241 Y8.2614
G01 X7.9737 Y8.1228
G01 X7.9794 Y8.1040
G01 X8.0152 Y7.9612
G01 X8.0190 Y7.9420
G01 X8.0406 Y7.7964
G01 X8.0425 Y7.7768
G01 X8.0498 Y7.6298
G01 X8.0498 Y7.6102
G01 X8.0425 Y7.4632
G01 X8.0406 Y7.4436
G01 X8.0190 Y7.2980
G01 X8.0152 Y7.2788
G01 X7.9794 Y7.1360
G01 X7.9737 Y7.1172
G01 X7.9241 Y6.9786
G01 X7.9166 Y6.9605
G01 X7.8537 Y6.8274
G01 X7.8444 Y6.8101
G01 X7.8285 Y6.7835
G01 X7.9114 Y6.7006
G00 Z2.0000
G00 X9.6244 Y9.1837
G01 F60.00
G01 Z-0.0475
G01 F250.00
G01 X9.6215 Y9.1573
G01 X9.6215 Y6.0827
G01 X9.6244 Y6.0563
G01 X9.6566 Y5.9703
G01 X9.7096 Y5.8996
G01 X9.7803 Y5.8466
G01 X9.8663 Y5.8144
G01 X9.8927 Y5.8115
G01 X12.9673 Y5.8115
G01 X12.9937 Y5.8144
G01 X13.0797 Y5.8466
G01 X13.1504 Y5.8996
G01 X13.2034 Y5.9703
G01 X13.2356 Y6.0563
G01 X13.2385 Y6.0827
G01 X13.2385 Y9.1573
G01 X13.2356 Y9.1837
G01 X13.2034 Y9.2697
G01 X13.1504 Y9.3404
G01 X13.0797 Y9.3934
G01 X12.9937 Y9.4256
G01 X12.9673 Y9.4285
G01 X12.4645 Y9.4285
G01 X12.4431 Y9.4296
G01 X12.4220 Y9.4331
G01 X12.3696 Y9.4445
G01 X12.3504 Y9.4497
G01 X12.3317 Y9.4568
G01 X12.3138 Y9.4657
G01 X12.2969 Y9.4764
G01 X12.2812 Y9.4887
G01 X12.2275 Y9.5352
G01 X12.2138 Y9.5484
G01 X12.2013 Y9.5627
G01 X12.1903 Y9.5783
G01 X12.1807 Y9.5947
G01 X12.1728 Y9.6120
G01 X12.1666 Y9.6300
G01 X12.1466 Y9.6982
G01 X12.1421 Y9.7166
G01 X12.1394 Y9.7355
G01 X12.1385 Y9.7545
G01 X12.1385 Y11.0015
G01 X12.1396 Y11.0229
G01 X12.1425 Y11.0497
G01 X12.1456 Y11.0690
G01 X12.1505 Y11.0880
G01 X12.1573 Y11.1065
G01 X12.1658 Y11.1241
G01 X12.1999 Y11.1864
G01 X12.2098 Y11.2027
G01 X12.2212 Y11.2179
G01 X12.2340 Y11.2320
G01 X12.8980 Y11.8960
G01 X12.9139 Y11.9103
G01 X12.9349 Y11.9272
G01 X12.9508 Y11.9388
G01 X12.9677 Y11.9487
G01 X12.9855 Y11.9569
G01 X13.0040 Y11.9634
G01 X13.0722 Y11.9834
G01 X13.0907 Y11.9879
G01 X13.1095 Y11.9906
G01 X13.1285 Y11.9915
G01 X21.8255 Y11.9915
G01 X21.8469 Y11.9904
G01 X21.8680 Y11.9869
G01 X21.9204 Y11.9755
G01 X21.9396 Y11.9703
G01 X21.9583 Y11.9632
G01 X21.9762 Y11.9543
G01 X21.9931 Y11.9436
G01 X22.0088 Y11.9313
G01 X22.0625 Y11.8848
G01 X22.0762 Y11.8716
G01 X22.0887 Y11.8573
G01 X22.0997 Y11.8417
G01 X22.1093 Y11.8253
G01 X22.1172 Y11.8080
G01 X22.1234 Y11.7900
G01 X22.1434 Y11.7218
G01 X22.1479 Y11.7034
G01 X22.1506 Y11.6845
G01 X22.1515 Y11.6655
G01 X22.1515 Y9.7545
G01 X22.1504 Y9.7331
G01 X22.1469 Y9.7120
G01 X22.1355 Y9.6596
G01 X22.1303 Y9.6404
G01 X22.1232 Y9.6217
G01 X22.1143 Y9.6038
G01 X22.1036 Y9.5869
G01 X22.0913 Y9.5712
G01 X22.0448 Y9.5175
G01 X22.0316 Y9.5038
G01 X22.0173 Y9.4913
G01 X22.0017 Y9.4803
G01 X21.9853 Y9.4707
G01 X21.9680 Y9.4628
G01 X21.9500 Y9.4566
G01 X21.8818 Y9.4366
G01 X21.8634 Y9.4321
G01 X21.8445 Y9.4294
G01 X21.8255 Y9.4285
G01 X21.3227 Y9.4285
G01 X21.2963 Y9.4256
G01 X21.2103 Y9.3934
G01 X21.1396 Y9.3404
G01 X21.0866 Y9.2697
G01 X21.0544 Y9.1837
G01 X21.0515 Y9.1573
G01 X21.0515 Y6.0827
G01 X21.0544 Y6.0563
G01 X21.0866 Y5.9703
G01 X21.1396 Y5.8996
G01 X21.2103 Y5.8466
G01 X21.2963 Y5.8144
G01 X21.3227 Y5.8115
G01 X24.3973 Y5.8115
G01 X24.4237 Y5.8144
G01 X24.5097 Y5.8466
G01 X24.5804 Y5.8996
G01 X24.6334 Y5.9703
G01 X24.6656 Y6.0563
G01 X24.6685 Y6.0827
G01 X24.6685 Y9.1573
G01 X24.6656 Y9.1837
G01 X24.6334 Y9.2697
G01 X24.5804 Y9.3404
G01 X24.5097 Y9.3934
G01 X24.4237 Y9.4256
G01 X24.3973 Y9.4285
G01 X23.8945 Y9.4285
G01 X23.8731 Y9.4296
G01 X23.8520 Y9.4331
G01 X23.7996 Y9.4445
G01 X23.7804 Y9.4497
G01 X23.7617 Y9.4568
G01 X23.7438 Y9.4657
G01 X23.7269 Y9.4764
G01 X23.7112 Y9.4887
G01 X23.6575 Y9.5352
G01 X23.6438 Y9.5484
G01 X23.6313 Y9.5627
G01 X23.6203 Y9.5783
G01 X23.6107 Y9.5947
G01 X23.6028 Y9.6120
G01 X23.5966 Y9.6300
G01 X23.5766 Y9.6982
G01 X23.5721 Y9.7166
G01 X23.5694 Y9.7355
G01 X23.5685 Y9.7545
G01 X23.5685 Y11.6655
G01 X23.5696 Y11.6869
G01 X23.5731 Y11.7080
G01 X23.5845 Y11.7604
G01 X23.5897 Y11.7796
G01 X23.5968 Y11.7983
G01 X23.6057 Y11.8162
G01 X23.6164 Y11.8331
G01 X23.6287 Y11.8488
G01 X23.6752 Y11.9025
G01 X23.6884 Y11.9162
G01 X23.7027 Y11.9287
G01 X23.7183 Y11.9397
G01 X23.7347 Y11.9493
G01 X23.7520 Y11.9572
G01 X23.7700 Y11.9634
G01 X23.8382 Y11.9834
G01 X23.8566 Y11.9879
G01 X23.8755 Y11.9906
G01 X23.8945 Y11.9915
G01 X33.2555 Y11.9915
G01 X33.2769 Y11.9904
G01 X33.2980 Y11.9869
G01 X33.3504 Y11.9755
G01 X33.3696 Y11.9703
G01 X33.3883 Y11.9632
G01 X33.4062 Y11.9543
G01 X33.4231 Y11.9436
G01 X33.4388 Y11.9313
G01 X33.4925 Y11.8848
G01 X33.5062 Y11.8716
G01 X33.5187 Y11.8573
G01 X33.5297 Y11.8417
G01 X33.5393 Y11.8253
G01 X33.5472 Y11.8080
G01 X33.5534 Y11.7900
G01 X33.5734 Y11.7218
G01 X33.5779 Y11.7034
G01 X33.5806 Y11.6845
G01 X33.5815 Y11.6655
G01 X33.5815 Y9.7545
G01 X33.5804 Y9.7331
G01 X33.5769 Y9.7120
G01 X33.5655 Y9.6596
G01 X33.5603 Y9.6404
G01 X33.5532 Y9.6217
G01 X33.5443 Y9.6038
G01 X33.5336 Y9.5869
G01 X33.5213 Y9.5712
G01 X33.4748 Y9.5175
G01 X33.4616 Y9.5038
G01 X33.4473 Y9.4913
G01 X33.4317 Y9.4803
G01 X33.4153 Y9.4707
G01 X33.3980 Y9.4628
G01 X33.3800 Y9.4566
G01 X33.3118 Y9.4366
G01 X33.2934 Y9.4321
G01 X33.2745 Y9.4294
G01 X33.2555 Y9.4285
G01 X32.7527 Y9.4285
G01 X32.7263 Y9.4256
G01 X32.6403 Y9.3934
G01 X32.5696 Y9.3404
G01 X32.5166 Y9.2697
G01 X32.4844 Y9.1837
G01 X32.4815 Y9.1573
G01 X32.4815 Y6.0827
G01 X32.4844 Y6.0563
G01 X32.5166 Y5.9703
G01 X32.5696 Y5.8996
G01 X32.6403 Y5.8466
G01 X32.7263 Y5.8144
G01 X32.7527 Y5.8115
G01 X35.8273 Y5.8115
G01 X35.8537 Y5.8144
G01 X35.9397 Y5.8466
G01 X36.0104 Y5.8996
G01 X36.0634 Y5.9703
G01 X36.0956 Y6.0563
G01 X36.0985 Y6.0827
G01 X36.0985 Y9.1573
G01 X36.0956 Y9.1837
G01 X36.0634 Y9.2697
G01 X36.0104 Y9.3404
G01 X35.9397 Y9.3934
G01 X35.8537 Y9.4256
G01 X35.8273 Y9.4285
G01 X35.3245 Y9.4285
G01 X35.3031 Y9.4296
G01 X35.2820 Y9.4331
G01 X35.2296 Y9.4445
G01 X35.2104 Y9.4497
G01 X35.1917 Y9.4568
G01 X35.1738 Y9.4657
G01 X35.1569 Y9.4764
G01 X35.1412 Y9.4887
G01 X35.0875 Y9.5352
G01 X35.0738 Y9.5484
G01 X35.0613 Y9.5627
G01 X35.0503 Y9.5783
G01 X35.0407 Y9.5947
G01 X35.0328 Y9.6120
G01 X35.0266 Y9.6300
G01 X35.0066 Y9.6982
G01 X35.0021 Y9.7166
G01 X34.9994 Y9.7355
G01 X34.9985 Y9.7545
G01 X34.9985 Y11.6655
G01 X34.9996 Y11.6869
G01 X35.0031 Y11.7080
G01 X35.0145 Y11.7604
G01 X35.0197 Y11.7796
G01 X35.0268 Y11.7983
G01 X35.0357 Y11.8162
G01 X35.0464 Y11.8331
G01 X35.0587 Y11.8488
G01 X35.1052 Y11.9025
G01 X35.1184 Y11.9162
G01 X35.1327 Y11.9287
G01 X35.1483 Y11.9397
G01 X35.1647 Y11.9493
G01 X35.1820 Y11.9572
G01 X35.2000 Y11.9634
G01 X35.2682 Y11.9834
G01 X35.2866 Y11.9879
G01 X35.3055 Y11.9906
G01 X35.3245 Y11.9915
G01 X44.6855 Y11.9915
G01 X44.7069 Y11.9904
G01 X44.7280 Y11.9869
G01 X44.7804 Y11.9755
G01 X44.7996 Y11.9703
G01 X44.8183 Y11.9632
G01 X44.8362 Y11.9543
G01 X44.8531 Y11.9436
G01 X44.8688 Y11.9313
G01 X44.9225 Y11.8848
G01 X44.9362 Y11.8716
G01 X44.9487 Y11.8573
G01 X44.9597 Y11.8417
G01 X44.9693 Y11.8253
G01 X44.9772 Y11.8080
G01 X44.9834 Y11.7900
G01 X45.0034 Y11.7218
G01 X45.0079 Y11.7034
G01 X45.0106 Y11.6845
G01 X45.0115 Y11.6655
G01 X45.0115 Y9.7545
G01 X45.0104 Y9.7331
G01 X45.0069 Y9.7120
G01 X44.9955 Y9.6596
G01 X44.9903 Y9.6404
G01 X44.9832 Y9.6217
G01 X44.9743 Y9.6038
G01 X44.9636 Y9.5869
G01 X44.9513 Y9.5712
G01 X44.9048 Y9.5175
G01 X44.8916 Y9.5038
G01 X44.8773 Y9.4913
G01 X44.8617 Y9.4803
G01 X44.8453 Y9.4707
G01 X44.8280 Y9.4628
G01 X44.8100 Y9.4566
G01 X44.7418 Y9.4366
G01 X44.7234 Y9.4321
G01 X44.7045 Y9.4294
G01 X44.6855 Y9.4285
G01 X44.1827 Y9.4285
G01 X44.1563 Y9.4256
G01 X44.0703 Y9.3934
G01 X43.9996 Y9.3404
G01 X43.9466 Y9.2697
G01 X43.9144 Y9.1837
G01 X43.9115 Y9.1573
G01 X43.9115 Y6.0827
G01 X43.9144 Y6.0563
G01 X43.9466 Y5.9703
G01 X43.9996 Y5.8996
G01 X44.0703 Y5.8466
G01 X44.1563 Y5.8144
G01 X44.1827 Y5.8115
G01 X47.2573 Y5.8115
G01 X47.2837 Y5.8144
G01 X47.3697 Y5.8466
G01 X47.4404 Y5.8996
G01 X47.4934 Y5.9703
G01 X47.5256 Y6.0563
G01 X47.5285 Y6.0827
G01 X47.5285 Y9.1573
G01 X47.5256 Y9.1837
G01 X47.4934 Y9.2697
G01 X47.4404 Y9.3404
G01 X47.3697 Y9.3934
G01 X47.2837 Y9.4256
G01 X47.2573 Y9.4285
G01 X46.7545 Y9.4285
G01 X46.7331 Y9.4296
G01 X46.7120 Y9.4331
G01 X46.6596 Y9.4445
G01 X46.6404 Y9.4497
G01 X46.6217 Y9.4568
G01 X46.6038 Y9.4657
G01 X46.5869 Y9.4764
G01 X46.5712 Y9.4887
G01 X46.5175 Y9.5352
G01 X46.5038 Y9.5484
G01 X46.4913 Y9.5627
G01 X46.4803 Y9.5783
G01 X46.4707 Y9.5947
G01 X46.4628 Y9.6120
G01 X46.4566 Y9.6300
G01 X46.4366 Y9.6982
G01 X46.4321 Y9.7166
G01 X46.4294 Y9.7355
G01 X46.4285 Y9.7545
G01 X46.4285 Y11.6655
G01 X46.4296 Y11.6869
G01 X46.4331 Y11.7080
G01 X46.4445 Y11.7604
G01 X46.4497 Y11.7796
G01 X46.4568 Y11.7983
G01 X46.4657 Y11.8162
G01 X46.4764 Y11.8331
G01 X46.4887 Y11.8488
G01 X46.5352 Y11.9025
G01 X46.5484 Y11.9162
G01 X46.5627 Y11.9287
G01 X46.5783 Y11.9397
G01 X46.5947 Y11.9493
G01 X46.6120 Y11.9572
G01 X46.6300 Y11.9634
G01 X46.6982 Y11.9834
G01 X46.7166 Y11.9879
G01 X46.7355 Y11.9906
G01 X46.7545 Y11.9915
G01 X47.8315 Y11.9915
G01 X47.8529 Y11.9904
G01 X47.8797 Y11.9875
G01 X47.8990 Y11.9844
G01 X47.9180 Y11.9795
G01 X47.9365 Y11.9727
G01 X47.9541 Y11.9642
G01 X48.0164 Y11.9301
G01 X48.0327 Y11.9202
G01 X48.0479 Y11.9088
G01 X48.0620 Y11.8960
G01 X50.2414 Y9.7166
G01 X50.2521 Y9.7051
G01 X50.2694 Y9.6844
G01 X50.3058 Y9.6516
G01 X50.3253 Y9.6328
G01 X50.3461 Y9.6154
G01 X50.3825 Y9.5826
G01 X50.3885 Y9.5788
G01 X50.4106 Y9.5633
G01 X50.4589 Y9.5386
G01 X50.5116 Y9.5084
G01 X50.5366 Y9.4983
G01 X50.5431 Y9.4953
G01 X50.5955 Y9.4812
G01 X50.6534 Y9.4627
G01 X50.6605 Y9.4616
G01 X50.6869 Y9.4565
G01 X50.7359 Y9.4539
G01 X50.7629 Y9.4515
G01 X50.7900 Y9.4511
G01 X50.8389 Y9.4485
G01 X50.8657 Y9.4509
G01 X50.8814 Y9.4515
G01 X93.8986 Y9.4515
G01 X93.9143 Y9.4509
G01 X93.9411 Y9.4485
G01 X93.9900 Y9.4511
G01 X94.0071 Y9.4515
G01 X99.4655 Y9.4515
G01 X99.4869 Y9.4504
G01 X99.5080 Y9.4469
G01 X99.5604 Y9.4355
G01 X99.5796 Y9.4303
G01 X99.5983 Y9.4232
G01 X99.6162 Y9.4143
G01 X99.6331 Y9.4036
G01 X99.6488 Y9.3913
G01 X99.7025 Y9.3448
G01 X99.7162 Y9.3316
G01 X99.7287 Y9.3173
G01 X99.7397 Y9.3017
G01 X99.7493 Y9.2853
G01 X99.7572 Y9.2680
G01 X99.7634 Y9.2500
G01 X99.7834 Y9.1818
G01 X99.7879 Y9.1634
G01 X99.7906 Y9.1445
G01 X99.7915 Y9.1255
G01 X99.7915 Y8.6227
G01 X99.7944 Y8.5963
G01 X99.8266 Y8.5103
G01 X99.8796 Y8.4396
G01 X99.9503 Y8.3866
G01 X100.0363 Y8.3544
G01 X100.0627 Y8.3515
G01 X103.1373 Y8.3515
G01 X103.1637 Y8.3544
G01 X103.2497 Y8.3866
G01 X103.3204 Y8.4396
G01 X103.3734 Y8.5103
G01 X103.4056 Y8.5963
G01 X103.4085 Y8.6227
G01 X103.4085 Y11.6973
G01 X103.4056 Y11.7237
G01 X103.3734 Y11.8097
G01 X103.3204 Y11.8804
G01 X103.2497 Y11.9334
G01 X103.1637 Y11.9656
G01 X103.1373 Y11.9685
G01 X100.0627 Y11.9685
G01 X100.0363 Y11.9656
G01 X99.9503 Y11.9334
G01 X99.8796 Y11.8804
G01 X99.8266 Y11.8097
G01 X99.7944 Y11.7237
G01 X99.7915 Y11.6973
G01 X99.7915 Y11.1945
G01 X99.7904 Y11.1731
G01 X99.7869 Y11.1520
G01 X99.7755 Y11.0996
G01 X99.7703 Y11.0804
G01 X99.7632 Y11.0617
G01 X99.7543 Y11.0438
G01 X99.7436 Y11.0269
G01 X99.7313 Y11.0112
G01 X99.6848 Y10.9575
G01 X99.6716 Y10.9438
G01 X99.6573 Y10.9313
G01 X99.6417 Y10.9203
G01 X99.6253 Y10.9107
G01 X99.6080 Y10.9028
G01 X99.5900 Y10.8966
G01 X99.5218 Y10.8766
G01 X99.5034 Y10.8721
G01 X99.4845 Y10.8694
G01 X99.4655 Y10.8685
G01 X95.0595 Y10.8685
G01 X95.0381 Y10.8696
G01 X95.0170 Y10.8731
G01 X94.9646 Y10.8845
G01 X94.9453 Y10.8897
G01 X94.9267 Y10.8968
G01 X94.9088 Y10.9057
G01 X94.8919 Y10.9164
G01 X94.8762 Y10.9287
G01 X94.8225 Y10.9752
G01 X94.8087 Y10.9884
G01 X94.7963 Y11.0027
G01 X94.7852 Y11.0183
G01 X94.7757 Y11.0347
G01 X94.7678 Y11.0520
G01 X94.7616 Y11.0700
G01 X94.7416 Y11.1382
G01 X94.7371 Y11.1566
G01 X94.7344 Y11.1755
G01 X94.7335 Y11.1945
G01 X94.7335 Y20.7156
G01 X94.7346 Y20.7370
G01 X94.7381 Y20.7581
G01 X94.7494 Y20.8105
G01 X94.7547 Y20.8298
G01 X94.7618 Y20.8484
G01 X94.7707 Y20.8663
G01 X94.7814 Y20.8832
G01 X94.7937 Y20.8989
G01 X94.8402 Y20.9526
G01 X94.8534 Y20.9664
G01 X94.8677 Y20.9788
G01 X94.8832 Y20.9899
G01 X94.8997 Y20.9994
G01 X94.9170 Y21.0073
G01 X94.9350 Y21.0135
G01 X95.0031 Y21.0335
G01 X95.0216 Y21.0380
G01 X95.0405 Y21.0407
G01 X95.0595 Y21.0416
G01 X95.3323 Y21.0416
G01 X95.3587 Y21.0445
G01 X95.4447 Y21.0767
G01 X95.5154 Y21.1297
G01 X95.5684 Y21.2004
G01 X95.6006 Y21.2864
G01 X95.6035 Y21.3128
G01 X95.6035 Y23.9274
G01 X95.6006 Y23.9538
G01 X95.5684 Y24.0398
G01 X95.5154 Y24.1105
G01 X95.4447 Y24.1635
G01 X95.3587 Y24.1958
G01 X95.3323 Y24.1986
G01 X92.7177 Y24.1986
G01 X92.6913 Y24.1958
G01 X92.6053 Y24.1635
G01 X92.5346 Y24.1105
G01 X92.4816 Y24.0398
G01 X92.4494 Y23.9538
G01 X92.4465 Y23.9274
G01 X92.4465 Y21.3128
G01 X92.4494 Y21.2864
G01 X92.4816 Y21.2004
G01 X92.5346 Y21.1297
G01 X92.6053 Y21.0767
G01 X92.6913 Y21.0445
G01 X92.7177 Y21.0416
G01 X92.9905 Y21.0416
G01 X93.0119 Y21.0405
G01 X93.0330 Y21.0371
G01 X93.0853 Y21.0257
G01 X93.1046 Y21.0205
G01 X93.1233 Y21.0133
G01 X93.1412 Y21.0044
G01 X93.1581 Y20.9937
G01 X93.1738 Y20.9814
G01 X93.2275 Y20.9349
G01 X93.2412 Y20.9218
G01 X93.2537 Y20.9074
G01 X93.2647 Y20.8919
G01 X93.2743 Y20.8754
G01 X93.2822 Y20.8581
G01 X93.2884 Y20.8401
G01 X93.3084 Y20.7720
G01 X93.3129 Y20.7535
G01 X93.3156 Y20.7346
G01 X93.3165 Y20.7156
G01 X93.3165 Y11.1945
G01 X93.3153 Y11.1731
G01 X93.3119 Y11.1520
G01 X93.3005 Y11.0996
G01 X93.2953 Y11.0804
G01 X93.2882 Y11.0617
G01 X93.2793 Y11.0438
G01 X93.2686 Y11.0269
G01 X93.2563 Y11.0112
G01 X93.2098 Y10.9575
G01 X93.1966 Y10.9438
G01 X93.1822 Y10.9313
G01 X93.1667 Y10.9203
G01 X93.1503 Y10.9107
G01 X93.1329 Y10.9028
G01 X93.1150 Y10.8966
G01 X93.0468 Y10.8766
G01 X93.0283 Y10.8721
G01 X93.0095 Y10.8694
G01 X92.9905 Y10.8685
G01 X51.2285 Y10.8685
G01 X51.2071 Y10.8696
G01 X51.1803 Y10.8725
G01 X51.1610 Y10.8756
G01 X51.1420 Y10.8805
G01 X51.1235 Y10.8873
G01 X51.1059 Y10.8958
G01 X51.0436 Y10.9299
G01 X51.0273 Y10.9398
G01 X51.0121 Y10.9512
G01 X50.9980 Y10.9640
G01 X48.8186 Y13.1434
G01 X48.8079 Y13.1549
G01 X48.7906 Y13.1756
G01 X48.7542 Y13.2084
G01 X48.7347 Y13.2272
G01 X48.7140 Y13.2446
G01 X48.6775 Y13.2774
G01 X48.6552 Y13.2924
G01 X48.6494 Y13.2967
G01 X48.6011 Y13.3214
G01 X48.5484 Y13.3516
G01 X48.5234 Y13.3617
G01 X48.5169 Y13.3647
G01 X48.4582 Y13.3806
G01 X48.4066 Y13.3973
G01 X48.3800 Y13.4020
G01 X48.3731 Y13.4035
G01 X48.3241 Y13.4061
G01 X48.2971 Y13.4085
G01 X48.2700 Y13.4089
G01 X48.2211 Y13.4115
G01 X48.1943 Y13.4091
G01 X48.1786 Y13.4085
G01 X12.7814 Y13.4085
G01 X12.7657 Y13.4091
G01 X12.7389 Y13.4115
G01 X12.6900 Y13.4089
G01 X12.6629 Y13.4085
G01 X12.6359 Y13.4061
G01 X12.5869 Y13.4035
G01 X12.5605 Y13.3984
G01 X12.5534 Y13.3973
G01 X12.4955 Y13.3788
G01 X12.4431 Y13.3647
G01 X12.4366 Y13.3617
G01 X12.4116 Y13.3516
G01 X12.3589 Y13.3214
G01 X12.3106 Y13.2967
G01 X12.3048 Y13.2924
G01 X12.2825 Y13.2774
G01 X12.2461 Y13.2446
G01 X12.2253 Y13.2272
G01 X12.2058 Y13.2084
G01 X12.1694 Y13.1756
G01 X12.1521 Y13.1549
G01 X12.1414 Y13.1434
G01 X10.9866 Y11.9886
G01 X10.9751 Y11.9779
G01 X10.9544 Y11.9606
G01 X10.9216 Y11.9242
G01 X10.9028 Y11.9047
G01 X10.8854 Y11.8839
G01 X10.8526 Y11.8475
G01 X10.8488 Y11.8415
G01 X10.8333 Y11.8194
G01 X10.8086 Y11.7711
G01 X10.7784 Y11.7184
G01 X10.7683 Y11.6934
G01 X10.7653 Y11.6869
G01 X10.7494 Y11.6282
G01 X10.7327 Y11.5766
G01 X10.7280 Y11.5500
G01 X10.7265 Y11.5431
G01 X10.7239 Y11.4941
G01 X10.7215 Y11.4671
G01 X10.7211 Y11.4400
G01 X10.7185 Y11.3911
G01 X10.7209 Y11.3643
G01 X10.7215 Y11.3486
G01 X10.7215 Y9.7545
G01 X10.7204 Y9.7331
G01 X10.7169 Y9.7120
G01 X10.7055 Y9.6596
G01 X10.7003 Y9.6404
G01 X10.6932 Y9.6217
G01 X10.6843 Y9.6038
G01 X10.6736 Y9.5869
G01 X10.6613 Y9.5712
G01 X10.6148 Y9.5175
G01 X10.6016 Y9.5038
G01 X10.5873 Y9.4913
G01 X10.5717 Y9.4803
G01 X10.5553 Y9.4707
G01 X10.5380 Y9.4628
G01 X10.5200 Y9.4566
G01 X10.4518 Y9.4366
G01 X10.4334 Y9.4321
G01 X10.4145 Y9.4294
G01 X10.3955 Y9.4285
G01 X9.8927 Y9.4285
G01 X9.8663 Y9.4256
G01 X9.7803 Y9.3934
G01 X9.7096 Y9.3404
G01 X9.6566 Y9.2697
G01 X9.6244 Y9.1837
G00 X9.6244 Y9.1837
G01 F60.00
G01 Z-0.0950
G01 F250.00
G01 X9.6215 Y9.1573
G01 X9.6215 Y6.0827
G01 X9.6244 Y6.0563
G01 X9.6566 Y5.9703
G01 X9.7096 Y5.8996
G01 X9.7803 Y5.8466
G01 X9.8663 Y5.8144
G01 X9.8927 Y5.8115
G01 X12.9673 Y5.8115
G01 X12.9937 Y5.8144
G01 X13.0797 Y5.8466
G01 X13.1504 Y5.8996
G01 X13.2034 Y5.9703
G01 X13.2356 Y6.0563
G01 X13.2385 Y6.0827
G01 X13.2385 Y9.1573
G01 X13.2356 Y9.1837
G01 X13.2034 Y9.2697
G01 X13.1504 Y9.3404
G01 X13.0797 Y9.3934
G01 X12.9937 Y9.4256
G01 X12.9673 Y9.4285
G01 X12.4645 Y9.4285
G01 X12.4431 Y9.4296
G01 X12.4220 Y9.4331
G01 X12.3696 Y9.4445
G01 X12.3504 Y9.4497
G01 X12.3317 Y9.4568
G01 X12.3138 Y9.4657
G01 X12.2969 Y9.4764
G01 X12.2812 Y9.4887
G01 X12.2275 Y9.5352
G01 X12.2138 Y9.5484
G01 X12.2013 Y9.5627
G01 X12.1903 Y9.5783
G01 X12.1807 Y9.5947
G01 X12.1728 Y9.6120
G01 X12.1666 Y9.6300
G01 X12.1466 Y9.6982
G01 X12.1421 Y9.7166
G01 X12.1394 Y9.7355
G01 X12.1385 Y9.7545
G01 X12.1385 Y11.0015
G01 X12.1396 Y11.0229
G01 X12.1425 Y11.0497
G01 X12.1456 Y11.0690
G01 X12.1505 Y11.0880
G01 X12.1573 Y11.1065
G01 X12.1658 Y11.1241
G01 X12.1999 Y11.1864
G01 X12.2098 Y11.2027
G01 X12.2212 Y11.2179
G01 X12.2340 Y11.2320
G01 X12.8980 Y11.8960
G01 X12.9139 Y11.9103
G01 X12.9349 Y11.9272
G01 X12.9508 Y11.9388
G01 X12.9677 Y11.9487
G01 X12.9855 Y11.9569
G01 X13.0040 Y11.9634
G01 X13.0722 Y11.9834
G01 X13.0907 Y11.9879
G01 X13.1095 Y11.9906
G01 X13.1285 Y11.9915
G01 X21.8255 Y11.9915
G01 X21.8469 Y11.9904
G01 X21.8680 Y11.9869
G01 X21.9204 Y11.9755
G01 X21.9396 Y11.9703
G01 X21.9583 Y11.9632
G01 X21.9762 Y11.9543
G01 X21.9931 Y11.9436
G01 X22.0088 Y11.9313
G01 X22.0625 Y11.8848
G01 X22.0762 Y11.8716
G01 X22.0887 Y11.8573
G01 X22.0997 Y11.8417
G01 X22.1093 Y11.8253
G01 X22.1172 Y11.8080
G01 X22.1234 Y11.7900
G01 X22.1434 Y11.7218
G01 X22.1479 Y11.7034
G01 X22.1506 Y11.6845
G01 X22.1515 Y11.6655
G01 X22.1515 Y9.7545
G01 X22.1504 Y9.7331
G01 X22.1469 Y9.7120
G01 X22.1355 Y9.6596
G01 X22.1303 Y9.6404
G01 X22.1232 Y9.6217
G01 X22.1143 Y9.6038
G01 X22.1036 Y9.5869
G01 X22.0913 Y9.5712
G01 X22.0448 Y9.5175
G01 X22.0316 Y9.5038
G01 X22.0173 Y9.4913
G01 X22.0017 Y9.4803
G01 X21.9853 Y9.4707
G01 X21.9680 Y9.4628
G01 X21.9500 Y9.4566
G01 X21.8818 Y9.4366
G01 X21.8634 Y9.4321
G01 X21.8445 Y9.4294
G01 X21.8255 Y9.4285
G01 X21.3227 Y9.4285
G01 X21.2963 Y9.4256
G01 X21.2103 Y9.3934
G01 X21.1396 Y9.3404
G01 X21.0866 Y9.2697
G01 X21.0544 Y9.1837
G01 X21.0515 Y9.1573
G01 X21.0515 Y6.0827
G01 X21.0544 Y6.0563
G01 X21.0866 Y5.9703
G01 X21.1396 Y5.8996
G01 X21.2103 Y5.8466
G01 X21.2963 Y5.8144
G01 X21.3227 Y5.8115
G01 X24.3973 Y5.8115
G01 X24.4237 Y5.8144
G01 X24.5097 Y5.8466
G01 X24.5804 Y5.8996
G01 X24.6334 Y5.9703
G01 X24.6656 Y6.0563
G01 X24.6685 Y6.0827
G01 X24.6685 Y9.1573
G01 X24.6656 Y9.1837
G01 X24.6334 Y9.2697
G01 X24.5804 Y9.3404
G01 X24.5097 Y9.3934
G01 X24.4237 Y9.4256
G01 X24.3973 Y9.4285
G01 X23.8945 Y9.4285
G01 X23.8731 Y9.4296
G01 X23.8520 Y9.4331
G01 X23.7996 Y9.4445
G01 X23.7804 Y9.4497
G01 X23.7617 Y9.4568
G01 X23.7438 Y9.4657
G01 X23.7269 Y9.4764
G01 X23.7112 Y9.4887
G01 X23.6575 Y9.5352
G01 X23.6438 Y9.5484
G01 X23.6313 Y9.5627
G01 X23.6203 Y9.5783
G01 X23.6107 Y9.5947
G01 X23.6028 Y9.6120
G01 X23.5966 Y9.6300
G01 X23.5766 Y9.6982
G01 X23.5721 Y9.7166
G01 X23.5694 Y9.7355
G01 X23.5685 Y9.7545
G01 X23.5685 Y11.6655
G01 X23.5696 Y11.6869
G01 X23.5731 Y11.7080
G01 X23.5845 Y11.7604
G01 X23.5897 Y11.7796
G01 X23.5968 Y11.7983
G01 X23.6057 Y11.8162
G01 X23.6164 Y11.8331
G01 X23.6287 Y11.8488
G01 X23.6752 Y11.9025
G01 X23.6884 Y11.9162
G01 X23.7027 Y11.9287
G01 X23.7183 Y11.9397
G01 X23.7347 Y11.9493
G01 X23.7520 Y11.9572
G01 X23.7700 Y11.9634
G01 X23.8382 Y11.9834
G01 X23.8566 Y11.9879
G01 X23.8755 Y11.9906
G01 X23.8945 Y11.9915
G01 X33.2555 Y11.9915
G01 X33.2769 Y11.9904
G01 X33.2980 Y11.9869
G01 X33.3504 Y11.9755
G01 X33.3696 Y11.9703
G01 X33.3883 Y11.9632
G01 X33.4062 Y11.9543
G01 X33.4231 Y11.9436
G01 X33.4388 Y11.9313
G01 X33.4925 Y11.8848
G01 X33.5062 Y11.8716
G01 X33.5187 Y11.8573
G01 X33.5297 Y11.8417
G01 X33.5393 Y11.8253
G01 X33.5472 Y11.8080
G01 X33.5534 Y11.7900
G01 X33.5734 Y11.7218
G01 X33.5779 Y11.7034
G01 X33.5806 Y11.6845
G01 X33.5815 Y11.6655
G01 X33.5815 Y9.7545
G01 X33.5804 Y9.7331
G01 X33.5769 Y9.7120
G01 X33.5655 Y9.6596
G01 X33.5603 Y9.6404
G01 X33.5532 Y9.6217
G01 X33.5443 Y9.6038
G01 X33.5336 Y9.5869
G01 X33.5213 Y9.5712
G01 X33.4748 Y9.5175
G01 X33.4616 Y9.5038
G01 X33.4473 Y9.4913
G01 X33.4317 Y9.4803
G01 X33.4153 Y9.4707
G01 X33.3980 Y9.4628
G01 X33.3800 Y9.4566
G01 X33.3118 Y9.4366
G01 X33.2934 Y9.4321
G01 X33.2745 Y9.4294
G01 X33.2555 Y9.4285
G01 X32.7527 Y9.4285
G01 X32.7263 Y9.4256
G01 X32.6403 Y9.3934
G01 X32.5696 Y9.3404
G01 X32.5166 Y9.2697
G01 X32.4844 Y9.1837
G01 X32.4815 Y9.1573
G01 X32.4815 Y6.0827
G01 X32.4844 Y6.0563
G01 X32.5166 Y5.9703
G01 X32.5696 Y5.8996
G01 X32.6403 Y5.8466
G01 X32.7263 Y5.8144
G01 X32.7527 Y5.8115
G01 X35.8273 Y5.8115
G01 X35.8537 Y5.8144
G01 X35.9397 Y5.8466
G01 X36.0104 Y5.8996
G01 X36.0634 Y5.9703
G01 X36.0956 Y6.0563
G01 X36.0985 Y6.0827
G01 X36.0985 Y9.1573
G01 X36.0956 Y9.1837
G01 X36.0634 Y9.2697
G01 X36.0104 Y9.3404
G01 X35.9397 Y9.3934
G01 X35.8537 Y9.4256
G01 X35.8273 Y9.4285
G01 X35.3245 Y9.4285
G01 X35.3031 Y9.4296
G01 X35.2820 Y9.4331
G01 X35.2296 Y9.4445
G01 X35.2104 Y9.4497
G01 X35.1917 Y9.4568
G01 X35.1738 Y9.4657
G01 X35.1569 Y9.4764
G01 X35.1412 Y9.4887
G01 X35.0875 Y9.5352
G01 X35.0738 Y9.5484
G01 X35.0613 Y9.5627
G01 X35.0503 Y9.5783
G01 X35.0407 Y9.5947
G01 X35.0328 Y9.6120
G01 X35.0266 Y9.6300
G01 X35.0066 Y9.6982
G01 X35.0021 Y9.7166
G01 X34.9994 Y9.7355
G01 X34.9985 Y9.7545
G01 X34.9985 Y11.6655
G01 X34.9996 Y11.6869
G01 X35.0031 Y11.7080
G01 X35.0145 Y11.7604
G01 X35.0197 Y11.7796
G01 X35.0268 Y11.7983
G01 X35.0357 Y11.8162
G01 X35.0464 Y11.8331
G01 X35.0587 Y11.8488
G01 X35.1052 Y11.9025
G01 X35.1184 Y11.9162
G01 X35.1327 Y11.9287
G01 X35.1483 Y11.9397
G01 X35.1647 Y11.9493
G01 X35.1820 Y11.9572
G01 X35.2000 Y11.9634
G01 X35.2682 Y11.9834
G01 X35.2866 Y11.9879
G01 X35.3055 Y11.9906
G01 X35.3245 Y11.9915
G01 X44.6855 Y11.9915
G01 X44.7069 Y11.9904
G01 X44.7280 Y11.9869
G01 X44.7804 Y11.9755
G01 X44.7996 Y11.9703
G01 X44.8183 Y11.9632
G01 X44.8362 Y11.9543
G01 X44.8531 Y11.9436
G01 X44.8688 Y11.9313
G01 X44.9225 Y11.8848
G01 X44.9362 Y11.8716
G01 X44.9487 Y11.8573
G01 X44.9597 Y11.8417
G01 X44.9693 Y11.8253
G01 X44.9772 Y11.8080
G01 X44.9834 Y11.7900
G01 X45.0034 Y11.7218
G01 X45.0079 Y11.7034
G01 X45.0106 Y11.6845
G01 X45.0115 Y11.6655
G01 X45.0115 Y9.7545
G01 X45.0104 Y9.7331
G01 X45.0069 Y9.7120
G01 X44.9955 Y9.6596
G01 X44.9903 Y9.6404
G01 X44.9832 Y9.6217
G01 X44.9743 Y9.6038
G01 X44.9636 Y9.5869
G01 X44.9513 Y9.5712
G01 X44.9048 Y9.5175
G01 X44.8916 Y9.5038
G01 X44.8773 Y9.4913
G01 X44.8617 Y9.4803
G01 X44.8453 Y9.4707
G01 X44.8280 Y9.4628
G01 X44.8100 Y9.4566
G01 X44.7418 Y9.4366
G01 X44.7234 Y9.4321
G01 X44.7045 Y9.4294
G01 X44.6855 Y9.4285
G01 X44.1827 Y9.4285
G01 X44.1563 Y9.4256
G01 X44.0703 Y9.3934
G01 X43.9996 Y9.3404
G01 X43.9466 Y9.2697
G01 X43.9144 Y9.1837
G01 X43.9115 Y9.1573
G01 X43.9115 Y6.0827
G01 X43.9144 Y6.0563
G01 X43.9466 Y5.9703
G01 X43.9996 Y5.8996
G01 X44.0703 Y5.8466
G01 X44.1563 Y5.8144
G01 X44.1827 Y5.8115
G01 X47.2573 Y5.8115
G01 X47.2837 Y5.8144
G01 X47.3697 Y5.8466
G01 X47.4404 Y5.8996
G01 X47.4934 Y5.9703
G01 X47.5256 Y6.0563
G01 X47.5285 Y6.0827
G01 X47.5285 Y9.1573
G01 X47.5256 Y9.1837
G01 X47.4934 Y9.2697
G01 X47.4404 Y9.3404
G01 X47.3697 Y9.3934
G01 X47.2837 Y9.4256
G01 X47.2573 Y9.4285
G01 X46.7545 Y9.4285
G01 X46.7331 Y9.4296
G01 X46.7120 Y9.4331
G01 X46.6596 Y9.4445
G01 X46.6404 Y9.4497
G01 X46.6217 Y9.4568
G01 X46.6038 Y9.4657
G01 X46.5869 Y9.4764
G01 X46.5712 Y9.4887
G01 X46.5175 Y9.5352
G01 X46.5038 Y9.5484
G01 X46.4913 Y9.5627
G01 X46.4803 Y9.5783
G01 X46.4707 Y9.5947
G01 X46.4628 Y9.6120
G01 X46.4566 Y9.6300
G01 X46.4366 Y9.6982
G01 X46.4321 Y9.7166
G01 X46.4294 Y9.7355
G01 X46.4285 Y9.7545
G01 X46.4285 Y11.6655
G01 X46.4296 Y11.6869
G01 X46.4331 Y11.7080
G01 X46.4445 Y11.7604
G01 X46.4497 Y11.7796
G01 X46.4568 Y11.7983
G01 X46.4657 Y11.8162
G01 X46.4764 Y11.8331
G01 X46.4887 Y11.8488
G01 X46.5352 Y11.9025
G01 X46.5484 Y11.9162
G01 X46.5627 Y11.9287
G01 X46.5783 Y11.9397
G01 X46.5947 Y11.9493
G01 X46.6120 Y11.9572
G01 X46.6300 Y11.9634
G01 X46.6982 Y11.9834
G01 X46.7166 Y11.9879
G01 X46.7355 Y11.9906
G01 X46.7545 Y11.9915
G01 X47.8315 Y11.9915
G01 X47.8529 Y11.9904
G01 X47.8797 Y11.9875
G01 X47.8990 Y11.9844
G01 X47.9180 Y11.9795
G01 X47.9365 Y11.9727
G01 X47.9541 Y11.9642
G01 X48.0164 Y11.9301
G01 X48.0327 Y11.9202
G01 X48.0479 Y11.9088
G01 X48.0620 Y11.8960
G01 X50.2414 Y9.7166
G01 X50.2521 Y9.7051
G01 X50.2694 Y9.6844
G01 X50.3058 Y9.6516
G01 X50.3253 Y9.6328
G01 X50.3461 Y9.6154
G01 X50.3825 Y9.5826
G01 X50.3885 Y9.5788
G01 X50.4106 Y9.5633
G01 X50.4589 Y9.5386
G01 X50.5116 Y9.5084
G01 X50.5366 Y9.4983
G01 X50.5431 Y9.4953
G01 X50.5955 Y9.4812
G01 X50.6534 Y9.4627
G01 X50.6605 Y9.4616
G01 X50.6869 Y9.4565
G01 X50.7359 Y9.4539
G01 X50.7629 Y9.4515
G01 X50.7900 Y9.4511
G01 X50.8389 Y9.4485
G01 X50.8657 Y9.4509
G01 X50.8814 Y9.4515
G01 X93.8986 Y9.4515
G01 X93.9143 Y9.4509
G01 X93.9411 Y9.4485
G01 X93.9900 Y9.4511
G01 X94.0071 Y9.4515
G01 X99.4655 Y9.4515
G01 X99.4869 Y9.4504
G01 X99.5080 Y9.4469
G01 X99.5604 Y9.4355
G01 X99.5796 Y9.4303
G01 X99.5983 Y9.4232
G01 X99.6162 Y9.4143
G01 X99.6331 Y9.4036
G01 X99.6488 Y9.3913
G01 X99.7025 Y9.3448
G01 X99.7162 Y9.3316
G01 X99.7287 Y9.3173
G01 X99.7397 Y9.3017
G01 X99.7493 Y9.2853
G01 X99.7572 Y9.2680
G01 X99.7634 Y9.2500
G01 X99.7834 Y9.1818
G01 X99.7879 Y9.1634
G01 X99.7906 Y9.1445
G01 X99.7915 Y9.1255
G01 X99.7915 Y8.6227
G01 X99.7944 Y8.5963
G01 X99.8266 Y8.5103
G01 X99.8796 Y8.4396
G01 X99.9503 Y8.3866
G01 X100.0363 Y8.3544
G01 X100.0627 Y8.3515
G01 X103.1373 Y8.3515
G01 X103.1637 Y8.3544
G01 X103.2497 Y8.3866
G01 X103.3204 Y8.4396
G01 X103.3734 Y8.5103
G01 X103.4056 Y8.5963
G01 X103.4085 Y8.6227
G01 X103.4085 Y11.6973
G01 X103.4056 Y11.7237
G01 X103.3734 Y11.8097
G01 X103.3204 Y11.8804
G01 X103.2497 Y11.9334
G01 X103.1637 Y11.9656
G01 X103.1373 Y11.9685
G01 X100.0627 Y11.9685
G01 X100.0363 Y11.9656
G01 X99.9503 Y11.9334
G01 X99.8796 Y11.8804
G01 X99.8266 Y11.8097
G01 X99.7944 Y11.7237
G01 X99.7915 Y11.6973
G01 X99.7915 Y11.1945
G01 X99.7904 Y11.1731
G01 X99.7869 Y11.1520
G01 X99.7755 Y11.0996
G01 X99.7703 Y11.0804
G01 X99.7632 Y11.0617
G01 X99.7543 Y11.0438
G01 X99.7436 Y11.0269
G01 X99.7313 Y11.0112
G01 X99.6848 Y10.9575
G01 X99.6716 Y10.9438
G01 X99.6573 Y10.9313
G01 X99.6417 Y10.9203
G01 X99.6253 Y10.9107
G01 X99.6080 Y10.9028
G01 X99.5900 Y10.8966
G01 X99.5218 Y10.8766
G01 X99.5034 Y10.8721
G01 X99.4845 Y10.8694
G01 X99.4655 Y10.8685
G01 X95.0595 Y10.8685
G01 X95.0381 Y10.8696
G01 X95.0170 Y10.8731
G01 X94.9646 Y10.8845
G01 X94.9453 Y10.8897
G01 X94.9267 Y10.8968
G01 X94.9088 Y10.9057
G01 X94.8919 Y10.9164
G01 X94.8762 Y10.9287
G01 X94.8225 Y10.9752
G01 X94.8087 Y10.9884
G01 X94.7963 Y11.0027
G01 X94.7852 Y11.0183
G01 X94.7757 Y11.0347
G01 X94.7678 Y11.0520
G01 X94.7616 Y11.0700
G01 X94.7416 Y11.1382
G01 X94.7371 Y11.1566
G01 X94.7344 Y11.1755
G01 X94.7335 Y11.1945
G01 X94.7335 Y20.7156
G01 X94.7346 Y20.7370
G01 X94.7381 Y20.7581
G01 X94.7494 Y20.8105
G01 X94.7547 Y20.8298
G01 X94.7618 Y20.8484
G01 X94.7707 Y20.8663
G01 X94.7814 Y20.8832
G01 X94.7937 Y20.8989
G01 X94.8402 Y20.9526
G01 X94.8534 Y20.9664
G01 X94.8677 Y20.9788
G01 X94.8832 Y20.9899
G01 X94.8997 Y20.9994
G01 X94.9170 Y21.0073
G01 X94.9350 Y21.0135
G01 X95.0031 Y21.0335
G01 X95.0216 Y21.0380
G01 X95.0405 Y21.0407
G01 X95.0595 Y21.0416
G01 X95.3323 Y21.0416
G01 X95.3587 Y21.0445
G01 X95.4447 Y21.0767
G01 X95.5154 Y21.1297
G01 X95.5684 Y21.2004
G01 X95.6006 Y21.2864
G01 X95.6035 Y21.3128
G01 X95.6035 Y23.9274
G01 X95.6006 Y23.9538
G01 X95.5684 Y24.0398
G01 X95.5154 Y24.1105
G01 X95.4447 Y24.1635
G01 X95.3587 Y24.1958
G01 X95.3323 Y24.1986
G01 X92.7177 Y24.1986
G01 X92.6913 Y24.1958
G01 X92.6053 Y24.1635
G01 X92.5346 Y24.1105
G01 X92.4816 Y24.0398
G01 X92.4494 Y23.9538
G01 X92.4465 Y23.9274
G01 X92.4465 Y21.3128
G01 X92.4494 Y21.2864
G01 X92.4816 Y21.2004
G01 X92.5346 Y21.1297
G01 X92.6053 Y21.0767
G01 X92.6913 Y21.0445
G01 X92.7177 Y21.0416
G01 X92.9905 Y21.0416
G01 X93.0119 Y21.0405
G01 X93.0330 Y21.0371
G01 X93.0853 Y21.0257
G01 X93.1046 Y21.0205
G01 X93.1233 Y21.0133
G01 X93.1412 Y21.0044
G01 X93.1581 Y20.9937
G01 X93.1738 Y20.9814
G01 X93.2275 Y20.9349
G01 X93.2412 Y20.9218
G01 X93.2537 Y20.9074
G01 X93.2647 Y20.8919
G01 X93.2743 Y20.8754
G01 X93.2822 Y20.8581
G01 X93.2884 Y20.8401
G01 X93.3084 Y20.7720
G01 X93.3129 Y20.7535
G01 X93.3156 Y20.7346
G01 X93.3165 Y20.7156
G01 X93.3165 Y11.1945
G01 X93.3153 Y11.1731
G01 X93.3119 Y11.1520
G01 X93.3005 Y11.0996
G01 X93.2953 Y11.0804
G01 X93.2882 Y11.0617
G01 X93.2793 Y11.0438
G01 X93.2686 Y11.0269
G01 X93.2563 Y11.0112
G01 X93.2098 Y10.9575
G01 X93.1966 Y10.9438
G01 X93.1822 Y10.9313
G01 X93.1667 Y10.9203
G01 X93.1503 Y10.9107
G01 X93.1329 Y10.9028
G01 X93.1150 Y10.8966
G01 X93.0468 Y10.8766
G01 X93.0283 Y10.8721
G01 X93.0095 Y10.8694
G01 X92.9905 Y10.8685
G01 X51.2285 Y10.8685
G01 X51.2071 Y10.8696
G01 X51.1803 Y10.8725
G01 X51.1610 Y10.8756
G01 X51.1420 Y10.8805
G01 X51.1235 Y10.8873
G01 X51.1059 Y10.8958
G01 X51.0436 Y10.9299
G01 X51.0273 Y10.9398
G01 X51.0121 Y10.9512
G01 X50.9980 Y10.9640
G01 X48.8186 Y13.1434
G01 X48.8079 Y13.1549
G01 X48.7906 Y13.1756
G01 X48.7542 Y13.2084
G01 X48.7347 Y13.2272
G01 X48.7140 Y13.2446
G01 X48.6775 Y13.2774
G01 X48.6552 Y13.2924
G01 X48.6494 Y13.2967
G01 X48.6011 Y13.3214
G01 X48.5484 Y13.3516
G01 X48.5234 Y13.3617
G01 X48.5169 Y13.3647
G01 X48.4582 Y13.3806
G01 X48.4066 Y13.3973
G01 X48.3800 Y13.4020
G01 X48.3731 Y13.4035
G01 X48.3241 Y13.4061
G01 X48.2971 Y13.4085
G01 X48.2700 Y13.4089
G01 X48.2211 Y13.4115
G01 X48.1943 Y13.4091
G01 X48.1786 Y13.4085
G01 X12.7814 Y13.4085
G01 X12.7657 Y13.4091
G01 X12.7389 Y13.4115
G01 X12.6900 Y13.4089
G01 X12.6629 Y13.4085
G01 X12.6359 Y13.4061
G01 X12.5869 Y13.4035
G01 X12.5605 Y13.3984
G01 X12.5534 Y13.3973
G01 X12.4955 Y13.3788
G01 X12.4431 Y13.3647
G01 X12.4366 Y13.3617
G01 X12.4116 Y13.3516
G01 X12.3589 Y13.3214
G01 X12.3106 Y13.2967
G01 X12.3048 Y13.2924
G01 X12.2825 Y13.2774
G01 X12.2461 Y13.2446
G01 X12.2253 Y13.2272
G01 X12.2058 Y13.2084
G01 X12.1694 Y13.1756
G01 X12.1521 Y13.1549
G01 X12.1414 Y13.1434
G01 X10.9866 Y11.9886
G01 X10.9751 Y11.9779
G01 X10.9544 Y11.9606
G01 X10.9216 Y11.9242
G01 X10.9028 Y11.9047
G01 X10.8854 Y11.8839
G01 X10.8526 Y11.8475
G01 X10.8488 Y11.8415
G01 X10.8333 Y11.8194
G01 X10.8086 Y11.7711
G01 X10.7784 Y11.7184
G01 X10.7683 Y11.6934
G01 X10.7653 Y11.6869
G01 X10.7494 Y11.6282
G01 X10.7327 Y11.5766
G01 X10.7280 Y11.5500
G01 X10.7265 Y11.5431
G01 X10.7239 Y11.4941
G01 X10.7215 Y11.4671
G01 X10.7211 Y11.4400
G01 X10.7185 Y11.3911
G01 X10.7209 Y11.3643
G01 X10.7215 Y11.3486
G01 X10.7215 Y9.7545
G01 X10.7204 Y9.7331
G01 X10.7169 Y9.7120
G01 X10.7055 Y9.6596
G01 X10.7003 Y9.6404
G01 X10.6932 Y9.6217
G01 X10.6843 Y9.6038
G01 X10.6736 Y9.5869
G01 X10.6613 Y9.5712
G01 X10.6148 Y9.5175
G01 X10.6016 Y9.5038
G01 X10.5873 Y9.4913
G01 X10.5717 Y9.4803
G01 X10.5553 Y9.4707
G01 X10.5380 Y9.4628
G01 X10.5200 Y9.4566
G01 X10.4518 Y9.4366
G01 X10.4334 Y9.4321
G01 X10.4145 Y9.4294
G01 X10.3955 Y9.4285
G01 X9.8927 Y9.4285
G01 X9.8663 Y9.4256
G01 X9.7803 Y9.3934
G01 X9.7096 Y9.3404
G01 X9.6566 Y9.2697
G01 X9.6244 Y9.1837
G00 Z2.0000
G00 X10.6575 Y9.4200
G01 F60.00
G01 Z-0.0475
G01 F250.00
G01 X10.7298 Y9.4200
G01 X10.7298 Y9.4976
G01 X10.6903 Y9.4520
G01 X10.6706 Y9.4314
G01 X10.6575 Y9.4200
G00 X10.6575 Y9.4200
G01 F60.00
G01 Z-0.0950
G01 F250.00
G01 X10.7298 Y9.4200
G01 X10.7298 Y9.4976
G01 X10.6903 Y9.4520
G01 X10.6706 Y9.4314
G01 X10.6575 Y9.4200
G00 Z2.0000
G00 X12.1302 Y9.4923
G01 F60.00
G01 Z-0.0475
G01 F250.00
G01 X12.1302 Y9.4200
G01 X12.2078 Y9.4200
G01 X12.1620 Y9.4597
G01 X12.1414 Y9.4794
G01 X12.1302 Y9.4923
G00 X12.1302 Y9.4923
G01 F60.00
G01 Z-0.0950
G01 F250.00
G01 X12.1302 Y9.4200
G01 X12.2078 Y9.4200
G01 X12.1620 Y9.4597
G01 X12.1414 Y9.4794
G01 X12.1302 Y9.4923
G00 Z2.0000
G00 X10.6182 Y11.3875
G01 F60.00
G01 Z-0.0475
G01 F250.00
G01 X10.6196 Y11.3761
G01 X10.6215 Y11.3486
G01 X10.6215 Y9.7545
G01 X10.6209 Y9.7438
G01 X10.6192 Y9.7332
G01 X10.6078 Y9.6809
G01 X10.6052 Y9.6713
G01 X10.6017 Y9.6619
G01 X10.5972 Y9.6530
G01 X10.5918 Y9.6445
G01 X10.5857 Y9.6367
G01 X10.5392 Y9.5830
G01 X10.5326 Y9.5761
G01 X10.5254 Y9.5699
G01 X10.5177 Y9.5644
G01 X10.5094 Y9.5596
G01 X10.5008 Y9.5557
G01 X10.4918 Y9.5526
G01 X10.4237 Y9.5326
G01 X10.4144 Y9.5303
G01 X10.4050 Y9.5290
G01 X10.3955 Y9.5285
G01 X9.8873 Y9.5285
G01 X9.8430 Y9.5237
G01 X9.7318 Y9.4820
G01 X9.6382 Y9.4118
G01 X9.5680 Y9.3182
G01 X9.5263 Y9.2070
G01 X9.5215 Y9.1627
G01 X9.5215 Y6.0773
G01 X9.5263 Y6.0330
G01 X9.5680 Y5.9218
G01 X9.6382 Y5.8282
G01 X9.7318 Y5.7580
G01 X9.8430 Y5.7163
G01 X9.8873 Y5.7115
G01 X12.9727 Y5.7115
G01 X13.0170 Y5.7163
G01 X13.1282 Y5.7580
G01 X13.2218 Y5.8282
G01 X13.2920 Y5.9218
G01 X13.3337 Y6.0330
G01 X13.3385 Y6.0773
G01 X13.3385 Y9.1627
G01 X13.3337 Y9.2070
G01 X13.2920 Y9.3182
G01 X13.2218 Y9.4118
G01 X13.1282 Y9.4820
G01 X13.0170 Y9.5237
G01 X12.9727 Y9.5285
G01 X12.4645 Y9.5285
G01 X12.4538 Y9.5291
G01 X12.4432 Y9.5308
G01 X12.3909 Y9.5422
G01 X12.3813 Y9.5448
G01 X12.3719 Y9.5483
G01 X12.3630 Y9.5528
G01 X12.3545 Y9.5582
G01 X12.3467 Y9.5643
G01 X12.2930 Y9.6108
G01 X12.2861 Y9.6174
G01 X12.2799 Y9.6246
G01 X12.2744 Y9.6323
G01 X12.2696 Y9.6406
G01 X12.2657 Y9.6492
G01 X12.2626 Y9.6582
G01 X12.2426 Y9.7263
G01 X12.2403 Y9.7356
G01 X12.2390 Y9.7450
G01 X12.2385 Y9.7545
G01 X12.2385 Y11.0015
G01 X12.2391 Y11.0122
G01 X12.2420 Y11.0390
G01 X12.2435 Y11.0487
G01 X12.2459 Y11.0582
G01 X12.2493 Y11.0674
G01 X12.2536 Y11.0762
G01 X12.2876 Y11.1385
G01 X12.2926 Y11.1466
G01 X12.2983 Y11.1543
G01 X12.3047 Y11.1613
G01 X12.9687 Y11.8253
G01 X12.9767 Y11.8325
G01 X12.9976 Y11.8494
G01 X13.0056 Y11.8551
G01 X13.0140 Y11.8601
G01 X13.0229 Y11.8642
G01 X13.0322 Y11.8674
G01 X13.1003 Y11.8874
G01 X13.1096 Y11.8897
G01 X13.1190 Y11.8910
G01 X13.1285 Y11.8915
G01 X21.8255 Y11.8915
G01 X21.8362 Y11.8909
G01 X21.8468 Y11.8892
G01 X21.8991 Y11.8778
G01 X21.9087 Y11.8752
G01 X21.9181 Y11.8717
G01 X21.9270 Y11.8672
G01 X21.9355 Y11.8618
G01 X21.9433 Y11.8557
G01 X21.9970 Y11.8092
G01 X22.0039 Y11.8026
G01 X22.0101 Y11.7954
G01 X22.0156 Y11.7877
G01 X22.0204 Y11.7794
G01 X22.0243 Y11.7708
G01 X22.0274 Y11.7618
G01 X22.0474 Y11.6937
G01 X22.0497 Y11.6844
G01 X22.0510 Y11.6750
G01 X22.0515 Y11.6655
G01 X22.0515 Y9.7545
G01 X22.0509 Y9.7438
G01 X22.0492 Y9.7332
G01 X22.0378 Y9.6809
G01 X22.0352 Y9.6713
G01 X22.0317 Y9.6619
G01 X22.0272 Y9.6530
G01 X22.0218 Y9.6445
G01 X22.0157 Y9.6367
G01 X21.9692 Y9.5830
G01 X21.9626 Y9.5761
G01 X21.9554 Y9.5699
G01 X21.9477 Y9.5644
G01 X21.9394 Y9.5596
G01 X21.9308 Y9.5557
G01 X21.9218 Y9.5526
G01 X21.8537 Y9.5326
G01 X21.8444 Y9.5303
G01 X21.8350 Y9.5290
G01 X21.8255 Y9.5285
G01 X21.3173 Y9.5285
G01 X21.2730 Y9.5237
G01 X21.1618 Y9.4820
G01 X21.0682 Y9.4118
G01 X20.9980 Y9.3182
G01 X20.9563 Y9.2070
G01 X20.9515 Y9.1627
G01 X20.9515 Y6.0773
G01 X20.9563 Y6.0330
G01 X20.9980 Y5.9218
G01 X21.0682 Y5.8282
G01 X21.1618 Y5.7580
G01 X21.2730 Y5.7163
G01 X21.3173 Y5.7115
G01 X24.4027 Y5.7115
G01 X24.4470 Y5.7163
G01 X24.5582 Y5.7580
G01 X24.6518 Y5.8282
G01 X24.7220 Y5.9218
G01 X24.7637 Y6.0330
G01 X24.7685 Y6.0773
G01 X24.7685 Y9.1627
G01 X24.7637 Y9.2070
G01 X24.7220 Y9.3182
G01 X24.6518 Y9.4118
G01 X24.5582 Y9.4820
G01 X24.4470 Y9.5237
G01 X24.4027 Y9.5285
G01 X23.8945 Y9.5285
G01 X23.8838 Y9.5291
G01 X23.8732 Y9.5308
G01 X23.8209 Y9.5422
G01 X23.8113 Y9.5448
G01 X23.8019 Y9.5483
G01 X23.7930 Y9.5528
G01 X23.7845 Y9.5582
G01 X23.7767 Y9.5643
G01 X23.7230 Y9.6108
G01 X23.7161 Y9.6174
G01 X23.7099 Y9.6246
G01 X23.7044 Y9.6323
G01 X23.6996 Y9.6406
G01 X23.6957 Y9.6492
G01 X23.6926 Y9.6582
G01 X23.6726 Y9.7263
G01 X23.6703 Y9.7356
G01 X23.6690 Y9.7450
G01 X23.6685 Y9.7545
G01 X23.6685 Y11.6655
G01 X23.6691 Y11.6762
G01 X23.6708 Y11.6868
G01 X23.6822 Y11.7391
G01 X23.6848 Y11.7487
G01 X23.6883 Y11.7581
G01 X23.6928 Y11.7670
G01 X23.6982 Y11.7755
G01 X23.7043 Y11.7833
G01 X23.7508 Y11.8370
G01 X23.7574 Y11.8439
G01 X23.7646 Y11.8501
G01 X23.7723 Y11.8556
G01 X23.7806 Y11.8604
G01 X23.7892 Y11.8643
G01 X23.7982 Y11.8674
G01 X23.8663 Y11.8874
G01 X23.8756 Y11.8897
G01 X23.8850 Y11.8910
G01 X23.8945 Y11.8915
G01 X33.2555 Y11.8915
G01 X33.2662 Y11.8909
G01 X33.2768 Y11.8892
G01 X33.3291 Y11.8778
G01 X33.3387 Y11.8752
G01 X33.3481 Y11.8717
G01 X33.3570 Y11.8672
G01 X33.3655 Y11.8618
G01 X33.3733 Y11.8557
G01 X33.4270 Y11.8092
G01 X33.4339 Y11.8026
G01 X33.4401 Y11.7954
G01 X33.4456 Y11.7877
G01 X33.4504 Y11.7794
G01 X33.4543 Y11.7708
G01 X33.4574 Y11.7618
G01 X33.4774 Y11.6937
G01 X33.4797 Y11.6844
G01 X33.4810 Y11.6750
G01 X33.4815 Y11.6655
G01 X33.4815 Y9.7545
G01 X33.4809 Y9.7438
G01 X33.4792 Y9.7332
G01 X33.4678 Y9.6809
G01 X33.4652 Y9.6713
G01 X33.4617 Y9.6619
G01 X33.4572 Y9.6530
G01 X33.4518 Y9.6445
G01 X33.4457 Y9.6367
G01 X33.3992 Y9.5830
G01 X33.3926 Y9.5761
G01 X33.3854 Y9.5699
G01 X33.3777 Y9.5644
G01 X33.3694 Y9.5596
G01 X33.3608 Y9.5557
G01 X33.3518 Y9.5526
G01 X33.2837 Y9.5326
G01 X33.2744 Y9.5303
G01 X33.2650 Y9.5290
G01 X33.2555 Y9.5285
G01 X32.7473 Y9.5285
G01 X32.7030 Y9.5237
G01 X32.5918 Y9.4820
G01 X32.4982 Y9.4118
G01 X32.4280 Y9.3182
G01 X32.3863 Y9.2070
G01 X32.3815 Y9.1627
G01 X32.3815 Y6.0773
G01 X32.3863 Y6.0330
G01 X32.4280 Y5.9218
G01 X32.4982 Y5.8282
G01 X32.5918 Y5.7580
G01 X32.7030 Y5.7163
G01 X32.7473 Y5.7115
G01 X35.8327 Y5.7115
G01 X35.8770 Y5.7163
G01 X35.9882 Y5.7580
G01 X36.0818 Y5.8282
G01 X36.1520 Y5.9218
G01 X36.1937 Y6.0330
G01 X36.1985 Y6.0773
G01 X36.1985 Y9.1627
G01 X36.1937 Y9.2070
G01 X36.1520 Y9.3182
G01 X36.0818 Y9.4118
G01 X35.9882 Y9.4820
G01 X35.8770 Y9.5237
G01 X35.8327 Y9.5285
G01 X35.3245 Y9.5285
G01 X35.3138 Y9.5291
G01 X35.3032 Y9.5308
G01 X35.2509 Y9.5422
G01 X35.2413 Y9.5448
G01 X35.2319 Y9.5483
G01 X35.2230 Y9.5528
G01 X35.2145 Y9.5582
G01 X35.2067 Y9.5643
G01 X35.1530 Y9.6108
G01 X35.1461 Y9.6174
G01 X35.1399 Y9.6246
G01 X35.1344 Y9.6323
G01 X35.1296 Y9.6406
G01 X35.1257 Y9.6492
G01 X35.1226 Y9.6582
G01 X35.1026 Y9.7263
G01 X35.1003 Y9.7356
G01 X35.0990 Y9.7450
G01 X35.0985 Y9.7545
G01 X35.0985 Y11.6655
G01 X35.0991 Y11.6762
G01 X35.1008 Y11.6868
G01 X35.1122 Y11.7391
G01 X35.1148 Y11.7487
G01 X35.1183 Y11.7581
G01 X35.1228 Y11.7670
G01 X35.1282 Y11.7755
G01 X35.1343 Y11.7833
G01 X35.1808 Y11.8370
G01 X35.1874 Y11.8439
G01 X35.1946 Y11.8501
G01 X35.2023 Y11.8556
G01 X35.2106 Y11.8604
G01 X35.2192 Y11.8643
G01 X35.2282 Y11.8674
G01 X35.2963 Y11.8874
G01 X35.3056 Y11.8897
G01 X35.3150 Y11.8910
G01 X35.3245 Y11.8915
G01 X44.6855 Y11.8915
G01 X44.6962 Y11.8909
G01 X44.7068 Y11.8892
G01 X44.7591 Y11.8778
G01 X44.7687 Y11.8752
G01 X44.7781 Y11.8717
G01 X44.7870 Y11.8672
G01 X44.7955 Y11.8618
G01 X44.8033 Y11.8557
G01 X44.8570 Y11.8092
G01 X44.8639 Y11.8026
G01 X44.8701 Y11.7954
G01 X44.8756 Y11.7877
G01 X44.8804 Y11.7794
G01 X44.8843 Y11.7708
G01 X44.8874 Y11.7618
G01 X44.9074 Y11.6937
G01 X44.9097 Y11.6844
G01 X44.9110 Y11.6750
G01 X44.9115 Y11.6655
G01 X44.9115 Y9.7545
G01 X44.9109 Y9.7438
G01 X44.9092 Y9.7332
G01 X44.8978 Y9.6809
G01 X44.8952 Y9.6713
G01 X44.8917 Y9.6619
G01 X44.8872 Y9.6530
G01 X44.8818 Y9.6445
G01 X44.8757 Y9.6367
G01 X44.8292 Y9.5830
G01 X44.8226 Y9.5761
G01 X44.8154 Y9.5699
G01 X44.8077 Y9.5644
G01 X44.7994 Y9.5596
G01 X44.7908 Y9.5557
G01 X44.7818 Y9.5526
G01 X44.7137 Y9.5326
G01 X44.7044 Y9.5303
G01 X44.6950 Y9.5290
G01 X44.6855 Y9.5285
G01 X44.1773 Y9.5285
G01 X44.1330 Y9.5237
G01 X44.0218 Y9.4820
G01 X43.9282 Y9.4118
G01 X43.8580 Y9.3182
G01 X43.8163 Y9.2070
G01 X43.8115 Y9.1627
G01 X43.8115 Y6.0773
G01 X43.8163 Y6.0330
G01 X43.8580 Y5.9218
G01 X43.9282 Y5.8282
G01 X44.0218 Y5.7580
G01 X44.1330 Y5.7163
G01 X44.1773 Y5.7115
G01 X47.2627 Y5.7115
G01 X47.3070 Y5.7163
G01 X47.4182 Y5.7580
G01 X47.5118 Y5.8282
G01 X47.5820 Y5.9218
G01 X47.6237 Y6.0330
G01 X47.6285 Y6.0773
G01 X47.6285 Y9.1627
G01 X47.6237 Y9.2070
G01 X47.5820 Y9.3182
G01 X47.5118 Y9.4118
G01 X47.4182 Y9.4820
G01 X47.3070 Y9.5237
G01 X47.2627 Y9.5285
G01 X46.7545 Y9.5285
G01 X46.7438 Y9.5291
G01 X46.7332 Y9.5308
G01 X46.6809 Y9.5422
G01 X46.6713 Y9.5448
G01 X46.6619 Y9.5483
G01 X46.6530 Y9.5528
G01 X46.6445 Y9.5582
G01 X46.6367 Y9.5643
G01 X46.5830 Y9.6108
G01 X46.5761 Y9.6174
G01 X46.5699 Y9.6246
G01 X46.5644 Y9.6323
G01 X46.5596 Y9.6406
G01 X46.5557 Y9.6492
G01 X46.5526 Y9.6582
G01 X46.5326 Y9.7263
G01 X46.5303 Y9.7356
G01 X46.5290 Y9.7450
G01 X46.5285 Y9.7545
G01 X46.5285 Y11.6655
G01 X46.5291 Y11.6762
G01 X46.5308 Y11.6868
G01 X46.5422 Y11.7391
G01 X46.5448 Y11.7487
G01 X46.5483 Y11.7581
G01 X46.5528 Y11.7670
G01 X46.5582 Y11.7755
G01 X46.5643 Y11.7833
G01 X46.6108 Y11.8370
G01 X46.6174 Y11.8439
G01 X46.6246 Y11.8501
G01 X46.6323 Y11.8556
G01 X46.6406 Y11.8604
G01 X46.6492 Y11.8643
G01 X46.6582 Y11.8674
G01 X46.7263 Y11.8874
G01 X46.7356 Y11.8897
G01 X46.7450 Y11.8910
G01 X46.7545 Y11.8915
G01 X47.8315 Y11.8915
G01 X47.8422 Y11.8909
G01 X47.8690 Y11.8880
G01 X47.8787 Y11.8865
G01 X47.8882 Y11.8841
G01 X47.8974 Y11.8807
G01 X47.9062 Y11.8764
G01 X47.9685 Y11.8424
G01 X47.9766 Y11.8374
G01 X47.9843 Y11.8317
G01 X47.9913 Y11.8253
G01 X50.1707 Y9.6459
G01 X50.1889 Y9.6251
G01 X50.1959 Y9.6160
G01 X50.2389 Y9.5773
G01 X50.2583 Y9.5583
G01 X50.2772 Y9.5428
G01 X50.3222 Y9.5023
G01 X50.3319 Y9.4963
G01 X50.3482 Y9.4851
G01 X50.3572 Y9.4782
G01 X50.4111 Y9.4507
G01 X50.4693 Y9.4173
G01 X50.4801 Y9.4135
G01 X50.4984 Y9.4059
G01 X50.5087 Y9.4010
G01 X50.5671 Y9.3853
G01 X50.6310 Y9.3648
G01 X50.6423 Y9.3633
G01 X50.6617 Y9.3597
G01 X50.6728 Y9.3571
G01 X50.7306 Y9.3540
G01 X50.7576 Y9.3515
G01 X50.7848 Y9.3512
G01 X50.8425 Y9.3482
G01 X50.8539 Y9.3496
G01 X50.8814 Y9.3515
G01 X93.8986 Y9.3515
G01 X93.9261 Y9.3496
G01 X93.9375 Y9.3482
G01 X93.9952 Y9.3512
G01 X94.0071 Y9.3515
G01 X99.4655 Y9.3515
G01 X99.4762 Y9.3509
G01 X99.4868 Y9.3492
G01 X99.5391 Y9.3378
G01 X99.5487 Y9.3352
G01 X99.5581 Y9.3317
G01 X99.5670 Y9.3272
G01 X99.5755 Y9.3218
G01 X99.5833 Y9.3157
G01 X99.6370 Y9.2692
G01 X99.6439 Y9.2626
G01 X99.6501 Y9.2554
G01 X99.6556 Y9.2477
G01 X99.6604 Y9.2394
G01 X99.6643 Y9.2308
G01 X99.6674 Y9.2218
G01 X99.6874 Y9.1537
G01 X99.6897 Y9.1444
G01 X99.6910 Y9.1350
G01 X99.6915 Y9.1255
G01 X99.6915 Y8.6173
G01 X99.6963 Y8.5730
G01 X99.7380 Y8.4618
G01 X99.8082 Y8.3682
G01 X99.9018 Y8.2980
G01 X100.0130 Y8.2563
G01 X100.0573 Y8.2515
G01 X103.1427 Y8.2515
G01 X103.1870 Y8.2563
G01 X103.2982 Y8.2980
G01 X103.3918 Y8.3682
G01 X103.4620 Y8.4618
G01 X103.5037 Y8.5730
G01 X103.5085 Y8.6173
G01 X103.5085 Y11.7027
G01 X103.5037 Y11.7470
G01 X103.4620 Y11.8582
G01 X103.3918 Y11.9518
G01 X103.2982 Y12.0220
G01 X103.1870 Y12.0637
G01 X103.1427 Y12.0685
G01 X100.0573 Y12.0685
G01 X100.0130 Y12.0637
G01 X99.9018 Y12.0220
G01 X99.8082 Y11.9518
G01 X99.7380 Y11.8582
G01 X99.6963 Y11.7470
G01 X99.6915 Y11.7027
G01 X99.6915 Y11.1945
G01 X99.6909 Y11.1838
G01 X99.6892 Y11.1732
G01 X99.6778 Y11.1209
G01 X99.6752 Y11.1113
G01 X99.6717 Y11.1019
G01 X99.6672 Y11.0930
G01 X99.6618 Y11.0845
G01 X99.6557 Y11.0767
G01 X99.6092 Y11.0230
G01 X99.6026 Y11.0161
G01 X99.5954 Y11.0099
G01 X99.5877 Y11.0044
G01 X99.5794 Y10.9996
G01 X99.5708 Y10.9957
G01 X99.5618 Y10.9926
G01 X99.4937 Y10.9726
G01 X99.4844 Y10.9703
G01 X99.4750 Y10.9690
G01 X99.4655 Y10.9685
G01 X95.0595 Y10.9685
G01 X95.0488 Y10.9691
G01 X95.0382 Y10.9708
G01 X94.9859 Y10.9822
G01 X94.9762 Y10.9848
G01 X94.9669 Y10.9883
G01 X94.9580 Y10.9928
G01 X94.9495 Y10.9982
G01 X94.9417 Y11.0043
G01 X94.8880 Y11.0508
G01 X94.8811 Y11.0574
G01 X94.8749 Y11.0646
G01 X94.8694 Y11.0723
G01 X94.8646 Y11.0806
G01 X94.8607 Y11.0892
G01 X94.8575 Y11.0982
G01 X94.8375 Y11.1663
G01 X94.8353 Y11.1756
G01 X94.8339 Y11.1850
G01 X94.8335 Y11.1945
G01 X94.8335 Y20.7156
G01 X94.8341 Y20.7263
G01 X94.8358 Y20.7369
G01 X94.8472 Y20.7892
G01 X94.8498 Y20.7989
G01 X94.8533 Y20.8082
G01 X94.8578 Y20.8171
G01 X94.8631 Y20.8256
G01 X94.8693 Y20.8335
G01 X94.9158 Y20.8871
G01 X94.9224 Y20.8940
G01 X94.9296 Y20.9002
G01 X94.9373 Y20.9058
G01 X94.9455 Y20.9105
G01 X94.9542 Y20.9145
G01 X94.9632 Y20.9176
G01 X95.0313 Y20.9376
G01 X95.0406 Y20.9398
G01 X95.0500 Y20.9412
G01 X95.0595 Y20.9416
G01 X95.3377 Y20.9416
G01 X95.3820 Y20.9464
G01 X95.4932 Y20.9881
G01 X95.5868 Y21.0583
G01 X95.6570 Y21.1519
G01 X95.6987 Y21.2631
G01 X95.7035 Y21.3074
G01 X95.7035 Y23.9328
G01 X95.6987 Y23.9771
G01 X95.6570 Y24.0883
G01 X95.5868 Y24.1820
G01 X95.4932 Y24.2521
G01 X95.3820 Y24.2938
G01 X95.3377 Y24.2986
G01 X92.7123 Y24.2986
G01 X92.6680 Y24.2938
G01 X92.5568 Y24.2521
G01 X92.4632 Y24.1820
G01 X92.3930 Y24.0883
G01 X92.3513 Y23.9771
G01 X92.3465 Y23.9328
G01 X92.3465 Y21.3074
G01 X92.3513 Y21.2631
G01 X92.3930 Y21.1519
G01 X92.4632 Y21.0583
G01 X92.5568 Y20.9881
G01 X92.6680 Y20.9464
G01 X92.7123 Y20.9416
G01 X92.9905 Y20.9416
G01 X93.0012 Y20.9411
G01 X93.0117 Y20.9393
G01 X93.0641 Y20.9280
G01 X93.0737 Y20.9253
G01 X93.0831 Y20.9218
G01 X93.0920 Y20.9173
G01 X93.1004 Y20.9120
G01 X93.1083 Y20.9058
G01 X93.1620 Y20.8593
G01 X93.1689 Y20.8528
G01 X93.1751 Y20.8456
G01 X93.1806 Y20.8378
G01 X93.1854 Y20.8296
G01 X93.1893 Y20.8209
G01 X93.1924 Y20.8119
G01 X93.2124 Y20.7438
G01 X93.2147 Y20.7346
G01 X93.2160 Y20.7251
G01 X93.2165 Y20.7156
G01 X93.2165 Y11.1945
G01 X93.2159 Y11.1838
G01 X93.2142 Y11.1732
G01 X93.2028 Y11.1209
G01 X93.2002 Y11.1113
G01 X93.1967 Y11.1019
G01 X93.1922 Y11.0930
G01 X93.1868 Y11.0845
G01 X93.1807 Y11.0767
G01 X93.1342 Y11.0230
G01 X93.1276 Y11.0161
G01 X93.1204 Y11.0099
G01 X93.1127 Y11.0044
G01 X93.1044 Y10.9996
G01 X93.0958 Y10.9957
G01 X93.0868 Y10.9926
G01 X93.0187 Y10.9726
G01 X93.0094 Y10.9703
G01 X93.0000 Y10.9690
G01 X92.9905 Y10.9685
G01 X51.2285 Y10.9685
G01 X51.2178 Y10.9691
G01 X51.1910 Y10.9720
G01 X51.1813 Y10.9735
G01 X51.1718 Y10.9759
G01 X51.1626 Y10.9793
G01 X51.1538 Y10.9836
G01 X51.0915 Y11.0176
G01 X51.0834 Y11.0226
G01 X51.0757 Y11.0283
G01 X51.0687 Y11.0347
G01 X48.8893 Y13.2141
G01 X48.8711 Y13.2349
G01 X48.8641 Y13.2440
G01 X48.8211 Y13.2827
G01 X48.8017 Y13.3017
G01 X48.7828 Y13.3172
G01 X48.7378 Y13.3577
G01 X48.7281 Y13.3637
G01 X48.7118 Y13.3749
G01 X48.7028 Y13.3818
G01 X48.6489 Y13.4093
G01 X48.5907 Y13.4427
G01 X48.5799 Y13.4465
G01 X48.5616 Y13.4541
G01 X48.5513 Y13.4590
G01 X48.4866 Y13.4765
G01 X48.4290 Y13.4952
G01 X48.4177 Y13.4967
G01 X48.3983 Y13.5003
G01 X48.3872 Y13.5029
G01 X48.3268 Y13.5061
G01 X48.3024 Y13.5085
G01 X48.2752 Y13.5088
G01 X48.2175 Y13.5118
G01 X48.2061 Y13.5104
G01 X48.1786 Y13.5085
G01 X12.7814 Y13.5085
G01 X12.7539 Y13.5104
G01 X12.7425 Y13.5118
G01 X12.6848 Y13.5088
G01 X12.6576 Y13.5085
G01 X12.6306 Y13.5060
G01 X12.5728 Y13.5029
G01 X12.5617 Y13.5003
G01 X12.5423 Y13.4967
G01 X12.5310 Y13.4952
G01 X12.4671 Y13.4747
G01 X12.4087 Y13.4590
G01 X12.3984 Y13.4541
G01 X12.3801 Y13.4465
G01 X12.3693 Y13.4427
G01 X12.3112 Y13.4093
G01 X12.2572 Y13.3818
G01 X12.2482 Y13.3749
G01 X12.2319 Y13.3637
G01 X12.2222 Y13.3577
G01 X12.1772 Y13.3172
G01 X12.1583 Y13.3017
G01 X12.1389 Y13.2827
G01 X12.0959 Y13.2440
G01 X12.0889 Y13.2349
G01 X12.0707 Y13.2141
G01 X10.9159 Y12.0593
G01 X10.8951 Y12.0411
G01 X10.8860 Y12.0341
G01 X10.8473 Y11.9911
G01 X10.8283 Y11.9717
G01 X10.8128 Y11.9528
G01 X10.7723 Y11.9078
G01 X10.7663 Y11.8981
G01 X10.7551 Y11.8818
G01 X10.7482 Y11.8728
G01 X10.7207 Y11.8189
G01 X10.6873 Y11.7607
G01 X10.6835 Y11.7499
G01 X10.6759 Y11.7316
G01 X10.6710 Y11.7213
G01 X10.6535 Y11.6566
G01 X10.6348 Y11.5990
G01 X10.6333 Y11.5877
G01 X10.6297 Y11.5683
G01 X10.6271 Y11.5572
G01 X10.6239 Y11.4968
G01 X10.6215 Y11.4724
G01 X10.6212 Y11.4452
G01 X10.6182 Y11.3875
G00 X10.6182 Y11.3875
G01 F60.00
G01 Z-0.0950
G01 F250.00
G01 X10.6196 Y11.3761
G01 X10.6215 Y11.3486
G01 X10.6215 Y9.7545
G01 X10.6209 Y9.7438
G01 X10.6192 Y9.7332
G01 X10.6078 Y9.6809
G01 X10.6052 Y9.6713
G01 X10.6017 Y9.6619
G01 X10.5972 Y9.6530
G01 X10.5918 Y9.6445
G01 X10.5857 Y9.6367
G01 X10.5392 Y9.5830
G01 X10.5326 Y9.5761
G01 X10.5254 Y9.5699
G01 X10.5177 Y9.5644
G01 X10.5094 Y9.5596
G01 X10.5008 Y9.5557
G01 X10.4918 Y9.5526
G01 X10.4237 Y9.5326
G01 X10.4144 Y9.5303
G01 X10.4050 Y9.5290
G01 X10.3955 Y9.5285
G01 X9.8873 Y9.5285
G01 X9.8430 Y9.5237
G01 X9.7318 Y9.4820
G01 X9.6382 Y9.4118
G01 X9.5680 Y9.3182
G01 X9.5263 Y9.2070
G01 X9.5215 Y9.1627
G01 X9.5215 Y6.0773
G01 X9.5263 Y6.0330
G01 X9.5680 Y5.9218
G01 X9.6382 Y5.8282
G01 X9.7318 Y5.7580
G01 X9.8430 Y5.7163
G01 X9.8873 Y5.7115
G01 X12.9727 Y5.7115
G01 X13.0170 Y5.7163
G01 X13.1282 Y5.7580
G01 X13.2218 Y5.8282
G01 X13.2920 Y5.9218
G01 X13.3337 Y6.0330
G01 X13.3385 Y6.0773
G01 X13.3385 Y9.1627
G01 X13.3337 Y9.2070
G01 X13.2920 Y9.3182
G01 X13.2218 Y9.4118
G01 X13.1282 Y9.4820
G01 X13.0170 Y9.5237
G01 X12.9727 Y9.5285
G01 X12.4645 Y9.5285
G01 X12.4538 Y9.5291
G01 X12.4432 Y9.5308
G01 X12.3909 Y9.5422
G01 X12.3813 Y9.5448
G01 X12.3719 Y9.5483
G01 X12.3630 Y9.5528
G01 X12.3545 Y9.5582
G01 X12.3467 Y9.5643
G01 X12.2930 Y9.6108
G01 X12.2861 Y9.6174
G01 X12.2799 Y9.6246
G01 X12.2744 Y9.6323
G01 X12.2696 Y9.6406
G01 X12.2657 Y9.6492
G01 X12.2626 Y9.6582
G01 X12.2426 Y9.7263
G01 X12.2403 Y9.7356
G01 X12.2390 Y9.7450
G01 X12.2385 Y9.7545
G01 X12.2385 Y11.0015
G01 X12.2391 Y11.0122
G01 X12.2420 Y11.0390
G01 X12.2435 Y11.0487
G01 X12.2459 Y11.0582
G01 X12.2493 Y11.0674
G01 X12.2536 Y11.0762
G01 X12.2876 Y11.1385
G01 X12.2926 Y11.1466
G01 X12.2983 Y11.1543
G01 X12.3047 Y11.1613
G01 X12.9687 Y11.8253
G01 X12.9767 Y11.8325
G01 X12.9976 Y11.8494
G01 X13.0056 Y11.8551
G01 X13.0140 Y11.8601
G01 X13.0229 Y11.8642
G01 X13.0322 Y11.8674
G01 X13.1003 Y11.8874
G01 X13.1096 Y11.8897
G01 X13.1190 Y11.8910
G01 X13.1285 Y11.8915
G01 X21.8255 Y11.8915
G01 X21.8362 Y11.8909
G01 X21.8468 Y11.8892
G01 X21.8991 Y11.8778
G01 X21.9087 Y11.8752
G01 X21.9181 Y11.8717
G01 X21.9270 Y11.8672
G01 X21.9355 Y11.8618
G01 X21.9433 Y11.8557
G01 X21.9970 Y11.8092
G01 X22.0039 Y11.8026
G01 X22.0101 Y11.7954
G01 X22.0156 Y11.7877
G01 X22.0204 Y11.7794
G01 X22.0243 Y11.7708
G01 X22.0274 Y11.7618
G01 X22.0474 Y11.6937
G01 X22.0497 Y11.6844
G01 X22.0510 Y11.6750
G01 X22.0515 Y11.6655
G01 X22.0515 Y9.7545
G01 X22.0509 Y9.7438
G01 X22.0492 Y9.7332
G01 X22.0378 Y9.6809
G01 X22.0352 Y9.6713
G01 X22.0317 Y9.6619
G01 X22.0272 Y9.6530
G01 X22.0218 Y9.6445
G01 X22.0157 Y9.6367
G01 X21.9692 Y9.5830
G01 X21.9626 Y9.5761
G01 X21.9554 Y9.5699
G01 X21.9477 Y9.5644
G01 X21.9394 Y9.5596
G01 X21.9308 Y9.5557
G01 X21.9218 Y9.5526
G01 X21.8537 Y9.5326
G01 X21.8444 Y9.5303
G01 X21.8350 Y9.5290
G01 X21.8255 Y9.5285
G01 X21.3173 Y9.5285
G01 X21.2730 Y9.5237
G01 X21.1618 Y9.4820
G01 X21.0682 Y9.4118
G01 X20.9980 Y9.3182
G01 X20.9563 Y9.2070
G01 X20.9515 Y9.1627
G01 X20.9515 Y6.0773
G01 X20.9563 Y6.0330
G01 X20.9980 Y5.9218
G01 X21.0682 Y5.8282
G01 X21.1618 Y5.7580
G01 X21.2730 Y5.7163
G01 X21.3173 Y5.7115
G01 X24.4027 Y5.7115
G01 X24.4470 Y5.7163
G01 X24.5582 Y5.7580
G01 X24.6518 Y5.8282
G01 X24.7220 Y5.9218
G01 X24.7637 Y6.0330
G01 X24.7685 Y6.0773
G01 X24.7685 Y9.1627
G01 X24.7637 Y9.2070
G01 X24.7220 Y9.3182
G01 X24.6518 Y9.4118
G01 X24.5582 Y9.4820
G01 X24.4470 Y9.5237
G01 X24.4027 Y9.5285
G01 X23.8945 Y9.5285
G01 X23.8838 Y9.5291
G01 X23.8732 Y9.5308
G01 X23.8209 Y9.5422
G01 X23.8113 Y9.5448
G01 X23.8019 Y9.5483
G01 X23.7930 Y9.5528
G01 X23.7845 Y9.5582
G01 X23.7767 Y9.5643
G01 X23.7230 Y9.6108
G01 X23.7161 Y9.6174
G01 X23.7099 Y9.6246
G01 X23.7044 Y9.6323
G01 X23.6996 Y9.6406
G01 X23.6957 Y9.6492
G01 X23.6926 Y9.6582
G01 X23.6726 Y9.7263
G01 X23.6703 Y9.7356
G01 X23.6690 Y9.7450
G01 X23.6685 Y9.7545
G01 X23.6685 Y11.6655
G01 X23.6691 Y11.6762
G01 X23.6708 Y11.6868
G01 X23.6822 Y11.7391
G01 X23.6848 Y11.7487
G01 X23.6883 Y11.7581
G01 X23.6928 Y11.7670
G01 X23.6982 Y11.7755
G01 X23.7043 Y11.7833
G01 X23.7508 Y11.8370
G01 X23.7574 Y11.8439
G01 X23.7646 Y11.8501
G01 X23.7723 Y11.8556
G01 X23.7806 Y11.8604
G01 X23.7892 Y11.8643
G01 X23.7982 Y11.8674
G01 X23.8663 Y11.8874
G01 X23.8756 Y11.8897
G01 X23.8850 Y11.8910
G01 X23.8945 Y11.8915
G01 X33.2555 Y11.8915
G01 X33.2662 Y11.8909
G01 X33.2768 Y11.8892
G01 X33.3291 Y11.8778
G01 X33.3387 Y11.8752
G01 X33.3481 Y11.8717
G01 X33.3570 Y11.8672
G01 X33.3655 Y11.8618
G01 X33.3733 Y11.8557
G01 X33.4270 Y11.8092
G01 X33.4339 Y11.8026
G01 X33.4401 Y11.7954
G01 X33.4456 Y11.7877
G01 X33.4504 Y11.7794
G01 X33.4543 Y11.7708
G01 X33.4574 Y11.7618
G01 X33.4774 Y11.6937
G01 X33.4797 Y11.6844
G01 X33.4810 Y11.6750
G01 X33.4815 Y11.6655
G01 X33.4815 Y9.7545
G01 X33.4809 Y9.7438
G01 X33.4792 Y9.7332
G01 X33.4678 Y9.6809
G01 X33.4652 Y9.6713
G01 X33.4617 Y9.6619
G01 X33.4572 Y9.6530
G01 X33.4518 Y9.6445
G01 X33.4457 Y9.6367
G01 X33.3992 Y9.5830
G01 X33.3926 Y9.5761
G01 X33.3854 Y9.5699
G01 X33.3777 Y9.5644
G01 X33.3694 Y9.5596
G01 X33.3608 Y9.5557
G01 X33.3518 Y9.5526
G01 X33.2837 Y9.5326
G01 X33.2744 Y9.5303
G01 X33.2650 Y9.5290
G01 X33.2555 Y9.5285
G01 X32.7473 Y9.5285
G01 X32.7030 Y9.5237
G01 X32.5918 Y9.4820
G01 X32.4982 Y9.4118
G01 X32.4280 Y9.3182
G01 X32.3863 Y9.2070
G01 X32.3815 Y9.1627
G01 X32.3815 Y6.0773
G01 X32.3863 Y6.0330
G01 X32.4280 Y5.9218
G01 X32.4982 Y5.8282
G01 X32.5918 Y5.7580
G01 X32.7030 Y5.7163
G01 X32.7473 Y5.7115
G01 X35.8327 Y5.7115
G01 X35.8770 Y5.7163
G01 X35.9882 Y5.7580
G01 X36.0818 Y5.8282
G01 X36.1520 Y5.9218
G01 X36.1937 Y6.0330
G01 X36.1985 Y6.0773
G01 X36.1985 Y9.1627
G01 X36.1937 Y9.2070
G01 X36.1520 Y9.3182
G01 X36.0818 Y9.4118
G01 X35.9882 Y9.4820
G01 X35.8770 Y9.5237
G01 X35.8327 Y9.5285
G01 X35.3245 Y9.5285
G01 X35.3138 Y9.5291
G01 X35.3032 Y9.5308
G01 X35.2509 Y9.5422
G01 X35.2413 Y9.5448
G01 X35.2319 Y9.5483
G01 X35.2230 Y9.5528
G01 X35.2145 Y9.5582
G01 X35.2067 Y9.5643
G01 X35.1530 Y9.6108
G01 X35.1461 Y9.6174
G01 X35.1399 Y9.6246
G01 X35.1344 Y9.6323
G01 X35.1296 Y9.6406
G01 X35.1257 Y9.6492
G01 X35.1226 Y9.6582
G01 X35.1026 Y9.7263
G01 X35.1003 Y9.7356
G01 X35.0990 Y9.7450
G01 X35.0985 Y9.7545
G01 X35.0985 Y11.6655
G01 X35.0991 Y11.6762
G01 X35.1008 Y11.6868
G01 X35.1122 Y11.7391
G01 X35.1148 Y11.7487
G01 X35.1183 Y11.7581
G01 X35.1228 Y11.7670
G01 X35.1282 Y11.7755
G01 X35.1343 Y11.7833
G01 X35.1808 Y11.8370
G01 X35.1874 Y11.8439
G01 X35.1946 Y11.8501
G01 X35.2023 Y11.8556
G01 X35.2106 Y11.8604
G01 X35.2192 Y11.8643
G01 X35.2282 Y11.8674
G01 X35.2963 Y11.8874
G01 X35.3056 Y11.8897
G01 X35.3150 Y11.8910
G01 X35.3245 Y11.8915
G01 X44.6855 Y11.8915
G01 X44.6962 Y11.8909
G01 X44.7068 Y11.8892
G01 X44.7591 Y11.8778
G01 X44.7687 Y11.8752
G01 X44.7781 Y11.8717
G01 X44.7870 Y11.8672
G01 X44.7955 Y11.8618
G01 X44.8033 Y11.8557
G01 X44.8570 Y11.8092
G01 X44.8639 Y11.8026
G01 X44.8701 Y11.7954
G01 X44.8756 Y11.7877
G01 X44.8804 Y11.7794
G01 X44.8843 Y11.7708
G01 X44.8874 Y11.7618
G01 X44.9074 Y11.6937
G01 X44.9097 Y11.6844
G01 X44.9110 Y11.6750
G01 X44.9115 Y11.6655
G01 X44.9115 Y9.7545
G01 X44.9109 Y9.7438
G01 X44.9092 Y9.7332
G01 X44.8978 Y9.6809
G01 X44.8952 Y9.6713
G01 X44.8917 Y9.6619
G01 X44.8872 Y9.6530
G01 X44.8818 Y9.6445
G01 X44.8757 Y9.6367
G01 X44.8292 Y9.5830
G01 X44.8226 Y9.5761
G01 X44.8154 Y9.5699
G01 X44.8077 Y9.5644
G01 X44.7994 Y9.5596
G01 X44.7908 Y9.5557
G01 X44.7818 Y9.5526
G01 X44.7137 Y9.5326
G01 X44.7044 Y9.5303
G01 X44.6950 Y9.5290
G01 X44.6855 Y9.5285
G01 X44.1773 Y9.5285
G01 X44.1330 Y9.5237
G01 X44.0218 Y9.4820
G01 X43.9282 Y9.4118
G01 X43.8580 Y9.3182
G01 X43.8163 Y9.2070
G01 X43.8115 Y9.1627
G01 X43.8115 Y6.0773
G01 X43.8163 Y6.0330
G01 X43.8580 Y5.9218
G01 X43.9282 Y5.8282
G01 X44.0218 Y5.7580
G01 X44.1330 Y5.7163
G01 X44.1773 Y5.7115
G01 X47.2627 Y5.7115
G01 X47.3070 Y5.7163
G01 X47.4182 Y5.7580
G01 X47.5118 Y5.8282
G01 X47.5820 Y5.9218
G01 X47.6237 Y6.0330
G01 X47.6285 Y6.0773
G01 X47.6285 Y9.1627
G01 X47.6237 Y9.2070
G01 X47.5820 Y9.3182
G01 X47.5118 Y9.4118
G01 X47.4182 Y9.4820
G01 X47.3070 Y9.5237
G01 X47.2627 Y9.5285
G01 X46.7545 Y9.5285
G01 X46.7438 Y9.5291
G01 X46.7332 Y9.5308
G01 X46.6809 Y9.5422
G01 X46.6713 Y9.5448
G01 X46.6619 Y9.5483
G01 X46.6530 Y9.5528
G01 X46.6445 Y9.5582
G01 X46.6367 Y9.5643
G01 X46.5830 Y9.6108
G01 X46.5761 Y9.6174
G01 X46.5699 Y9.6246
G01 X46.5644 Y9.6323
G01 X46.5596 Y9.6406
G01 X46.5557 Y9.6492
G01 X46.5526 Y9.6582
G01 X46.5326 Y9.7263
G01 X46.5303 Y9.7356
G01 X46.5290 Y9.7450
G01 X46.5285 Y9.7545
G01 X46.5285 Y11.6655
G01 X46.5291 Y11.6762
G01 X46.5308 Y11.6868
G01 X46.5422 Y11.7391
G01 X46.5448 Y11.7487
G01 X46.5483 Y11.7581
G01 X46.5528 Y11.7670
G01 X46.5582 Y11.7755
G01 X46.5643 Y11.7833
G01 X46.6108 Y11.8370
G01 X46.6174 Y11.8439
G01 X46.6246 Y11.8501
G01 X46.6323 Y11.8556
G01 X46.6406 Y11.8604
G01 X46.6492 Y11.8643
G01 X46.6582 Y11.8674
G01 X46.7263 Y11.8874
G01 X46.7356 Y11.8897
G01 X46.7450 Y11.8910
G01 X46.7545 Y11.8915
G01 X47.8315 Y11.8915
G01 X47.8422 Y11.8909
G01 X47.8690 Y11.8880
G01 X47.8787 Y11.8865
G01 X47.8882 Y11.8841
G01 X47.8974 Y11.8807
G01 X47.9062 Y11.8764
G01 X47.9685 Y11.8424
G01 X47.9766 Y11.8374
G01 X47.9843 Y11.8317
G01 X47.9913 Y11.8253
G01 X50.1707 Y9.6459
G01 X50.1889 Y9.6251
G01 X50.1959 Y9.6160
G01 X50.2389 Y9.5773
G01 X50.2583 Y9.5583
G01 X50.2772 Y9.5428
G01 X50.3222 Y9.5023
G01 X50.3319 Y9.4963
G01 X50.3482 Y9.4851
G01 X50.3572 Y9.4782
G01 X50.4111 Y9.4507
G01 X50.4693 Y9.4173
G01 X50.4801 Y9.4135
G01 X50.4984 Y9.4059
G01 X50.5087 Y9.4010
G01 X50.5671 Y9.3853
G01 X50.6310 Y9.3648
G01 X50.6423 Y9.3633
G01 X50.6617 Y9.3597
G01 X50.6728 Y9.3571
G01 X50.7306 Y9.3540
G01 X50.7576 Y9.3515
G01 X50.7848 Y9.3512
G01 X50.8425 Y9.3482
G01 X50.8539 Y9.3496
G01 X50.8814 Y9.3515
G01 X93.8986 Y9.3515
G01 X93.9261 Y9.3496
G01 X93.9375 Y9.3482
G01 X93.9952 Y9.3512
G01 X94.0071 Y9.3515
G01 X99.4655 Y9.3515
G01 X99.4762 Y9.3509
G01 X99.4868 Y9.3492
G01 X99.5391 Y9.3378
G01 X99.5487 Y9.3352
G01 X99.5581 Y9.3317
G01 X99.5670 Y9.3272
G01 X99.5755 Y9.3218
G01 X99.5833 Y9.3157
G01 X99.6370 Y9.2692
G01 X99.6439 Y9.2626
G01 X99.6501 Y9.2554
G01 X99.6556 Y9.2477
G01 X99.6604 Y9.2394
G01 X99.6643 Y9.2308
G01 X99.6674 Y9.2218
G01 X99.6874 Y9.1537
G01 X99.6897 Y9.1444
G01 X99.6910 Y9.1350
G01 X99.6915 Y9.1255
G01 X99.6915 Y8.6173
G01 X99.6963 Y8.5730
G01 X99.7380 Y8.4618
G01 X99.8082 Y8.3682
G01 X99.9018 Y8.2980
G01 X100.0130 Y8.2563
G01 X100.0573 Y8.2515
G01 X103.1427 Y8.2515
G01 X103.1870 Y8.2563
G01 X103.2982 Y8.2980
G01 X103.3918 Y8.3682
G01 X103.4620 Y8.4618
G01 X103.5037 Y8.5730
G01 X103.5085 Y8.6173
G01 X103.5085 Y11.7027
G01 X103.5037 Y11.7470
G01 X103.4620 Y11.8582
G01 X103.3918 Y11.9518
G01 X103.2982 Y12.0220
G01 X103.1870 Y12.0637
G01 X103.1427 Y12.0685
G01 X100.0573 Y12.0685
G01 X100.0130 Y12.0637
G01 X99.9018 Y12.0220
G01 X99.8082 Y11.9518
G01 X99.7380 Y11.8582
G01 X99.6963 Y11.7470
G01 X99.6915 Y11.7027
G01 X99.6915 Y11.1945
G01 X99.6909 Y11.1838
G01 X99.6892 Y11.1732
G01 X99.6778 Y11.1209
G01 X99.6752 Y11.1113
G01 X99.6717 Y11.1019
G01 X99.6672 Y11.0930
G01 X99.6618 Y11.0845
G01 X99.6557 Y11.0767
G01 X99.6092 Y11.0230
G01 X99.6026 Y11.0161
G01 X99.5954 Y11.0099
G01 X99.5877 Y11.0044
G01 X99.5794 Y10.9996
G01 X99.5708 Y10.9957
G01 X99.5618 Y10.9926
G01 X99.4937 Y10.9726
G01 X99.4844 Y10.9703
G01 X99.4750 Y10.9690
G01 X99.4655 Y10.9685
G01 X95.0595 Y10.9685
G01 X95.0488 Y10.9691
G01 X95.0382 Y10.9708
G01 X94.9859 Y10.9822
G01 X94.9762 Y10.9848
G01 X94.9669 Y10.9883
G01 X94.9580 Y10.9928
G01 X94.9495 Y10.9982
G01 X94.9417 Y11.0043
G01 X94.8880 Y11.0508
G01 X94.8811 Y11.0574
G01 X94.8749 Y11.0646
G01 X94.8694 Y11.0723
G01 X94.8646 Y11.0806
G01 X94.8607 Y11.0892
G01 X94.8575 Y11.0982
G01 X94.8375 Y11.1663
G01 X94.8353 Y11.1756
G01 X94.8339 Y11.1850
G01 X94.8335 Y11.1945
G01 X94.8335 Y20.7156
G01 X94.8341 Y20.7263
G01 X94.8358 Y20.7369
G01 X94.8472 Y20.7892
G01 X94.8498 Y20.7989
G01 X94.8533 Y20.8082
G01 X94.8578 Y20.8171
G01 X94.8631 Y20.8256
G01 X94.8693 Y20.8335
G01 X94.9158 Y20.8871
G01 X94.9224 Y20.8940
G01 X94.9296 Y20.9002
G01 X94.9373 Y20.9058
G01 X94.9455 Y20.9105
G01 X94.9542 Y20.9145
G01 X94.9632 Y20.9176
G01 X95.0313 Y20.9376
G01 X95.0406 Y20.9398
G01 X95.0500 Y20.9412
G01 X95.0595 Y20.9416
G01 X95.3377 Y20.9416
G01 X95.3820 Y20.9464
G01 X95.4932 Y20.9881
G01 X95.5868 Y21.0583
G01 X95.6570 Y21.1519
G01 X95.6987 Y21.2631
G01 X95.7035 Y21.3074
G01 X95.7035 Y23.9328
G01 X95.6987 Y23.9771
G01 X95.6570 Y24.0883
G01 X95.5868 Y24.1820
G01 X95.4932 Y24.2521
G01 X95.3820 Y24.2938
G01 X95.3377 Y24.2986
G01 X92.7123 Y24.2986
G01 X92.6680 Y24.2938
G01 X92.5568 Y24.2521
G01 X92.4632 Y24.1820
G01 X92.3930 Y24.0883
G01 X92.3513 Y23.9771
G01 X92.3465 Y23.9328
G01 X92.3465 Y21.3074
G01 X92.3513 Y21.2631
G01 X92.3930 Y21.1519
G01 X92.4632 Y21.0583
G01 X92.5568 Y20.9881
G01 X92.6680 Y20.9464
G01 X92.7123 Y20.9416
G01 X92.9905 Y20.9416
G01 X93.0012 Y20.9411
G01 X93.0117 Y20.9393
G01 X93.0641 Y20.9280
G01 X93.0737 Y20.9253
G01 X93.0831 Y20.9218
G01 X93.0920 Y20.9173
G01 X93.1004 Y20.9120
G01 X93.1083 Y20.9058
G01 X93.1620 Y20.8593
G01 X93.1689 Y20.8528
G01 X93.1751 Y20.8456
G01 X93.1806 Y20.8378
G01 X93.1854 Y20.8296
G01 X93.1893 Y20.8209
G01 X93.1924 Y20.8119
G01 X93.2124 Y20.7438
G01 X93.2147 Y20.7346
G01 X93.2160 Y20.7251
G01 X93.2165 Y20.7156
G01 X93.2165 Y11.1945
G01 X93.2159 Y11.1838
G01 X93.2142 Y11.1732
G01 X93.2028 Y11.1209
G01 X93.2002 Y11.1113
G01 X93.1967 Y11.1019
G01 X93.1922 Y11.0930
G01 X93.1868 Y11.0845
G01 X93.1807 Y11.0767
G01 X93.1342 Y11.0230
G01 X93.1276 Y11.0161
G01 X93.1204 Y11.0099
G01 X93.1127 Y11.0044
G01 X93.1044 Y10.9996
G01 X93.0958 Y10.9957
G01 X93.0868 Y10.9926
G01 X93.0187 Y10.9726
G01 X93.0094 Y10.9703
G01 X93.0000 Y10.9690
G01 X92.9905 Y10.9685
G01 X51.2285 Y10.9685
G01 X51.2178 Y10.9691
G01 X51.1910 Y10.9720
G01 X51.1813 Y10.9735
G01 X51.1718 Y10.9759
G01 X51.1626 Y10.9793
G01 X51.1538 Y10.9836
G01 X51.0915 Y11.0176
G01 X51.0834 Y11.0226
G01 X51.0757 Y11.0283
G01 X51.0687 Y11.0347
G01 X48.8893 Y13.2141
G01 X48.8711 Y13.2349
G01 X48.8641 Y13.2440
G01 X48.8211 Y13.2827
G01 X48.8017 Y13.3017
G01 X48.7828 Y13.3172
G01 X48.7378 Y13.3577
G01 X48.7281 Y13.3637
G01 X48.7118 Y13.3749
G01 X48.7028 Y13.3818
G01 X48.6489 Y13.4093
G01 X48.5907 Y13.4427
G01 X48.5799 Y13.4465
G01 X48.5616 Y13.4541
G01 X48.5513 Y13.4590
G01 X48.4866 Y13.4765
G01 X48.4290 Y13.4952
G01 X48.4177 Y13.4967
G01 X48.3983 Y13.5003
G01 X48.3872 Y13.5029
G01 X48.3268 Y13.5061
G01 X48.3024 Y13.5085
G01 X48.2752 Y13.5088
G01 X48.2175 Y13.5118
G01 X48.2061 Y13.5104
G01 X48.1786 Y13.5085
G01 X12.7814 Y13.5085
G01 X12.7539 Y13.5104
G01 X12.7425 Y13.5118
G01 X12.6848 Y13.5088
G01 X12.6576 Y13.5085
G01 X12.6306 Y13.5060
G01 X12.5728 Y13.5029
G01 X12.5617 Y13.5003
G01 X12.5423 Y13.4967
G01 X12.5310 Y13.4952
G01 X12.4671 Y13.4747
G01 X12.4087 Y13.4590
G01 X12.3984 Y13.4541
G01 X12.3801 Y13.4465
G01 X12.3693 Y13.4427
G01 X12.3112 Y13.4093
G01 X12.2572 Y13.3818
G01 X12.2482 Y13.3749
G01 X12.2319 Y13.3637
G01 X12.2222 Y13.3577
G01 X12.1772 Y13.3172
G01 X12.1583 Y13.3017
G01 X12.1389 Y13.2827
G01 X12.0959 Y13.2440
G01 X12.0889 Y13.2349
G01 X12.0707 Y13.2141
G01 X10.9159 Y12.0593
G01 X10.8951 Y12.0411
G01 X10.8860 Y12.0341
G01 X10.8473 Y11.9911
G01 X10.8283 Y11.9717
G01 X10.8128 Y11.9528
G01 X10.7723 Y11.9078
G01 X10.7663 Y11.8981
G01 X10.7551 Y11.8818
G01 X10.7482 Y11.8728
G01 X10.7207 Y11.8189
G01 X10.6873 Y11.7607
G01 X10.6835 Y11.7499
G01 X10.6759 Y11.7316
G01 X10.6710 Y11.7213
G01 X10.6535 Y11.6566
G01 X10.6348 Y11.5990
G01 X10.6333 Y11.5877
G01 X10.6297 Y11.5683
G01 X10.6271 Y11.5572
G01 X10.6239 Y11.4968
G01 X10.6215 Y11.4724
G01 X10.6212 Y11.4452
G01 X10.6182 Y11.3875
G00 Z2.0000
G00 X16.7029 Y9.1977
G01 F60.00
G01 Z-0.0475
G01 F250.00
G01 X16.9280 Y8.9726
G01 X17.0215 Y9.0287
G01 X17.0301 Y9.0333
G01 X17.1632 Y9.0962
G01 X17.1723 Y9.1000
G01 X17.3109 Y9.1496
G01 X17.3203 Y9.1524
G01 X17.4631 Y9.1882
G01 X17.4727 Y9.1901
G01 X17.6183 Y9.2117
G01 X17.6281 Y9.2127
G01 X17.7751 Y9.2199
G01 X17.7849 Y9.2199
G01 X17.9319 Y9.2127
G01 X17.9417 Y9.2117
G01 X18.0873 Y9.1901
G01 X18.0969 Y9.1882
G01 X18.2397 Y9.1524
G01 X18.2491 Y9.1496
G01 X18.3877 Y9.1000
G01 X18.3968 Y9.0962
G01 X18.5299 Y9.0333
G01 X18.5385 Y9.0287
G01 X18.6320 Y8.9726
G01 X18.8579 Y9.1985
G01 X18.6474 Y9.3244
G01 X18.4081 Y9.4263
G01 X18.1571 Y9.4948
G01 X17.8992 Y9.5287
G01 X17.6391 Y9.5272
G01 X17.3815 Y9.4904
G01 X17.1314 Y9.4190
G01 X16.8948 Y9.3152
G01 X16.7029 Y9.1977
G00 X16.7029 Y9.1977
G01 F60.00
G01 Z-0.0950
G01 F250.00
G01 X16.9280 Y8.9726
G01 X17.0215 Y9.0287
G01 X17.0301 Y9.0333
G01 X17.1632 Y9.0962
G01 X17.1723 Y9.1000
G01 X17.3109 Y9.1496
G01 X17.3203 Y9.1524
G01 X17.4631 Y9.1882
G01 X17.4727 Y9.1901
G01 X17.6183 Y9.2117
G01 X17.6281 Y9.2127
G01 X17.7751 Y9.2199
G01 X17.7849 Y9.2199
G01 X17.9319 Y9.2127
G01 X17.9417 Y9.2117
G01 X18.0873 Y9.1901
G01 X18.0969 Y9.1882
G01 X18.2397 Y9.1524
G01 X18.2491 Y9.1496
G01 X18.3877 Y9.1000
G01 X18.3968 Y9.0962
G01 X18.5299 Y9.0333
G01 X18.5385 Y9.0287
G01 X18.6320 Y8.9726
G01 X18.8579 Y9.1985
G01 X18.6474 Y9.3244
G01 X18.4081 Y9.4263
G01 X18.1571 Y9.4948
G01 X17.8992 Y9.5287
G01 X17.6391 Y9.5272
G01 X17.3815 Y9.4904
G01 X17.1314 Y9.4190
G01 X16.8948 Y9.3152
G01 X16.7029 Y9.1977
G00 Z2.0000
G00 X16.8633 Y9.1788
G01 F60.00
G01 Z-0.0475
G01 F250.00
G01 X16.9435 Y9.0985
G01 X16.9701 Y9.1144
G01 X16.9874 Y9.1237
G01 X17.1205 Y9.1866
G01 X17.1386 Y9.1941
G01 X17.2772 Y9.2437
G01 X17.2960 Y9.2494
G01 X17.4388 Y9.2852
G01 X17.4580 Y9.2890
G01 X17.6036 Y9.3106
G01 X17.6232 Y9.3125
G01 X17.7702 Y9.3198
G01 X17.7898 Y9.3198
G01 X17.9368 Y9.3125
G01 X17.9564 Y9.3106
G01 X18.1020 Y9.2890
G01 X18.1212 Y9.2852
G01 X18.2640 Y9.2494
G01 X18.2828 Y9.2437
G01 X18.4214 Y9.1941
G01 X18.4395 Y9.1866
G01 X18.5726 Y9.1237
G01 X18.5899 Y9.1144
G01 X18.6165 Y9.0985
G01 X18.6965 Y9.1786
G01 X18.6027 Y9.2347
G01 X18.3760 Y9.3314
G01 X18.1382 Y9.3965
G01 X17.8938 Y9.4287
G01 X17.6473 Y9.4274
G01 X17.4032 Y9.3926
G01 X17.1661 Y9.3251
G01 X16.9404 Y9.2260
G01 X16.8633 Y9.1788
G00 X16.8633 Y9.1788
G01 F60.00
G01 Z-0.0950
G01 F250.00
G01 X16.9435 Y9.0985
G01 X16.9701 Y9.1144
G01 X16.9874 Y9.1237
G01 X17.1205 Y9.1866
G01 X17.1386 Y9.1941
G01 X17.2772 Y9.2437
G01 X17.2960 Y9.2494
G01 X17.4388 Y9.2852
G01 X17.4580 Y9.2890
G01 X17.6036 Y9.3106
G01 X17.6232 Y9.3125
G01 X17.7702 Y9.3198
G01 X17.7898 Y9.3198
G01 X17.9368 Y9.3125
G01 X17.9564 Y9.3106
G01 X18.1020 Y9.2890
G01 X18.1212 Y9.2852
G01 X18.2640 Y9.2494
G01 X18.2828 Y9.2437
G01 X18.4214 Y9.1941
G01 X18.4395 Y9.1866
G01 X18.5726 Y9.1237
G01 X18.5899 Y9.1144
G01 X18.6165 Y9.0985
G01 X18.6965 Y9.1786
G01 X18.6027 Y9.2347
G01 X18.3760 Y9.3314
G01 X18.1382 Y9.3965
G01 X17.8938 Y9.4287
G01 X17.6473 Y9.4274
G01 X17.4032 Y9.3926
G01 X17.1661 Y9.3251
G01 X16.9404 Y9.2260
G01 X16.8633 Y9.1788
G00 Z2.0000
G00 X15.9674 Y7.6142
G01 F60.00
G01 Z-0.0475
G01 F250.00
G01 X15.9677 Y7.5878
G01 X15.9901 Y7.3365
G01 X16.0451 Y7.0962
G01 X16.1323 Y6.8656
G01 X16.2207 Y6.7027
G01 X16.3015 Y6.7835
G01 X16.2856 Y6.8101
G01 X16.2763 Y6.8274
G01 X16.2134 Y6.9605
G01 X16.2059 Y6.9786
G01 X16.1563 Y7.1172
G01 X16.1506 Y7.1360
G01 X16.1148 Y7.2788
G01 X16.1110 Y7.2980
G01 X16.0894 Y7.4436
G01 X16.0875 Y7.4632
G01 X16.0802 Y7.6102
G01 X16.0802 Y7.6298
G01 X16.0875 Y7.7768
G01 X16.0894 Y7.7964
G01 X16.1110 Y7.9420
G01 X16.1148 Y7.9612
G01 X16.1506 Y8.1040
G01 X16.1563 Y8.1228
G01 X16.2059 Y8.2614
G01 X16.2134 Y8.2795
G01 X16.2763 Y8.4126
G01 X16.2856 Y8.4299
G01 X16.3015 Y8.4565
G01 X16.2194 Y8.5385
G01 X16.1168 Y8.3397
G01 X16.0345 Y8.1073
G01 X15.9845 Y7.8659
G01 X15.9674 Y7.6142
G00 X15.9674 Y7.6142
G01 F60.00
G01 Z-0.0950
G01 F250.00
G01 X15.9677 Y7.5878
G01 X15.9901 Y7.3365
G01 X16.0451 Y7.0962
G01 X16.1323 Y6.8656
G01 X16.2207 Y6.7027
G01 X16.3015 Y6.7835
G01 X16.2856 Y6.8101
G01 X16.2763 Y6.8274
G01 X16.2134 Y6.9605
G01 X16.2059 Y6.9786
G01 X16.1563 Y7.1172
G01 X16.1506 Y7.1360
G01 X16.1148 Y7.2788
G01 X16.1110 Y7.2980
G01 X16.0894 Y7.4436
G01 X16.0875 Y7.4632
G01 X16.0802 Y7.6102
G01 X16.0802 Y7.6298
G01 X16.0875 Y7.7768
G01 X16.0894 Y7.7964
G01 X16.1110 Y7.9420
G01 X16.1148 Y7.9612
G01 X16.1506 Y8.1040
G01 X16.1563 Y8.1228
G01 X16.2059 Y8.2614
G01 X16.2134 Y8.2795
G01 X16.2763 Y8.4126
G01 X16.2856 Y8.4299
G01 X16.3015 Y8.4565
G01 X16.2194 Y8.5385
G01 X16.1168 Y8.3397
G01 X16.0345 Y8.1073
G01 X15.9845 Y7.8659
G01 X15.9674 Y7.6142
G00 Z2.0000
G00 X16.2031 Y6.5437
G01 F60.00
G01 Z-0.0475
G01 F250.00
G01 X16.4274 Y6.7680
G01 X16.3713 Y6.8615
G01 X16.3667 Y6.8701
G01 X16.3038 Y7.0032
G01 X16.3000 Y7.0123
G01 X16.2504 Y7.1509
G01 X16.2476 Y7.1603
G01 X16.2118 Y7.3031
G01 X16.2099 Y7.3127
G01 X16.1883 Y7.4583
G01 X16.1873 Y7.4681
G01 X16.1801 Y7.6151
G01 X16.1801 Y7.6249
G01 X16.1873 Y7.7719
G01 X16.1883 Y7.7817
G01 X16.2099 Y7.9273
G01 X16.2118 Y7.9369
G01 X16.2476 Y8.0797
G01 X16.2504 Y8.0891
G01 X16.3000 Y8.2277
G01 X16.3038 Y8.2368
G01 X16.3667 Y8.3699
G01 X16.3713 Y8.3785
G01 X16.4274 Y8.4720
G01 X16.2038 Y8.6956
G01 X16.1438 Y8.6099
G01 X16.0252 Y8.3803
G01 X15.9383 Y8.1351
G01 X15.8852 Y7.8787
G01 X15.8673 Y7.6166
G01 X15.8677 Y7.5823
G01 X15.8910 Y7.3217
G01 X15.9495 Y7.0664
G01 X16.0415 Y6.8231
G01 X16.1648 Y6.5960
G01 X16.2031 Y6.5437
G00 X16.2031 Y6.5437
G01 F60.00
G01 Z-0.0950
G01 F250.00
G01 X16.4274 Y6.7680
G01 X16.3713 Y6.8615
G01 X16.3667 Y6.8701
G01 X16.3038 Y7.0032
G01 X16.3000 Y7.0123
G01 X16.2504 Y7.1509
G01 X16.2476 Y7.1603
G01 X16.2118 Y7.3031
G01 X16.2099 Y7.3127
G01 X16.1883 Y7.4583
G01 X16.1873 Y7.4681
G01 X16.1801 Y7.6151
G01 X16.1801 Y7.6249
G01 X16.1873 Y7.7719
G01 X16.1883 Y7.7817
G01 X16.2099 Y7.9273
G01 X16.2118 Y7.9369
G01 X16.2476 Y8.0797
G01 X16.2504 Y8.0891
G01 X16.3000 Y8.2277
G01 X16.3038 Y8.2368
G01 X16.3667 Y8.3699
G01 X16.3713 Y8.3785
G01 X16.4274 Y8.4720
G01 X16.2038 Y8.6956
G01 X16.1438 Y8.6099
G01 X16.0252 Y8.3803
G01 X15.9383 Y8.1351
G01 X15.8852 Y7.8787
G01 X15.8673 Y7.6166
G01 X15.8677 Y7.5823
G01 X15.8910 Y7.3217
G01 X15.9495 Y7.0664
G01 X16.0415 Y6.8231
G01 X16.1648 Y6.5960
G01 X16.2031 Y6.5437
G00 Z2.0000
G00 X16.7016 Y6.0410
G01 F60.00
G01 Z-0.0475
G01 F250.00
G01 X16.7058 Y6.0378
G01 X16.9289 Y5.9074
G01 X17.1692 Y5.8078
G01 X17.4208 Y5.7416
G01 X17.6808 Y5.7102
G01 X17.9409 Y5.7144
G01 X18.1980 Y5.7538
G01 X18.4474 Y5.8278
G01 X18.6829 Y5.9342
G01 X18.8565 Y6.0429
G01 X18.6320 Y6.2674
G01 X18.5385 Y6.2113
G01 X18.5299 Y6.2067
G01 X18.3968 Y6.1438
G01 X18.3877 Y6.1400
G01 X18.2491 Y6.0904
G01 X18.2397 Y6.0876
G01 X18.0969 Y6.0518
G01 X18.0873 Y6.0499
G01 X17.9417 Y6.0283
G01 X17.9319 Y6.0273
G01 X17.7849 Y6.0201
G01 X17.7751 Y6.0201
G01 X17.6281 Y6.0273
G01 X17.6183 Y6.0283
G01 X17.4727 Y6.0499
G01 X17.4631 Y6.0518
G01 X17.3203 Y6.0876
G01 X17.3109 Y6.0904
G01 X17.1723 Y6.1400
G01 X17.1632 Y6.1438
G01 X17.0301 Y6.2067
G01 X17.0215 Y6.2113
G01 X16.9280 Y6.2674
G01 X16.7016 Y6.0410
G00 X16.7016 Y6.0410
G01 F60.00
G01 Z-0.0950
G01 F250.00
G01 X16.7058 Y6.0378
G01 X16.9289 Y5.9074
G01 X17.1692 Y5.8078
G01 X17.4208 Y5.7416
G01 X17.6808 Y5.7102
G01 X17.9409 Y5.7144
G01 X18.1980 Y5.7538
G01 X18.4474 Y5.8278
G01 X18.6829 Y5.9342
G01 X18.8565 Y6.0429
G01 X18.6320 Y6.2674
G01 X18.5385 Y6.2113
G01 X18.5299 Y6.2067
G01 X18.3968 Y6.1438
G01 X18.3877 Y6.1400
G01 X18.2491 Y6.0904
G01 X18.2397 Y6.0876
G01 X18.0969 Y6.0518
G01 X18.0873 Y6.0499
G01 X17.9417 Y6.0283
G01 X17.9319 Y6.0273
G01 X17.7849 Y6.0201
G01 X17.7751 Y6.0201
G01 X17.6281 Y6.0273
G01 X17.6183 Y6.0283
G01 X17.4727 Y6.0499
G01 X17.4631 Y6.0518
G01 X17.3203 Y6.0876
G01 X17.3109 Y6.0904
G01 X17.1723 Y6.1400
G01 X17.1632 Y6.1438
G01 X17.0301 Y6.2067
G01 X17.0215 Y6.2113
G01 X16.9280 Y6.2674
G01 X16.7016 Y6.0410
G00 Z2.0000
G00 X16.8635 Y6.0615
G01 F60.00
G01 Z-0.0475
G01 F250.00
G01 X16.9742 Y5.9968
G01 X17.2020 Y5.9024
G01 X17.4404 Y5.8399
G01 X17.6852 Y5.8103
G01 X17.9316 Y5.8141
G01 X18.1753 Y5.8514
G01 X18.4117 Y5.9214
G01 X18.6364 Y6.0229
G01 X18.6970 Y6.0609
G01 X18.6165 Y6.1415
G01 X18.5899 Y6.1256
G01 X18.5726 Y6.1163
G01 X18.4395 Y6.0534
G01 X18.4214 Y6.0459
G01 X18.2828 Y5.9963
G01 X18.2640 Y5.9906
G01 X18.1212 Y5.9548
G01 X18.1020 Y5.9510
G01 X17.9564 Y5.9294
G01 X17.9368 Y5.9275
G01 X17.7898 Y5.9202
G01 X17.7702 Y5.9202
G01 X17.6232 Y5.9275
G01 X17.6036 Y5.9294
G01 X17.4580 Y5.9510
G01 X17.4388 Y5.9548
G01 X17.2960 Y5.9906
G01 X17.2772 Y5.9963
G01 X17.1386 Y6.0459
G01 X17.1205 Y6.0534
G01 X16.9874 Y6.1163
G01 X16.9701 Y6.1256
G01 X16.9435 Y6.1415
G01 X16.8635 Y6.0615
G00 X16.8635 Y6.0615
G01 F60.00
G01 Z-0.0950
G01 F250.00
G01 X16.9742 Y5.9968
G01 X17.2020 Y5.9024
G01 X17.4404 Y5.8399
G01 X17.6852 Y5.8103
G01 X17.9316 Y5.8141
G01 X18.1753 Y5.8514
G01 X18.4117 Y5.9214
G01 X18.6364 Y6.0229
G01 X18.6970 Y6.0609
G01 X18.6165 Y6.1415
G01 X18.5899 Y6.1256
G01 X18.5726 Y6.1163
G01 X18.4395 Y6.0534
G01 X18.4214 Y6.0459
G01 X18.2828 Y5.9963
G01 X18.2640 Y5.9906
G01 X18.1212 Y5.9548
G01 X18.1020 Y5.9510
G01 X17.9564 Y5.9294
G01 X17.9368 Y5.9275
G01 X17.7898 Y5.9202
G01 X17.7702 Y5.9202
G01 X17.6232 Y5.9275
G01 X17.6036 Y5.9294
G01 X17.4580 Y5.9510
G01 X17.4388 Y5.9548
G01 X17.2960 Y5.9906
G01 X17.2772 Y5.9963
G01 X17.1386 Y6.0459
G01 X17.1205 Y6.0534
G01 X16.9874 Y6.1163
G01 X16.9701 Y6.1256
G01 X16.9435 Y6.1415
G01 X16.8635 Y6.0615
G00 Z2.0000
G00 X19.1326 Y6.7680
G01 F60.00
G01 Z-0.0475
G01 F250.00
G01 X19.3561 Y6.5445
G01 X19.4265 Y6.6473
G01 X19.5433 Y6.8797
G01 X19.6275 Y7.1259
G01 X19.6774 Y7.3812
G01 X19.6923 Y7.6409
G01 X19.6720 Y7.8985
G01 X19.6167 Y8.1527
G01 X19.5267 Y8.3986
G01 X19.4058 Y8.6270
G01 X19.3565 Y8.6958
G01 X19.1326 Y8.4720
G01 X19.1887 Y8.3785
G01 X19.1933 Y8.3699
G01 X19.2562 Y8.2368
G01 X19.2600 Y8.2277
G01 X19.3096 Y8.0891
G01 X19.3124 Y8.0797
G01 X19.3482 Y7.9369
G01 X19.3501 Y7.9273
G01 X19.3717 Y7.7817
G01 X19.3727 Y7.7719
G01 X19.3799 Y7.6249
G01 X19.3799 Y7.6151
G01 X19.3727 Y7.4681
G01 X19.3717 Y7.4583
G01 X19.3501 Y7.3127
G01 X19.3482 Y7.3031
G01 X19.3124 Y7.1603
G01 X19.3096 Y7.1509
G01 X19.2600 Y7.0123
G01 X19.2562 Y7.0032
G01 X19.1933 Y6.8701
G01 X19.1887 Y6.8615
G01 X19.1326 Y6.7680
G00 X19.1326 Y6.7680
G01 F60.00
G01 Z-0.0950
G01 F250.00
G01 X19.3561 Y6.5445
G01 X19.4265 Y6.6473
G01 X19.5433 Y6.8797
G01 X19.6275 Y7.1259
G01 X19.6774 Y7.3812
G01 X19.6923 Y7.6409
G01 X19.6720 Y7.8985
G01 X19.6167 Y8.1527
G01 X19.5267 Y8.3986
G01 X19.4058 Y8.6270
G01 X19.3565 Y8.6958
G01 X19.1326 Y8.4720
G01 X19.1887 Y8.3785
G01 X19.1933 Y8.3699
G01 X19.2562 Y8.2368
G01 X19.2600 Y8.2277
G01 X19.3096 Y8.0891
G01 X19.3124 Y8.0797
G01 X19.3482 Y7.9369
G01 X19.3501 Y7.9273
G01 X19.3717 Y7.7817
G01 X19.3727 Y7.7719
G01 X19.3799 Y7.6249
G01 X19.3799 Y7.6151
G01 X19.3727 Y7.4681
G01 X19.3717 Y7.4583
G01 X19.3501 Y7.3127
G01 X19.3482 Y7.3031
G01 X19.3124 Y7.1603
G01 X19.3096 Y7.1509
G01 X19.2600 Y7.0123
G01 X19.2562 Y7.0032
G01 X19.1933 Y6.8701
G01 X19.1887 Y6.8615
G01 X19.1326 Y6.7680
G00 Z2.0000
G00 X19.3414 Y6.7006
G01 F60.00
G01 Z-0.0475
G01 F250.00
G01 X19.4506 Y6.9177
G01 X19.5305 Y7.1510
G01 X19.5779 Y7.3929
G01 X19.5921 Y7.6390
G01 X19.5728 Y7.8847
G01 X19.5203 Y8.1256
G01 X19.4356 Y8.3571
G01 X19.3399 Y8.5378
G01 X19.2585 Y8.4565
G01 X19.2744 Y8.4299
G01 X19.2837 Y8.4126
G01 X19.3466 Y8.2795
G01 X19.3541 Y8.2614
G01 X19.4037 Y8.1228
G01 X19.4094 Y8.1040
G01 X19.4452 Y7.9612
G01 X19.4490 Y7.9420
G01 X19.4706 Y7.7964
G01 X19.4725 Y7.7768
G01 X19.4798 Y7.6298
G01 X19.4798 Y7.6102
G01 X19.4725 Y7.4632
G01 X19.4706 Y7.4436
G01 X19.4490 Y7.2980
G01 X19.4452 Y7.2788
G01 X19.4094 Y7.1360
G01 X19.4037 Y7.1172
G01 X19.3541 Y6.9786
G01 X19.3466 Y6.9605
G01 X19.2837 Y6.8274
G01 X19.2744 Y6.8101
G01 X19.2585 Y6.7835
G01 X19.3414 Y6.7006
G00 X19.3414 Y6.7006
G01 F60.00
G01 Z-0.0950
G01 F250.00
G01 X19.4506 Y6.9177
G01 X19.5305 Y7.1510
G01 X19.5779 Y7.3929
G01 X19.5921 Y7.6390
G01 X19.5728 Y7.8847
G01 X19.5203 Y8.1256
G01 X19.4356 Y8.3571
G01 X19.3399 Y8.5378
G01 X19.2585 Y8.4565
G01 X19.2744 Y8.4299
G01 X19.2837 Y8.4126
G01 X19.3466 Y8.2795
G01 X19.3541 Y8.2614
G01 X19.4037 Y8.1228
G01 X19.4094 Y8.1040
G01 X19.4452 Y7.9612
G01 X19.4490 Y7.9420
G01 X19.4706 Y7.7964
G01 X19.4725 Y7.7768
G01 X19.4798 Y7.6298
G01 X19.4798 Y7.6102
G01 X19.4725 Y7.4632
G01 X19.4706 Y7.4436
G01 X19.4490 Y7.2980
G01 X19.4452 Y7.2788
G01 X19.4094 Y7.1360
G01 X19.4037 Y7.1172
G01 X19.3541 Y6.9786
G01 X19.3466 Y6.9605
G01 X19.2837 Y6.8274
G01 X19.2744 Y6.8101
G01 X19.2585 Y6.7835
G01 X19.3414 Y6.7006
G00 Z2.0000
G00 X22.0875 Y9.4200
G01 F60.00
G01 Z-0.0475
G01 F250.00
G01 X22.1598 Y9.4200
G01 X22.1598 Y9.4976
G01 X22.1203 Y9.4520
G01 X22.1006 Y9.4314
G01 X22.0875 Y9.4200
G00 X22.0875 Y9.4200
G01 F60.00
G01 Z-0.0950
G01 F250.00
G01 X22.1598 Y9.4200
G01 X22.1598 Y9.4976
G01 X22.1203 Y9.4520
G01 X22.1006 Y9.4314
G01 X22.0875 Y9.4200
G00 Z2.0000
G00 X23.5602 Y9.4923
G01 F60.00
G01 Z-0.0475
G01 F250.00
G01 X23.5602 Y9.4200
G01 X23.6378 Y9.4200
G01 X23.5920 Y9.4597
G01 X23.5714 Y9.4794
G01 X23.5602 Y9.4923
G00 X23.5602 Y9.4923
G01 F60.00
G01 Z-0.0950
G01 F250.00
G01 X23.5602 Y9.4200
G01 X23.6378 Y9.4200
G01 X23.5920 Y9.4597
G01 X23.5714 Y9.4794
G01 X23.5602 Y9.4923
G00 Z2.0000
G00 X23.6323 Y11.9998
G01 F60.00
G01 Z-0.0475
G01 F250.00
G01 X23.5602 Y11.9998
G01 X23.5602 Y11.9224
G01 X23.5997 Y11.9680
G01 X23.6194 Y11.9886
G01 X23.6323 Y11.9998
G00 X23.6323 Y11.9998
G01 F60.00
G01 Z-0.0950
G01 F250.00
G01 X23.5602 Y11.9998
G01 X23.5602 Y11.9224
G01 X23.5997 Y11.9680
G01 X23.6194 Y11.9886
G01 X23.6323 Y11.9998
G00 Z2.0000
G00 X22.1598 Y11.9277
G01 F60.00
G01 Z-0.0475
G01 F250.00
G01 X22.1598 Y11.9998
G01 X22.0824 Y11.9998
G01 X22.1280 Y11.9603
G01 X22.1486 Y11.9406
G01 X22.1598 Y11.9277
G00 X22.1598 Y11.9277
G01 F60.00
G01 Z-0.0950
G01 F250.00
G01 X22.1598 Y11.9998
G01 X22.0824 Y11.9998
G01 X22.1280 Y11.9603
G01 X22.1486 Y11.9406
G01 X22.1598 Y11.9277
G00 Z2.0000
G00 X28.1329 Y9.1977
G01 F60.00
G01 Z-0.0475
G01 F250.00
G01 X28.3580 Y8.9726
G01 X28.4515 Y9.0287
G01 X28.4601 Y9.0333
G01 X28.5932 Y9.0962
G01 X28.6023 Y9.1000
G01 X28.7409 Y9.1496
G01 X28.7503 Y9.1524
G01 X28.8931 Y9.1882
G01 X28.9027 Y9.1901
G01 X29.0483 Y9.2117
G01 X29.0581 Y9.2127
G01 X29.2051 Y9.2199
G01 X29.2149 Y9.2199
G01 X29.3619 Y9.2127
G01 X29.3717 Y9.2117
G01 X29.5173 Y9.1901
G01 X29.5269 Y9.1882
G01 X29.6697 Y9.1524
G01 X29.6791 Y9.1496
G01 X29.8177 Y9.1000
G01 X29.8268 Y9.0962
G01 X29.9599 Y9.0333
G01 X29.9685 Y9.0287
G01 X30.0620 Y8.9726
G01 X30.2879 Y9.1985
G01 X30.0774 Y9.3244
G01 X29.8381 Y9.4263
G01 X29.5871 Y9.4948
G01 X29.3292 Y9.5287
G01 X29.0691 Y9.5272
G01 X28.8115 Y9.4904
G01 X28.5614 Y9.4190
G01 X28.3248 Y9.3152
G01 X28.1329 Y9.1977
G00 X28.1329 Y9.1977
G01 F60.00
G01 Z-0.0950
G01 F250.00
G01 X28.3580 Y8.9726
G01 X28.4515 Y9.0287
G01 X28.4601 Y9.0333
G01 X28.5932 Y9.0962
G01 X28.6023 Y9.1000
G01 X28.7409 Y9.1496
G01 X28.7503 Y9.1524
G01 X28.8931 Y9.1882
G01 X28.9027 Y9.1901
G01 X29.0483 Y9.2117
G01 X29.0581 Y9.2127
G01 X29.2051 Y9.2199
G01 X29.2149 Y9.2199
G01 X29.3619 Y9.2127
G01 X29.3717 Y9.2117
G01 X29.5173 Y9.1901
G01 X29.5269 Y9.1882
G01 X29.6697 Y9.1524
G01 X29.6791 Y9.1496
G01 X29.8177 Y9.1000
G01 X29.8268 Y9.0962
G01 X29.9599 Y9.0333
G01 X29.9685 Y9.0287
G01 X30.0620 Y8.9726
G01 X30.2879 Y9.1985
G01 X30.0774 Y9.3244
G01 X29.8381 Y9.4263
G01 X29.5871 Y9.4948
G01 X29.3292 Y9.5287
G01 X29.0691 Y9.5272
G01 X28.8115 Y9.4904
G01 X28.5614 Y9.4190
G01 X28.3248 Y9.3152
G01 X28.1329 Y9.1977
G00 Z2.0000
G00 X28.2933 Y9.1788
G01 F60.00
G01 Z-0.0475
G01 F250.00
G01 X28.3735 Y9.0985
G01 X28.4001 Y9.1144
G01 X28.4174 Y9.1237
G01 X28.5505 Y9.1866
G01 X28.5686 Y9.1941
G01 X28.7072 Y9.2437
G01 X28.7260 Y9.2494
G01 X28.8688 Y9.2852
G01 X28.8880 Y9.2890
G01 X29.0336 Y9.3106
G01 X29.0532 Y9.3125
G01 X29.2002 Y9.3198
G01 X29.2198 Y9.3198
G01 X29.3668 Y9.3125
G01 X29.3864 Y9.3106
G01 X29.5320 Y9.2890
G01 X29.5512 Y9.2852
G01 X29.6940 Y9.2494
G01 X29.7128 Y9.2437
G01 X29.8514 Y9.1941
G01 X29.8695 Y9.1866
G01 X30.0026 Y9.1237
G01 X30.0199 Y9.1144
G01 X30.0465 Y9.0985
G01 X30.1265 Y9.1786
G01 X30.0327 Y9.2347
G01 X29.8060 Y9.3314
G01 X29.5682 Y9.3965
G01 X29.3238 Y9.4287
G01 X29.0773 Y9.4274
G01 X28.8332 Y9.3926
G01 X28.5961 Y9.3251
G01 X28.3704 Y9.2260
G01 X28.2933 Y9.1788
G00 X28.2933 Y9.1788
G01 F60.00
G01 Z-0.0950
G01 F250.00
G01 X28.3735 Y9.0985
G01 X28.4001 Y9.1144
G01 X28.4174 Y9.1237
G01 X28.5505 Y9.1866
G01 X28.5686 Y9.1941
G01 X28.7072 Y9.2437
G01 X28.7260 Y9.2494
G01 X28.8688 Y9.2852
G01 X28.8880 Y9.2890
G01 X29.0336 Y9.3106
G01 X29.0532 Y9.3125
G01 X29.2002 Y9.3198
G01 X29.2198 Y9.3198
G01 X29.3668 Y9.3125
G01 X29.3864 Y9.3106
G01 X29.5320 Y9.2890
G01 X29.5512 Y9.2852
G01 X29.6940 Y9.2494
G01 X29.7128 Y9.2437
G01 X29.8514 Y9.1941
G01 X29.8695 Y9.1866
G01 X30.0026 Y9.1237
G01 X30.0199 Y9.1144
G01 X30.0465 Y9.0985
G01 X30.1265 Y9.1786
G01 X30.0327 Y9.2347
G01 X29.8060 Y9.3314
G01 X29.5682 Y9.3965
G01 X29.3238 Y9.4287
G01 X29.0773 Y9.4274
G01 X28.8332 Y9.3926
G01 X28.5961 Y9.3251
G01 X28.3704 Y9.2260
G01 X28.2933 Y9.1788
G00 Z2.0000
G00 X27.3974 Y7.6142
G01 F60.00
G01 Z-0.0475
G01 F250.00
G01 X27.3977 Y7.5878
G01 X27.4201 Y7.3365
G01 X27.4751 Y7.0962
G01 X27.5623 Y6.8656
G01 X27.6507 Y6.7027
G01 X27.7315 Y6.7835
G01 X27.7156 Y6.8101
G01 X27.7063 Y6.8274
G01 X27.6434 Y6.9605
G01 X27.6359 Y6.9786
G01 X27.5863 Y7.1172
G01 X27.5806 Y7.1360
G01 X27.5448 Y7.2788
G01 X27.5410 Y7.2980
G01 X27.5194 Y7.4436
G01 X27.5175 Y7.4632
G01 X27.5102 Y7.6102
G01 X27.5102 Y7.6298
G01 X27.5175 Y7.7768
G01 X27.5194 Y7.7964
G01 X27.5410 Y7.9420
G01 X27.5448 Y7.9612
G01 X27.5806 Y8.1040
G01 X27.5863 Y8.1228
G01 X27.6359 Y8.2614
G01 X27.6434 Y8.2795
G01 X27.7063 Y8.4126
G01 X27.7156 Y8.4299
G01 X27.7315 Y8.4565
G01 X27.6494 Y8.5385
G01 X27.5468 Y8.3397
G01 X27.4645 Y8.1073
G01 X27.4145 Y7.8659
G01 X27.3974 Y7.6142
G00 X27.3974 Y7.6142
G01 F60.00
G01 Z-0.0950
G01 F250.00
G01 X27.3977 Y7.5878
G01 X27.4201 Y7.3365
G01 X27.4751 Y7.0962
G01 X27.5623 Y6.8656
G01 X27.6507 Y6.7027
G01 X27.7315 Y6.7835
G01 X27.7156 Y6.8101
G01 X27.7063 Y6.8274
G01 X27.6434 Y6.9605
G01 X27.6359 Y6.9786
G01 X27.5863 Y7.1172
G01 X27.5806 Y7.1360
G01 X27.5448 Y7.2788
G01 X27.5410 Y7.2980
G01 X27.5194 Y7.4436
G01 X27.5175 Y7.4632
G01 X27.5102 Y7.6102
G01 X27.5102 Y7.6298
G01 X27.5175 Y7.7768
G01 X27.5194 Y7.7964
G01 X27.5410 Y7.9420
G01 X27.5448 Y7.9612
G01 X27.5806 Y8.1040
G01 X27.5863 Y8.1228
G01 X27.6359 Y8.2614
G01 X27.6434 Y8.2795
G01 X27.7063 Y8.4126
G01 X27.7156 Y8.4299
G01 X27.7315 Y8.4565
G01 X27.6494 Y8.5385
G01 X27.5468 Y8.3397
G01 X27.4645 Y8.1073
G01 X27.4145 Y7.8659
G01 X27.3974 Y7.6142
G00 Z2.0000
G00 X27.6331 Y6.5437
G01 F60.00
G01 Z-0.0475
G01 F250.00
G01 X27.8574 Y6.7680
G01 X27.8013 Y6.8615
G01 X27.7967 Y6.8701
G01 X27.7338 Y7.0032
G01 X27.7300 Y7.0123
G01 X27.6804 Y7.1509
G01 X27.6776 Y7.1603
G01 X27.6418 Y7.3031
G01 X27.6399 Y7.3127
G01 X27.6183 Y7.4583
G01 X27.6173 Y7.4681
G01 X27.6101 Y7.6151
G01 X27.6101 Y7.6249
G01 X27.6173 Y7.7719
G01 X27.6183 Y7.7817
G01 X27.6399 Y7.9273
G01 X27.6418 Y7.9369
G01 X27.6776 Y8.0797
G01 X27.6804 Y8.0891
G01 X27.7300 Y8.2277
G01 X27.7338 Y8.2368
G01 X27.7967 Y8.3699
G01 X27.8013 Y8.3785
G01 X27.8574 Y8.4720
G01 X27.6338 Y8.6956
G01 X27.5738 Y8.6099
G01 X27.4552 Y8.3803
G01 X27.3683 Y8.1351
G01 X27.3152 Y7.8787
G01 X27.2973 Y7.6166
G01 X27.2977 Y7.5823
G01 X27.3210 Y7.3217
G01 X27.3795 Y7.0664
G01 X27.4715 Y6.8231
G01 X27.5948 Y6.5960
G01 X27.6331 Y6.5437
G00 X27.6331 Y6.5437
G01 F60.00
G01 Z-0.0950
G01 F250.00
G01 X27.8574 Y6.7680
G01 X27.8013 Y6.8615
G01 X27.7967 Y6.8701
G01 X27.7338 Y7.0032
G01 X27.7300 Y7.0123
G01 X27.6804 Y7.1509
G01 X27.6776 Y7.1603
G01 X27.6418 Y7.3031
G01 X27.6399 Y7.3127
G01 X27.6183 Y7.4583
G01 X27.6173 Y7.4681
G01 X27.6101 Y7.6151
G01 X27.6101 Y7.6249
G01 X27.6173 Y7.7719
G01 X27.6183 Y7.7817
G01 X27.6399 Y7.9273
G01 X27.6418 Y7.9369
G01 X27.6776 Y8.0797
G01 X27.6804 Y8.0891
G01 X27.7300 Y8.2277
G01 X27.7338 Y8.2368
G01 X27.7967 Y8.3699
G01 X27.8013 Y8.3785
G01 X27.8574 Y8.4720
G01 X27.6338 Y8.6956
G01 X27.5738 Y8.6099
G01 X27.4552 Y8.3803
G01 X27.3683 Y8.1351
G01 X27.3152 Y7.8787
G01 X27.2973 Y7.6166
G01 X27.2977 Y7.5823
G01 X27.3210 Y7.3217
G01 X27.3795 Y7.0664
G01 X27.4715 Y6.8231
G01 X27.5948 Y6.5960
G01 X27.6331 Y6.5437
G00 Z2.0000
G00 X28.1316 Y6.0410
G01 F60.00
G01 Z-0.0475
G01 F250.00
G01 X28.1358 Y6.0378
G01 X28.3589 Y5.9074
G01 X28.5992 Y5.8078
G01 X28.8508 Y5.7416
G01 X29.1108 Y5.7102
G01 X29.3709 Y5.7144
G01 X29.6280 Y5.7538
G01 X29.8774 Y5.8278
G01 X30.1129 Y5.9342
G01 X30.2865 Y6.0429
G01 X30.0620 Y6.2674
G01 X29.9685 Y6.2113
G01 X29.9599 Y6.2067
G01 X29.8268 Y6.1438
G01 X29.8177 Y6.1400
G01 X29.6791 Y6.0904
G01 X29.6697 Y6.0876
G01 X29.5269 Y6.0518
G01 X29.5173 Y6.0499
G01 X29.3717 Y6.0283
G01 X29.3619 Y6.0273
G01 X29.2149 Y6.0201
G01 X29.2051 Y6.0201
G01 X29.0581 Y6.0273
G01 X29.0483 Y6.0283
G01 X28.9027 Y6.0499
G01 X28.8931 Y6.0518
G01 X28.7503 Y6.0876
G01 X28.7409 Y6.0904
G01 X28.6023 Y6.1400
G01 X28.5932 Y6.1438
G01 X28.4601 Y6.2067
G01 X28.4515 Y6.2113
G01 X28.3580 Y6.2674
G01 X28.1316 Y6.0410
G00 X28.1316 Y6.0410
G01 F60.00
G01 Z-0.0950
G01 F250.00
G01 X28.1358 Y6.0378
G01 X28.3589 Y5.9074
G01 X28.5992 Y5.8078
G01 X28.8508 Y5.7416
G01 X29.1108 Y5.7102
G01 X29.3709 Y5.7144
G01 X29.6280 Y5.7538
G01 X29.8774 Y5.8278
G01 X30.1129 Y5.9342
G01 X30.2865 Y6.0429
G01 X30.0620 Y6.2674
G01 X29.9685 Y6.2113
G01 X29.9599 Y6.2067
G01 X29.8268 Y6.1438
G01 X29.8177 Y6.1400
G01 X29.6791 Y6.0904
G01 X29.6697 Y6.0876
G01 X29.5269 Y6.0518
G01 X29.5173 Y6.0499
G01 X29.3717 Y6.0283
G01 X29.3619 Y6.0273
G01 X29.2149 Y6.0201
G01 X29.2051 Y6.0201
G01 X29.0581 Y6.0273
G01 X29.0483 Y6.0283
G01 X28.9027 Y6.0499
G01 X28.8931 Y6.0518
G01 X28.7503 Y6.0876
G01 X28.7409 Y6.0904
G01 X28.6023 Y6.1400
G01 X28.5932 Y6.1438
G01 X28.4601 Y6.2067
G01 X28.4515 Y6.2113
G01 X28.3580 Y6.2674
G01 X28.1316 Y6.0410
G00 Z2.0000
G00 X28.2935 Y6.0615
G01 F60.00
G01 Z-0.0475
G01 F250.00
G01 X28.4042 Y5.9968
G01 X28.6320 Y5.9024
G01 X28.8704 Y5.8399
G01 X29.1152 Y5.8103
G01 X29.3616 Y5.8141
G01 X29.6053 Y5.8514
G01 X29.8417 Y5.9214
G01 X30.0664 Y6.0229
G01 X30.1270 Y6.0609
G01 X30.0465 Y6.1415
G01 X30.0199 Y6.1256
G01 X30.0026 Y6.1163
G01 X29.8695 Y6.0534
G01 X29.8514 Y6.0459
G01 X29.7128 Y5.9963
G01 X29.6940 Y5.9906
G01 X29.5512 Y5.9548
G01 X29.5320 Y5.9510
G01 X29.3864 Y5.9294
G01 X29.3668 Y5.9275
G01 X29.2198 Y5.9202
G01 X29.2002 Y5.9202
G01 X29.0532 Y5.9275
G01 X29.0336 Y5.9294
G01 X28.8880 Y5.9510
G01 X28.8688 Y5.9548
G01 X28.7260 Y5.9906
G01 X28.7072 Y5.9963
G01 X28.5686 Y6.0459
G01 X28.5505 Y6.0534
G01 X28.4174 Y6.1163
G01 X28.4001 Y6.1256
G01 X28.3735 Y6.1415
G01 X28.2935 Y6.0615
G00 X28.2935 Y6.0615
G01 F60.00
G01 Z-0.0950
G01 F250.00
G01 X28.4042 Y5.9968
G01 X28.6320 Y5.9024
G01 X28.8704 Y5.8399
G01 X29.1152 Y5.8103
G01 X29.3616 Y5.8141
G01 X29.6053 Y5.8514
G01 X29.8417 Y5.9214
G01 X30.0664 Y6.0229
G01 X30.1270 Y6.0609
G01 X30.0465 Y6.1415
G01 X30.0199 Y6.1256
G01 X30.0026 Y6.1163
G01 X29.8695 Y6.0534
G01 X29.8514 Y6.0459
G01 X29.7128 Y5.9963
G01 X29.6940 Y5.9906
G01 X29.5512 Y5.9548
G01 X29.5320 Y5.9510
G01 X29.3864 Y5.9294
G01 X29.3668 Y5.9275
G01 X29.2198 Y5.9202
G01 X29.2002 Y5.9202
G01 X29.0532 Y5.9275
G01 X29.0336 Y5.9294
G01 X28.8880 Y5.9510
G01 X28.8688 Y5.9548
G01 X28.7260 Y5.9906
G01 X28.7072 Y5.9963
G01 X28.5686 Y6.0459
G01 X28.5505 Y6.0534
G01 X28.4174 Y6.1163
G01 X28.4001 Y6.1256
G01 X28.3735 Y6.1415
G01 X28.2935 Y6.0615
G00 Z2.0000
G00 X30.5626 Y6.7680
G01 F60.00
G01 Z-0.0475
G01 F250.00
G01 X30.7861 Y6.5445
G01 X30.8565 Y6.6473
G01 X30.9733 Y6.8797
G01 X31.0575 Y7.1259
G01 X31.1074 Y7.3812
G01 X31.1223 Y7.6409
G01 X31.1020 Y7.8985
G01 X31.0467 Y8.1527
G01 X30.9567 Y8.3986
G01 X30.8358 Y8.6270
G01 X30.7865 Y8.6958
G01 X30.5626 Y8.4720
G01 X30.6187 Y8.3785
G01 X30.6233 Y8.3699
G01 X30.6862 Y8.2368
G01 X30.6900 Y8.2277
G01 X30.7396 Y8.0891
G01 X30.7424 Y8.0797
G01 X30.7782 Y7.9369
G01 X30.7801 Y7.9273
G01 X30.8017 Y7.7817
G01 X30.8027 Y7.7719
G01 X30.8099 Y7.6249
G01 X30.8099 Y7.6151
G01 X30.8027 Y7.4681
G01 X30.8017 Y7.4583
G01 X30.7801 Y7.3127
G01 X30.7782 Y7.3031
G01 X30.7424 Y7.1603
G01 X30.7396 Y7.1509
G01 X30.6900 Y7.0123
G01 X30.6862 Y7.0032
G01 X30.6233 Y6.8701
G01 X30.6187 Y6.8615
G01 X30.5626 Y6.7680
G00 X30.5626 Y6.7680
G01 F60.00
G01 Z-0.0950
G01 F250.00
G01 X30.7861 Y6.5445
G01 X30.8565 Y6.6473
G01 X30.9733 Y6.8797
G01 X31.0575 Y7.1259
G01 X31.1074 Y7.3812
G01 X31.1223 Y7.6409
G01 X31.1020 Y7.8985
G01 X31.0467 Y8.1527
G01 X30.9567 Y8.3986
G01 X30.8358 Y8.6270
G01 X30.7865 Y8.6958
G01 X30.5626 Y8.4720
G01 X30.6187 Y8.3785
G01 X30.6233 Y8.3699
G01 X30.6862 Y8.2368
G01 X30.6900 Y8.2277
G01 X30.7396 Y8.0891
G01 X30.7424 Y8.0797
G01 X30.7782 Y7.9369
G01 X30.7801 Y7.9273
G01 X30.8017 Y7.7817
G01 X30.8027 Y7.7719
G01 X30.8099 Y7.6249
G01 X30.8099 Y7.6151
