(G-CODE GENERATED BY FLATCAM v8.991 - www.flatcam.org - Version Date: 2019/12/27)

(Name: Esp32x4-NPTH.drl_cnc)
(Type: G-code from Excellon)
(Units: MM)

(Created on Tuesday, 21 June 2022 at 00:38)

(Feedrate: 250.0 mm/min)
(Feedrate rapids 1500.0 mm/min)

(Z_Cut: -1.8 mm)
(Z_Move: 2.0 mm)
(Z Toolchange: 15.0 mm)
(X,Y Toolchange: 0.0000, 0.0000 mm)
(Z Start: None mm)
(Z End: 15.0 mm)
(Steps per circle: 64)
(Preprocessor Excellon: default)

(X range:    6.0200 ...  103.2000  mm)
(Y range:   16.1800 ...   19.3800  mm)

(Spindle Speed: None RPM)
G21
G90
G94

M03 S200
G4 P1
M03 S400
G4 P1
M03 S600
G4 P1
M03 S800
G4 P1
M03 S1000


G01 F250.00
G00 Z2.0000

M03
G00 X101.6000 Y17.7800
G01 Z-1.8000
G01 Z0
G00 Z2.0000
G00 X7.6200 Y17.7800
G01 Z-1.8000
G01 Z0
G00 Z2.0000
M05
G00 Z15.00
G00 X0.0 Y0.0

