(G-CODE GENERATED BY FLATCAM v8.991 - www.flatcam.org - Version Date: 2019/12/27)

(Name: Esp32x4-PTH.drl_cnc)
(Type: G-code from Excellon)
(Units: MM)

(Created on Tuesday, 21 June 2022 at 00:38)

(Feedrate: 250.0 mm/min)
(Feedrate rapids 1500.0 mm/min)

(Z_Cut: -1.8 mm)
(Z_Move: 2.0 mm)
(Z Toolchange: 15.0 mm)
(X,Y Toolchange: 0.0000, 0.0000 mm)
(Z Start: None mm)
(Z End: 15.0 mm)
(Steps per circle: 64)
(Preprocessor Excellon: default)

(X range:    4.8200 ...  105.2200  mm)
(Y range:    4.3200 ...   53.8600  mm)

(Spindle Speed: None RPM)
G21
G90
G94

M03 S200
G4 P1
M03 S400
G4 P1
M03 S600
G4 P1
M03 S800
G4 P1
M03 S1000


G01 F250.00
G00 Z2.0000

M03
G00 X71.1200 Y44.4500
G01 Z-1.8000
G01 Z0
G00 Z2.0000
G00 X63.5000 Y44.4500
G01 Z-1.8000
G01 Z0
G00 Z2.0000
G00 X63.5000 Y36.8300
G01 Z-1.8000
G01 Z0
G00 Z2.0000
G00 X71.1200 Y36.8300
G01 Z-1.8000
G01 Z0
G00 Z2.0000
M03
G00 X76.2000 Y33.0200
G01 Z-1.8000
G01 Z0
G00 Z2.0000
G00 X53.3400 Y33.0200
G01 Z-1.8000
G01 Z0
G00 Z2.0000
G00 X43.1800 Y35.5600
G01 Z-1.8000
G01 Z0
G00 Z2.0000
G00 X33.0200 Y38.1000
G01 Z-1.8000
G01 Z0
G00 Z2.0000
G00 X33.0200 Y35.5600
G01 Z-1.8000
G01 Z0
G00 Z2.0000
G00 X27.9400 Y38.1000
G01 Z-1.8000
G01 Z0
G00 Z2.0000
G00 X25.4000 Y35.5600
G01 Z-1.8000
G01 Z0
G00 Z2.0000
G00 X12.7000 Y35.5600
G01 Z-1.8000
G01 Z0
G00 Z2.0000
G00 X15.2400 Y38.1000
G01 Z-1.8000
G01 Z0
G00 Z2.0000
G00 X17.7800 Y43.1800
G01 Z-1.8000
G01 Z0
G00 Z2.0000
G00 X20.3200 Y40.6400
G01 Z-1.8000
G01 Z0
G00 Z2.0000
G00 X22.8600 Y43.1800
G01 Z-1.8000
G01 Z0
G00 Z2.0000
G00 X35.5600 Y43.1800
G01 Z-1.8000
G01 Z0
G00 Z2.0000
G00 X38.1000 Y40.6400
G01 Z-1.8000
G01 Z0
G00 Z2.0000
G00 X40.6400 Y43.1800
G01 Z-1.8000
G01 Z0
G00 Z2.0000
G00 X45.7200 Y40.6400
G01 Z-1.8000
G01 Z0
G00 Z2.0000
G00 X48.2600 Y43.1800
G01 Z-1.8000
G01 Z0
G00 Z2.0000
M03
G00 X81.2400 Y48.2600
G01 Z-1.8000
G01 Z0
G00 Z2.0000
G00 X78.7400 Y48.2600
G01 Z-1.8000
G01 Z0
G00 Z2.0000
M03
G00 X94.0250 Y22.6200
G01 Z-1.8000
G01 Z0
G00 Z2.0000
G00 X94.0250 Y4.8400
G01 Z-1.8000
G01 Z0
G00 Z2.0000
G00 X53.3850 Y4.8400
G01 Z-1.8000
G01 Z0
G00 Z2.0000
G00 X43.1800 Y25.4000
G01 Z-1.8000
G01 Z0
G00 Z2.0000
G00 X40.6400 Y25.4000
G01 Z-1.8000
G01 Z0
G00 Z2.0000
G00 X38.1000 Y25.4000
G01 Z-1.8000
G01 Z0
G00 Z2.0000
G00 X35.5600 Y25.4000
G01 Z-1.8000
G01 Z0
G00 Z2.0000
G00 X33.0200 Y25.4000
G01 Z-1.8000
G01 Z0
G00 Z2.0000
G00 X20.3200 Y25.4000
G01 Z-1.8000
G01 Z0
G00 Z2.0000
G00 X20.3200 Y27.9400
G01 Z-1.8000
G01 Z0
G00 Z2.0000
G00 X17.7800 Y27.9400
G01 Z-1.8000
G01 Z0
G00 Z2.0000
G00 X17.7800 Y25.4000
G01 Z-1.8000
G01 Z0
G00 Z2.0000
G00 X15.2400 Y25.4000
G01 Z-1.8000
G01 Z0
G00 Z2.0000
G00 X12.7000 Y25.4000
G01 Z-1.8000
G01 Z0
G00 Z2.0000
G00 X10.1600 Y25.4000
G01 Z-1.8000
G01 Z0
G00 Z2.0000
G00 X10.1600 Y27.9400
G01 Z-1.8000
G01 Z0
G00 Z2.0000
G00 X12.7000 Y27.9400
G01 Z-1.8000
G01 Z0
G00 Z2.0000
G00 X15.2400 Y27.9400
G01 Z-1.8000
G01 Z0
G00 Z2.0000
G00 X15.2400 Y49.5300
G01 Z-1.8000
G01 Z0
G00 Z2.0000
G00 X12.7000 Y49.5300
G01 Z-1.8000
G01 Z0
G00 Z2.0000
G00 X10.1600 Y49.5300
G01 Z-1.8000
G01 Z0
G00 Z2.0000
G00 X10.1600 Y52.0700
G01 Z-1.8000
G01 Z0
G00 Z2.0000
G00 X12.7000 Y52.0700
G01 Z-1.8000
G01 Z0
G00 Z2.0000
G00 X15.2400 Y52.0700
G01 Z-1.8000
G01 Z0
G00 Z2.0000
G00 X17.7800 Y52.0700
G01 Z-1.8000
G01 Z0
G00 Z2.0000
G00 X17.7800 Y49.5300
G01 Z-1.8000
G01 Z0
G00 Z2.0000
G00 X20.3200 Y49.5300
G01 Z-1.8000
G01 Z0
G00 Z2.0000
G00 X20.3200 Y52.0700
G01 Z-1.8000
G01 Z0
G00 Z2.0000
G00 X33.0200 Y49.5300
G01 Z-1.8000
G01 Z0
G00 Z2.0000
G00 X33.0200 Y52.0700
G01 Z-1.8000
G01 Z0
G00 Z2.0000
G00 X35.5600 Y52.0700
G01 Z-1.8000
G01 Z0
G00 Z2.0000
G00 X38.1000 Y52.0700
G01 Z-1.8000
G01 Z0
G00 Z2.0000
G00 X40.6400 Y52.0700
G01 Z-1.8000
G01 Z0
G00 Z2.0000
G00 X43.1800 Y52.0700
G01 Z-1.8000
G01 Z0
G00 Z2.0000
G00 X43.1800 Y49.5300
G01 Z-1.8000
G01 Z0
G00 Z2.0000
G00 X40.6400 Y49.5300
G01 Z-1.8000
G01 Z0
G00 Z2.0000
G00 X38.1000 Y49.5300
G01 Z-1.8000
G01 Z0
G00 Z2.0000
G00 X35.5600 Y49.5300
G01 Z-1.8000
G01 Z0
G00 Z2.0000
G00 X33.0200 Y27.9400
G01 Z-1.8000
G01 Z0
G00 Z2.0000
G00 X35.5600 Y27.9400
G01 Z-1.8000
G01 Z0
G00 Z2.0000
G00 X38.1000 Y27.9400
G01 Z-1.8000
G01 Z0
G00 Z2.0000
G00 X40.6400 Y27.9400
G01 Z-1.8000
G01 Z0
G00 Z2.0000
G00 X43.1800 Y27.9400
G01 Z-1.8000
G01 Z0
G00 Z2.0000
G00 X53.3850 Y22.6200
G01 Z-1.8000
G01 Z0
G00 Z2.0000
M03
G00 X104.7000 Y53.3400
G01 Z-1.8000
G01 Z0
G00 Z2.0000
G00 X102.1600 Y53.3400
G01 Z-1.8000
G01 Z0
G00 Z2.0000
G00 X99.6200 Y53.3400
G01 Z-1.8000
G01 Z0
G00 Z2.0000
G00 X97.0800 Y53.3400
G01 Z-1.8000
G01 Z0
G00 Z2.0000
G00 X94.5400 Y53.3400
G01 Z-1.8000
G01 Z0
G00 Z2.0000
G00 X92.0000 Y53.3400
G01 Z-1.8000
G01 Z0
G00 Z2.0000
G00 X89.4600 Y53.3400
G01 Z-1.8000
G01 Z0
G00 Z2.0000
G00 X86.9200 Y53.3400
G01 Z-1.8000
G01 Z0
G00 Z2.0000
G00 X84.3800 Y53.3400
G01 Z-1.8000
G01 Z0
G00 Z2.0000
G00 X81.8400 Y53.3400
G01 Z-1.8000
G01 Z0
G00 Z2.0000
G00 X79.3000 Y53.3400
G01 Z-1.8000
G01 Z0
G00 Z2.0000
G00 X76.7600 Y53.3400
G01 Z-1.8000
G01 Z0
G00 Z2.0000
G00 X74.2200 Y53.3400
G01 Z-1.8000
G01 Z0
G00 Z2.0000
G00 X71.6800 Y53.3400
G01 Z-1.8000
G01 Z0
G00 Z2.0000
G00 X69.1400 Y53.3400
G01 Z-1.8000
G01 Z0
G00 Z2.0000
G00 X66.6000 Y53.3400
G01 Z-1.8000
G01 Z0
G00 Z2.0000
G00 X64.0600 Y53.3400
G01 Z-1.8000
G01 Z0
G00 Z2.0000
G00 X61.5200 Y53.3400
G01 Z-1.8000
G01 Z0
G00 Z2.0000
G00 X58.9800 Y53.3400
G01 Z-1.8000
G01 Z0
G00 Z2.0000
G00 X58.9800 Y27.9400
G01 Z-1.8000
G01 Z0
G00 Z2.0000
G00 X61.5200 Y27.9400
G01 Z-1.8000
G01 Z0
G00 Z2.0000
G00 X64.0600 Y27.9400
G01 Z-1.8000
G01 Z0
G00 Z2.0000
G00 X66.6000 Y27.9400
G01 Z-1.8000
G01 Z0
G00 Z2.0000
G00 X69.1400 Y27.9400
G01 Z-1.8000
G01 Z0
G00 Z2.0000
G00 X71.6800 Y27.9400
G01 Z-1.8000
G01 Z0
G00 Z2.0000
G00 X74.2200 Y27.9400
G01 Z-1.8000
G01 Z0
G00 Z2.0000
G00 X76.7600 Y27.9400
G01 Z-1.8000
G01 Z0
G00 Z2.0000
G00 X79.3000 Y27.9400
G01 Z-1.8000
G01 Z0
G00 Z2.0000
G00 X81.8400 Y27.9400
G01 Z-1.8000
G01 Z0
G00 Z2.0000
G00 X84.3800 Y27.9400
G01 Z-1.8000
G01 Z0
G00 Z2.0000
G00 X86.9200 Y27.9400
G01 Z-1.8000
G01 Z0
G00 Z2.0000
G00 X89.4600 Y27.9400
G01 Z-1.8000
G01 Z0
G00 Z2.0000
G00 X92.0000 Y27.9400
G01 Z-1.8000
G01 Z0
G00 Z2.0000
G00 X94.5400 Y27.9400
G01 Z-1.8000
G01 Z0
G00 Z2.0000
G00 X97.0800 Y27.9400
G01 Z-1.8000
G01 Z0
G00 Z2.0000
G00 X99.6200 Y27.9400
G01 Z-1.8000
G01 Z0
G00 Z2.0000
G00 X102.1600 Y27.9400
G01 Z-1.8000
G01 Z0
G00 Z2.0000
G00 X104.7000 Y27.9400
G01 Z-1.8000
G01 Z0
G00 Z2.0000
M03
G00 X9.8700 Y42.0600
G01 Z-1.8000
G01 Z0
G00 Z2.0000
G00 X5.3700 Y42.0600
G01 Z-1.8000
G01 Z0
G00 Z2.0000
G00 X5.3700 Y35.5600
G01 Z-1.8000
G01 Z0
G00 Z2.0000
G00 X9.8700 Y35.5600
G01 Z-1.8000
G01 Z0
G00 Z2.0000
M03
G00 X101.6000 Y10.1600
G01 Z-1.8000
G01 Z0
G00 Z2.0000
G00 X101.6000 Y5.0800
G01 Z-1.8000
G01 Z0
G00 Z2.0000
G00 X45.7200 Y7.6200
G01 Z-1.8000
G01 Z0
G00 Z2.0000
G00 X40.6400 Y7.6200
G01 Z-1.8000
G01 Z0
G00 Z2.0000
G00 X34.2900 Y7.6200
G01 Z-1.8000
G01 Z0
G00 Z2.0000
G00 X6.3500 Y7.6200
G01 Z-1.8000
G01 Z0
G00 Z2.0000
G00 X11.4300 Y7.6200
G01 Z-1.8000
G01 Z0
G00 Z2.0000
G00 X17.7800 Y7.6200
G01 Z-1.8000
G01 Z0
G00 Z2.0000
G00 X22.8600 Y7.6200
G01 Z-1.8000
G01 Z0
G00 Z2.0000
G00 X29.2100 Y7.6200
G01 Z-1.8000
G01 Z0
G00 Z2.0000
M05
G00 Z15.00
G00 X0.0 Y0.0

