(G-CODE GENERATED BY FLATCAM v8.991 - www.flatcam.org - Version Date: 2019/12/27)

(Name: Esp32x4-Edge_Cuts.gbr_cutout_cnc)
(Type: G-code from Geometry)
(Units: MM)

(Created on Tuesday, 21 June 2022 at 00:24)

(TOOL DIAMETER: 1.0 mm)
(Feedrate: 250.0 mm/min)
(Feedrate_Z: 60.0 mm/min)
(Feedrate rapids 1500.0 mm/min)

(Z_Cut: -1.8 mm)
(DepthPerCut: 0.45 mm <=>4 passes)
(Z_Move: 2.0 mm)
(Z Toolchange: 15.0 mm)
(X,Y Toolchange: 0.0000, 0.0000 mm)
(Z Start: None mm)
(Z End: 15.0 mm)
(Steps per circle: 64)
(Preprocessor Geometry: default)

(X range:    1.8900 ...  107.3300  mm)
(Y range:    1.8900 ...   56.5300  mm)

(Spindle Speed: None RPM)
G21
G90
G94

M03 S200
G4 P1
M03 S400
G4 P1
M03 S600
G4 P1
M03 S800
G4 P1
M03 S1000


G01 F250.00
G00 Z2.0000

M03
G00 X1.8900 Y13.6000
G01 F60.00
G01 Z-0.4500
G01 F250.00
G01 X1.8900 Y2.5400
G01 X1.8907 Y2.5106
G01 X1.8974 Y2.4422
G01 X1.9101 Y2.3797
G01 X1.9289 Y2.3187
G01 X1.9535 Y2.2599
G01 X1.9812 Y2.2080
G01 X2.0165 Y2.1548
G01 X2.0568 Y2.1053
G01 X2.1053 Y2.0568
G01 X2.1548 Y2.0165
G01 X2.2080 Y1.9812
G01 X2.2643 Y1.9514
G01 X2.3233 Y1.9272
G01 X2.3845 Y1.9089
G01 X2.4471 Y1.8967
G01 X2.5057 Y1.8909
G01 X2.5400 Y1.8900
G01 X106.6800 Y1.8900
G01 X106.7143 Y1.8909
G01 X106.7778 Y1.8974
G01 X106.8403 Y1.9101
G01 X106.9013 Y1.9289
G01 X106.9601 Y1.9535
G01 X107.0163 Y1.9838
G01 X107.0692 Y2.0194
G01 X107.1183 Y2.0601
G01 X107.1632 Y2.1053
G01 X107.2035 Y2.1548
G01 X107.2388 Y2.2080
G01 X107.2686 Y2.2643
G01 X107.2928 Y2.3233
G01 X107.3111 Y2.3845
G01 X107.3233 Y2.4471
G01 X107.3291 Y2.5057
G01 X107.3300 Y2.5400
G01 X107.3300 Y13.6000
G00 X107.3300 Y13.6000
G01 F60.00
G01 Z-0.9000
G01 F250.00
G01 X107.3300 Y2.5400
G01 X107.3291 Y2.5057
G01 X107.3233 Y2.4471
G01 X107.3111 Y2.3845
G01 X107.2928 Y2.3233
G01 X107.2686 Y2.2643
G01 X107.2388 Y2.2080
G01 X107.2035 Y2.1548
G01 X107.1632 Y2.1053
G01 X107.1183 Y2.0601
G01 X107.0692 Y2.0194
G01 X107.0163 Y1.9838
G01 X106.9601 Y1.9535
G01 X106.9013 Y1.9289
G01 X106.8403 Y1.9101
G01 X106.7778 Y1.8974
G01 X106.7143 Y1.8909
G01 X106.6800 Y1.8900
G01 X2.5400 Y1.8900
G01 X2.5057 Y1.8909
G01 X2.4471 Y1.8967
G01 X2.3845 Y1.9089
G01 X2.3233 Y1.9272
G01 X2.2643 Y1.9514
G01 X2.2080 Y1.9812
G01 X2.1548 Y2.0165
G01 X2.1053 Y2.0568
G01 X2.0568 Y2.1053
G01 X2.0165 Y2.1548
G01 X1.9812 Y2.2080
G01 X1.9535 Y2.2599
G01 X1.9289 Y2.3187
G01 X1.9101 Y2.3797
G01 X1.8974 Y2.4422
G01 X1.8907 Y2.5106
G01 X1.8900 Y2.5400
G01 X1.8900 Y13.6000
G00 X1.8900 Y13.6000
G01 F60.00
G01 Z-1.3500
G01 F250.00
G01 X1.8900 Y2.5400
G01 X1.8907 Y2.5106
G01 X1.8974 Y2.4422
G01 X1.9101 Y2.3797
G01 X1.9289 Y2.3187
G01 X1.9535 Y2.2599
G01 X1.9812 Y2.2080
G01 X2.0165 Y2.1548
G01 X2.0568 Y2.1053
G01 X2.1053 Y2.0568
G01 X2.1548 Y2.0165
G01 X2.2080 Y1.9812
G01 X2.2643 Y1.9514
G01 X2.3233 Y1.9272
G01 X2.3845 Y1.9089
G01 X2.4471 Y1.8967
G01 X2.5057 Y1.8909
G01 X2.5400 Y1.8900
G01 X106.6800 Y1.8900
G01 X106.7143 Y1.8909
G01 X106.7778 Y1.8974
G01 X106.8403 Y1.9101
G01 X106.9013 Y1.9289
G01 X106.9601 Y1.9535
G01 X107.0163 Y1.9838
G01 X107.0692 Y2.0194
G01 X107.1183 Y2.0601
G01 X107.1632 Y2.1053
G01 X107.2035 Y2.1548
G01 X107.2388 Y2.2080
G01 X107.2686 Y2.2643
G01 X107.2928 Y2.3233
G01 X107.3111 Y2.3845
G01 X107.3233 Y2.4471
G01 X107.3291 Y2.5057
G01 X107.3300 Y2.5400
G01 X107.3300 Y13.6000
G00 X107.3300 Y13.6000
G01 F60.00
G01 Z-1.8000
G01 F250.00
G01 X107.3300 Y2.5400
G01 X107.3291 Y2.5057
G01 X107.3233 Y2.4471
G01 X107.3111 Y2.3845
G01 X107.2928 Y2.3233
G01 X107.2686 Y2.2643
G01 X107.2388 Y2.2080
G01 X107.2035 Y2.1548
G01 X107.1632 Y2.1053
G01 X107.1183 Y2.0601
G01 X107.0692 Y2.0194
G01 X107.0163 Y1.9838
G01 X106.9601 Y1.9535
G01 X106.9013 Y1.9289
G01 X106.8403 Y1.9101
G01 X106.7778 Y1.8974
G01 X106.7143 Y1.8909
G01 X106.6800 Y1.8900
G01 X2.5400 Y1.8900
G01 X2.5057 Y1.8909
G01 X2.4471 Y1.8967
G01 X2.3845 Y1.9089
G01 X2.3233 Y1.9272
G01 X2.2643 Y1.9514
G01 X2.2080 Y1.9812
G01 X2.1548 Y2.0165
G01 X2.1053 Y2.0568
G01 X2.0568 Y2.1053
G01 X2.0165 Y2.1548
G01 X1.9812 Y2.2080
G01 X1.9535 Y2.2599
G01 X1.9289 Y2.3187
G01 X1.9101 Y2.3797
G01 X1.8974 Y2.4422
G01 X1.8907 Y2.5106
G01 X1.8900 Y2.5400
G01 X1.8900 Y13.6000
G00 Z2.0000
G00 X1.8900 Y17.6000
G01 F60.00
G01 Z-0.4500
G01 F250.00
G01 X1.8900 Y41.0200
G00 X1.8900 Y41.0200
G01 F60.00
G01 Z-0.9000
G01 F250.00
G01 X1.8900 Y17.6000
G00 X1.8900 Y17.6000
G01 F60.00
G01 Z-1.3500
G01 F250.00
G01 X1.8900 Y41.0200
G00 X1.8900 Y41.0200
G01 F60.00
G01 Z-1.8000
G01 F250.00
G01 X1.8900 Y17.6000
G00 Z2.0000
G00 X1.8900 Y45.0200
G01 F60.00
G01 Z-0.4500
G01 F250.00
G01 X1.8900 Y55.8800
G01 X1.8907 Y55.9094
G01 X1.8974 Y55.9778
G01 X1.9101 Y56.0403
G01 X1.9289 Y56.1013
G01 X1.9535 Y56.1601
G01 X1.9812 Y56.2120
G01 X2.0165 Y56.2652
G01 X2.0568 Y56.3147
G01 X2.1053 Y56.3632
G01 X2.1548 Y56.4035
G01 X2.2080 Y56.4388
G01 X2.2643 Y56.4686
G01 X2.3233 Y56.4928
G01 X2.3845 Y56.5111
G01 X2.4471 Y56.5233
G01 X2.5057 Y56.5291
G01 X2.5400 Y56.5300
G01 X106.6800 Y56.5300
G01 X106.7143 Y56.5291
G01 X106.7778 Y56.5226
G01 X106.8403 Y56.5099
G01 X106.9013 Y56.4911
G01 X106.9601 Y56.4665
G01 X107.0163 Y56.4362
G01 X107.0692 Y56.4006
G01 X107.1183 Y56.3599
G01 X107.1632 Y56.3147
G01 X107.2035 Y56.2652
G01 X107.2388 Y56.2120
G01 X107.2686 Y56.1557
G01 X107.2928 Y56.0967
G01 X107.3111 Y56.0355
G01 X107.3233 Y55.9729
G01 X107.3291 Y55.9143
G01 X107.3300 Y55.8800
G00 X107.3300 Y55.8800
G01 F60.00
G01 Z-0.9000
G01 F250.00
G01 X107.3291 Y55.9143
G01 X107.3233 Y55.9729
G01 X107.3111 Y56.0355
G01 X107.2928 Y56.0967
G01 X107.2686 Y56.1557
G01 X107.2388 Y56.2120
G01 X107.2035 Y56.2652
G01 X107.1632 Y56.3147
G01 X107.1183 Y56.3599
G01 X107.0692 Y56.4006
G01 X107.0163 Y56.4362
G01 X106.9601 Y56.4665
G01 X106.9013 Y56.4911
G01 X106.8403 Y56.5099
G01 X106.7778 Y56.5226
G01 X106.7143 Y56.5291
G01 X106.6800 Y56.5300
G01 X2.5400 Y56.5300
G01 X2.5057 Y56.5291
G01 X2.4471 Y56.5233
G01 X2.3845 Y56.5111
G01 X2.3233 Y56.4928
G01 X2.2643 Y56.4686
G01 X2.2080 Y56.4388
G01 X2.1548 Y56.4035
G01 X2.1053 Y56.3632
G01 X2.0568 Y56.3147
G01 X2.0165 Y56.2652
G01 X1.9812 Y56.2120
G01 X1.9535 Y56.1601
G01 X1.9289 Y56.1013
G01 X1.9101 Y56.0403
G01 X1.8974 Y55.9778
G01 X1.8907 Y55.9094
G01 X1.8900 Y55.8800
G01 X1.8900 Y45.0200
G00 X1.8900 Y45.0200
G01 F60.00
G01 Z-1.3500
G01 F250.00
G01 X1.8900 Y55.8800
G01 X1.8907 Y55.9094
G01 X1.8974 Y55.9778
G01 X1.9101 Y56.0403
G01 X1.9289 Y56.1013
G01 X1.9535 Y56.1601
G01 X1.9812 Y56.2120
G01 X2.0165 Y56.2652
G01 X2.0568 Y56.3147
G01 X2.1053 Y56.3632
G01 X2.1548 Y56.4035
G01 X2.2080 Y56.4388
G01 X2.2643 Y56.4686
G01 X2.3233 Y56.4928
G01 X2.3845 Y56.5111
G01 X2.4471 Y56.5233
G01 X2.5057 Y56.5291
G01 X2.5400 Y56.5300
G01 X106.6800 Y56.5300
G01 X106.7143 Y56.5291
G01 X106.7778 Y56.5226
G01 X106.8403 Y56.5099
G01 X106.9013 Y56.4911
G01 X106.9601 Y56.4665
G01 X107.0163 Y56.4362
G01 X107.0692 Y56.4006
G01 X107.1183 Y56.3599
G01 X107.1632 Y56.3147
G01 X107.2035 Y56.2652
G01 X107.2388 Y56.2120
G01 X107.2686 Y56.1557
G01 X107.2928 Y56.0967
G01 X107.3111 Y56.0355
G01 X107.3233 Y55.9729
G01 X107.3291 Y55.9143
G01 X107.3300 Y55.8800
G00 X107.3300 Y55.8800
G01 F60.00
G01 Z-1.8000
G01 F250.00
G01 X107.3291 Y55.9143
G01 X107.3233 Y55.9729
G01 X107.3111 Y56.0355
G01 X107.2928 Y56.0967
G01 X107.2686 Y56.1557
G01 X107.2388 Y56.2120
G01 X107.2035 Y56.2652
G01 X107.1632 Y56.3147
G01 X107.1183 Y56.3599
G01 X107.0692 Y56.4006
G01 X107.0163 Y56.4362
G01 X106.9601 Y56.4665
G01 X106.9013 Y56.4911
G01 X106.8403 Y56.5099
G01 X106.7778 Y56.5226
G01 X106.7143 Y56.5291
G01 X106.6800 Y56.5300
G01 X2.5400 Y56.5300
G01 X2.5057 Y56.5291
G01 X2.4471 Y56.5233
G01 X2.3845 Y56.5111
G01 X2.3233 Y56.4928
G01 X2.2643 Y56.4686
G01 X2.2080 Y56.4388
G01 X2.1548 Y56.4035
G01 X2.1053 Y56.3632
G01 X2.0568 Y56.3147
G01 X2.0165 Y56.2652
G01 X1.9812 Y56.2120
G01 X1.9535 Y56.1601
G01 X1.9289 Y56.1013
G01 X1.9101 Y56.0403
G01 X1.8974 Y55.9778
G01 X1.8907 Y55.9094
G01 X1.8900 Y55.8800
G01 X1.8900 Y45.0200
G00 Z2.0000
G00 X107.3300 Y45.0200
G01 F60.00
G01 Z-0.4500
G01 F250.00
G01 X107.3300 Y55.8800
G00 X107.3300 Y55.8800
G01 F60.00
G01 Z-0.9000
G01 F250.00
G01 X107.3300 Y45.0200
G00 X107.3300 Y45.0200
G01 F60.00
G01 Z-1.3500
G01 F250.00
G01 X107.3300 Y55.8800
G00 X107.3300 Y55.8800
G01 F60.00
G01 Z-1.8000
G01 F250.00
G01 X107.3300 Y45.0200
G00 Z2.0000
G00 X107.3300 Y41.0200
G01 F60.00
G01 Z-0.4500
G01 F250.00
G01 X107.3300 Y17.6000
G00 X107.3300 Y17.6000
G01 F60.00
G01 Z-0.9000
G01 F250.00
G01 X107.3300 Y41.0200
G00 X107.3300 Y41.0200
G01 F60.00
G01 Z-1.3500
G01 F250.00
G01 X107.3300 Y17.6000
G00 X107.3300 Y17.6000
G01 F60.00
G01 Z-1.8000
G01 F250.00
G01 X107.3300 Y41.0200
G00 Z2.0000
M05
G00 Z2.0000
G00 Z15.00
G00 X0.0 Y0.0

