(G-CODE GENERATED BY FLATCAM v8.991 - www.flatcam.org - Version Date: 2019/12/27)

(Name: Est32x4_2-B_Cu.gbr_iso_cnc)
(Type: G-code from Geometry)
(Units: MM)

(Created on Saturday, 25 June 2022 at 15:55)

(TOOL DIAMETER: 0.2 mm)
(Feedrate: 250.0 mm/min)
(Feedrate_Z: 60.0 mm/min)
(Feedrate rapids 1500.0 mm/min)

(Z_Cut: -0.095 mm)
(DepthPerCut: 0.0475 mm <=>2 passes)
(Z_Move: 2.0 mm)
(Z Toolchange: 15.0 mm)
(X,Y Toolchange: 0.0000, 0.0000 mm)
(Z Start: None mm)
(Z End: 15.0 mm)
(Steps per circle: 64)
(Preprocessor Geometry: default)

(X range:    1.4780 ...   88.6920  mm)
(Y range:    1.4780 ...   64.5620  mm)

(Spindle Speed: None RPM)
G21
G90
G94

M03 S200
G4 P1
M03 S400
G4 P1
M03 S600
G4 P1
M03 S800
G4 P1
M03 S1000


G01 F250.00
G00 Z2.0000

M03
G00 X2.9002 Y2.3996
G01 F60.00
G01 Z-0.0475
G01 F250.00
G01 X3.0339 Y2.3170
G01 X3.2631 Y2.2187
G01 X3.5024 Y2.1557
G01 X3.7482 Y2.1287
G01 X3.7652 Y2.1256
G01 X3.7709 Y2.1273
G01 X3.7803 Y2.1290
G01 X3.7897 Y2.1298
G01 X4.0014 Y2.1383
G01 X4.2464 Y2.1849
G01 X4.4818 Y2.2673
G01 X4.7009 Y2.3825
G01 X4.7217 Y2.3977
G01 X4.4945 Y2.6248
G01 X4.4601 Y2.6042
G01 X4.4514 Y2.5996
G01 X4.3388 Y2.5463
G01 X4.3297 Y2.5425
G01 X4.2124 Y2.5005
G01 X4.2030 Y2.4977
G01 X4.0821 Y2.4674
G01 X4.0724 Y2.4655
G01 X3.9492 Y2.4472
G01 X3.9394 Y2.4462
G01 X3.8149 Y2.4401
G01 X3.8051 Y2.4401
G01 X3.6806 Y2.4462
G01 X3.6708 Y2.4472
G01 X3.5476 Y2.4655
G01 X3.5379 Y2.4674
G01 X3.4170 Y2.4977
G01 X3.4076 Y2.5005
G01 X3.2903 Y2.5425
G01 X3.2812 Y2.5463
G01 X3.1686 Y2.5996
G01 X3.1599 Y2.6042
G01 X3.1255 Y2.6248
G01 X2.9002 Y2.3996
G00 X2.9002 Y2.3996
G01 F60.00
G01 Z-0.0950
G01 F250.00
G01 X3.0339 Y2.3170
G01 X3.2631 Y2.2187
G01 X3.5024 Y2.1557
G01 X3.7482 Y2.1287
G01 X3.7652 Y2.1256
G01 X3.7709 Y2.1273
G01 X3.7803 Y2.1290
G01 X3.7897 Y2.1298
G01 X4.0014 Y2.1383
G01 X4.2464 Y2.1849
G01 X4.4818 Y2.2673
G01 X4.7009 Y2.3825
G01 X4.7217 Y2.3977
G01 X4.4945 Y2.6248
G01 X4.4601 Y2.6042
G01 X4.4514 Y2.5996
G01 X4.3388 Y2.5463
G01 X4.3297 Y2.5425
G01 X4.2124 Y2.5005
G01 X4.2030 Y2.4977
G01 X4.0821 Y2.4674
G01 X4.0724 Y2.4655
G01 X3.9492 Y2.4472
G01 X3.9394 Y2.4462
G01 X3.8149 Y2.4401
G01 X3.8051 Y2.4401
G01 X3.6806 Y2.4462
G01 X3.6708 Y2.4472
G01 X3.5476 Y2.4655
G01 X3.5379 Y2.4674
G01 X3.4170 Y2.4977
G01 X3.4076 Y2.5005
G01 X3.2903 Y2.5425
G01 X3.2812 Y2.5463
G01 X3.1686 Y2.5996
G01 X3.1599 Y2.6042
G01 X3.1255 Y2.6248
G01 X2.9002 Y2.3996
G00 Z2.0000
G00 X3.0602 Y2.4182
G01 F60.00
G01 Z-0.0475
G01 F250.00
G01 X3.0793 Y2.4064
G01 X3.2948 Y2.3138
G01 X3.5216 Y2.2541
G01 X3.7632 Y2.2274
G01 X3.7669 Y2.2281
G01 X3.7858 Y2.2297
G01 X3.9891 Y2.2377
G01 X4.2196 Y2.2815
G01 X4.4410 Y2.3588
G01 X4.5577 Y2.4202
G01 X4.4769 Y2.5010
G01 X4.3815 Y2.4559
G01 X4.3634 Y2.4484
G01 X4.2460 Y2.4064
G01 X4.2273 Y2.4007
G01 X4.1064 Y2.3704
G01 X4.0871 Y2.3666
G01 X3.9638 Y2.3483
G01 X3.9443 Y2.3464
G01 X3.8198 Y2.3402
G01 X3.8002 Y2.3402
G01 X3.6757 Y2.3464
G01 X3.6562 Y2.3483
G01 X3.5329 Y2.3666
G01 X3.5136 Y2.3704
G01 X3.3927 Y2.4007
G01 X3.3740 Y2.4064
G01 X3.2566 Y2.4484
G01 X3.2385 Y2.4559
G01 X3.1431 Y2.5010
G01 X3.0602 Y2.4182
G00 X3.0602 Y2.4182
G01 F60.00
G01 Z-0.0950
G01 F250.00
G01 X3.0793 Y2.4064
G01 X3.2948 Y2.3138
G01 X3.5216 Y2.2541
G01 X3.7632 Y2.2274
G01 X3.7669 Y2.2281
G01 X3.7858 Y2.2297
G01 X3.9891 Y2.2377
G01 X4.2196 Y2.2815
G01 X4.4410 Y2.3588
G01 X4.5577 Y2.4202
G01 X4.4769 Y2.5010
G01 X4.3815 Y2.4559
G01 X4.3634 Y2.4484
G01 X4.2460 Y2.4064
G01 X4.2273 Y2.4007
G01 X4.1064 Y2.3704
G01 X4.0871 Y2.3666
G01 X3.9638 Y2.3483
G01 X3.9443 Y2.3464
G01 X3.8198 Y2.3402
G01 X3.8002 Y2.3402
G01 X3.6757 Y2.3464
G01 X3.6562 Y2.3483
G01 X3.5329 Y2.3666
G01 X3.5136 Y2.3704
G01 X3.3927 Y2.4007
G01 X3.3740 Y2.4064
G01 X3.2566 Y2.4484
G01 X3.2385 Y2.4559
G01 X3.1431 Y2.5010
G01 X3.0602 Y2.4182
G00 Z2.0000
G00 X2.2201 Y3.7768
G01 F60.00
G01 Z-0.0475
G01 F250.00
G01 X2.2226 Y3.7692
G01 X2.2267 Y3.7506
G01 X2.2593 Y3.4945
G01 X2.3230 Y3.2688
G01 X2.4173 Y3.0594
G01 X2.5010 Y3.1431
G01 X2.4559 Y3.2385
G01 X2.4484 Y3.2566
G01 X2.4064 Y3.3740
G01 X2.4007 Y3.3927
G01 X2.3704 Y3.5136
G01 X2.3666 Y3.5329
G01 X2.3483 Y3.6562
G01 X2.3464 Y3.6757
G01 X2.3402 Y3.8002
G01 X2.3402 Y3.8198
G01 X2.3464 Y3.9443
G01 X2.3483 Y3.9638
G01 X2.3666 Y4.0871
G01 X2.3704 Y4.1064
G01 X2.4007 Y4.2273
G01 X2.4064 Y4.2460
G01 X2.4484 Y4.3634
G01 X2.4559 Y4.3815
G01 X2.5010 Y4.4769
G01 X2.4199 Y4.5581
G01 X2.3817 Y4.4913
G01 X2.2967 Y4.2727
G01 X2.2449 Y4.0439
G01 X2.2291 Y3.8307
G01 X2.2264 Y3.8097
G01 X2.2217 Y3.7836
G01 X2.2201 Y3.7768
G00 X2.2201 Y3.7768
G01 F60.00
G01 Z-0.0950
G01 F250.00
G01 X2.2226 Y3.7692
G01 X2.2267 Y3.7506
G01 X2.2593 Y3.4945
G01 X2.3230 Y3.2688
G01 X2.4173 Y3.0594
G01 X2.5010 Y3.1431
G01 X2.4559 Y3.2385
G01 X2.4484 Y3.2566
G01 X2.4064 Y3.3740
G01 X2.4007 Y3.3927
G01 X2.3704 Y3.5136
G01 X2.3666 Y3.5329
G01 X2.3483 Y3.6562
G01 X2.3464 Y3.6757
G01 X2.3402 Y3.8002
G01 X2.3402 Y3.8198
G01 X2.3464 Y3.9443
G01 X2.3483 Y3.9638
G01 X2.3666 Y4.0871
G01 X2.3704 Y4.1064
G01 X2.4007 Y4.2273
G01 X2.4064 Y4.2460
G01 X2.4484 Y4.3634
G01 X2.4559 Y4.3815
G01 X2.5010 Y4.4769
G01 X2.4199 Y4.5581
G01 X2.3817 Y4.4913
G01 X2.2967 Y4.2727
G01 X2.2449 Y4.0439
G01 X2.2291 Y3.8307
G01 X2.2264 Y3.8097
G01 X2.2217 Y3.7836
G01 X2.2201 Y3.7768
G00 Z2.0000
G00 X2.1144 Y3.7749
G01 F60.00
G01 Z-0.0475
G01 F250.00
G01 X2.1232 Y3.7519
G01 X2.1261 Y3.7428
G01 X2.1282 Y3.7335
G01 X2.1613 Y3.4736
G01 X2.2285 Y3.2354
G01 X2.3308 Y3.0079
G01 X2.3998 Y2.9004
G01 X2.6248 Y3.1255
G01 X2.6042 Y3.1599
G01 X2.5996 Y3.1686
G01 X2.5463 Y3.2812
G01 X2.5425 Y3.2903
G01 X2.5005 Y3.4076
G01 X2.4977 Y3.4170
G01 X2.4674 Y3.5379
G01 X2.4655 Y3.5476
G01 X2.4472 Y3.6708
G01 X2.4462 Y3.6806
G01 X2.4401 Y3.8051
G01 X2.4401 Y3.8149
G01 X2.4462 Y3.9394
G01 X2.4472 Y3.9492
G01 X2.4655 Y4.0724
G01 X2.4674 Y4.0821
G01 X2.4977 Y4.2030
G01 X2.5005 Y4.2124
G01 X2.5425 Y4.3297
G01 X2.5463 Y4.3388
G01 X2.5996 Y4.4514
G01 X2.6042 Y4.4601
G01 X2.6248 Y4.4945
G01 X2.3980 Y4.7213
G01 X2.2909 Y4.5335
G01 X2.2006 Y4.3011
G01 X2.1460 Y4.0596
G01 X2.1294 Y3.8381
G01 X2.1280 Y3.8276
G01 X2.1233 Y3.8015
G01 X2.1211 Y3.7919
G01 X2.1179 Y3.7827
G01 X2.1144 Y3.7749
G00 X2.1144 Y3.7749
G01 F60.00
G01 Z-0.0950
G01 F250.00
G01 X2.1232 Y3.7519
G01 X2.1261 Y3.7428
G01 X2.1282 Y3.7335
G01 X2.1613 Y3.4736
G01 X2.2285 Y3.2354
G01 X2.3308 Y3.0079
G01 X2.3998 Y2.9004
G01 X2.6248 Y3.1255
G01 X2.6042 Y3.1599
G01 X2.5996 Y3.1686
G01 X2.5463 Y3.2812
G01 X2.5425 Y3.2903
G01 X2.5005 Y3.4076
G01 X2.4977 Y3.4170
G01 X2.4674 Y3.5379
G01 X2.4655 Y3.5476
G01 X2.4472 Y3.6708
G01 X2.4462 Y3.6806
G01 X2.4401 Y3.8051
G01 X2.4401 Y3.8149
G01 X2.4462 Y3.9394
G01 X2.4472 Y3.9492
G01 X2.4655 Y4.0724
G01 X2.4674 Y4.0821
G01 X2.4977 Y4.2030
G01 X2.5005 Y4.2124
G01 X2.5425 Y4.3297
G01 X2.5463 Y4.3388
G01 X2.5996 Y4.4514
G01 X2.6042 Y4.4601
G01 X2.6248 Y4.4945
G01 X2.3980 Y4.7213
G01 X2.2909 Y4.5335
G01 X2.2006 Y4.3011
G01 X2.1460 Y4.0596
G01 X2.1294 Y3.8381
G01 X2.1280 Y3.8276
G01 X2.1233 Y3.8015
G01 X2.1211 Y3.7919
G01 X2.1179 Y3.7827
G01 X2.1144 Y3.7749
G00 Z2.0000
G00 X2.8998 Y5.2209
G01 F60.00
G01 Z-0.0475
G01 F250.00
G01 X3.1255 Y4.9952
G01 X3.1599 Y5.0158
G01 X3.1686 Y5.0204
G01 X3.2812 Y5.0737
G01 X3.2903 Y5.0775
G01 X3.4076 Y5.1195
G01 X3.4170 Y5.1223
G01 X3.5379 Y5.1526
G01 X3.5476 Y5.1545
G01 X3.6708 Y5.1728
G01 X3.6806 Y5.1738
G01 X3.8051 Y5.1799
G01 X3.8149 Y5.1799
G01 X3.9394 Y5.1738
G01 X3.9492 Y5.1728
G01 X4.0724 Y5.1545
G01 X4.0821 Y5.1526
G01 X4.2030 Y5.1223
G01 X4.2124 Y5.1195
G01 X4.3297 Y5.0775
G01 X4.3388 Y5.0737
G01 X4.4514 Y5.0204
G01 X4.4601 Y5.0158
G01 X4.4945 Y4.9952
G01 X4.7196 Y5.2202
G01 X4.6249 Y5.2821
G01 X4.3984 Y5.3864
G01 X4.1589 Y5.4561
G01 X3.9118 Y5.4896
G01 X3.6624 Y5.4862
G01 X3.4163 Y5.4459
G01 X3.1788 Y5.3698
G01 X2.9568 Y5.2603
G01 X2.8998 Y5.2209
G00 X2.8998 Y5.2209
G01 F60.00
G01 Z-0.0950
G01 F250.00
G01 X3.1255 Y4.9952
G01 X3.1599 Y5.0158
G01 X3.1686 Y5.0204
G01 X3.2812 Y5.0737
G01 X3.2903 Y5.0775
G01 X3.4076 Y5.1195
G01 X3.4170 Y5.1223
G01 X3.5379 Y5.1526
G01 X3.5476 Y5.1545
G01 X3.6708 Y5.1728
G01 X3.6806 Y5.1738
G01 X3.8051 Y5.1799
G01 X3.8149 Y5.1799
G01 X3.9394 Y5.1738
G01 X3.9492 Y5.1728
G01 X4.0724 Y5.1545
G01 X4.0821 Y5.1526
G01 X4.2030 Y5.1223
G01 X4.2124 Y5.1195
G01 X4.3297 Y5.0775
G01 X4.3388 Y5.0737
G01 X4.4514 Y5.0204
G01 X4.4601 Y5.0158
G01 X4.4945 Y4.9952
G01 X4.7196 Y5.2202
G01 X4.6249 Y5.2821
G01 X4.3984 Y5.3864
G01 X4.1589 Y5.4561
G01 X3.9118 Y5.4896
G01 X3.6624 Y5.4862
G01 X3.4163 Y5.4459
G01 X3.1788 Y5.3698
G01 X2.9568 Y5.2603
G01 X2.8998 Y5.2209
G00 Z2.0000
G00 X3.0616 Y5.2005
G01 F60.00
G01 Z-0.0475
G01 F250.00
G01 X3.1431 Y5.1190
G01 X3.2385 Y5.1641
G01 X3.2566 Y5.1716
G01 X3.3740 Y5.2136
G01 X3.3927 Y5.2193
G01 X3.5136 Y5.2496
G01 X3.5329 Y5.2534
G01 X3.6562 Y5.2717
G01 X3.6757 Y5.2736
G01 X3.8002 Y5.2798
G01 X3.8198 Y5.2798
G01 X3.9443 Y5.2736
G01 X3.9638 Y5.2717
G01 X4.0871 Y5.2534
G01 X4.1064 Y5.2496
G01 X4.2273 Y5.2193
G01 X4.2460 Y5.2136
G01 X4.3634 Y5.1716
G01 X4.3815 Y5.1641
G01 X4.4769 Y5.1190
G01 X4.5599 Y5.2020
G01 X4.3642 Y5.2922
G01 X4.1390 Y5.3579
G01 X3.9066 Y5.3895
G01 X3.6721 Y5.3864
G01 X3.4406 Y5.3487
G01 X3.2172 Y5.2772
G01 X3.0616 Y5.2005
G00 X3.0616 Y5.2005
G01 F60.00
G01 Z-0.0950
G01 F250.00
G01 X3.1431 Y5.1190
G01 X3.2385 Y5.1641
G01 X3.2566 Y5.1716
G01 X3.3740 Y5.2136
G01 X3.3927 Y5.2193
G01 X3.5136 Y5.2496
G01 X3.5329 Y5.2534
G01 X3.6562 Y5.2717
G01 X3.6757 Y5.2736
G01 X3.8002 Y5.2798
G01 X3.8198 Y5.2798
G01 X3.9443 Y5.2736
G01 X3.9638 Y5.2717
G01 X4.0871 Y5.2534
G01 X4.1064 Y5.2496
G01 X4.2273 Y5.2193
G01 X4.2460 Y5.2136
G01 X4.3634 Y5.1716
G01 X4.3815 Y5.1641
G01 X4.4769 Y5.1190
G01 X4.5599 Y5.2020
G01 X4.3642 Y5.2922
G01 X4.1390 Y5.3579
G01 X3.9066 Y5.3895
G01 X3.6721 Y5.3864
G01 X3.4406 Y5.3487
G01 X3.2172 Y5.2772
G01 X3.0616 Y5.2005
G00 Z2.0000
G00 X5.2013 Y4.5592
G01 F60.00
G01 Z-0.0475
G01 F250.00
G01 X5.1190 Y4.4769
G01 X5.1641 Y4.3815
G01 X5.1716 Y4.3634
G01 X5.2136 Y4.2460
G01 X5.2193 Y4.2273
G01 X5.2496 Y4.1064
G01 X5.2534 Y4.0871
G01 X5.2717 Y3.9638
G01 X5.2736 Y3.9443
G01 X5.2798 Y3.8198
G01 X5.2798 Y3.8002
G01 X5.2736 Y3.6757
G01 X5.2717 Y3.6562
G01 X5.2534 Y3.5329
G01 X5.2496 Y3.5136
G01 X5.2193 Y3.3927
G01 X5.2136 Y3.3740
G01 X5.1716 Y3.2566
G01 X5.1641 Y3.2385
G01 X5.1190 Y3.1431
G01 X5.1997 Y3.0623
G01 X5.2556 Y3.1664
G01 X5.3349 Y3.3871
G01 X5.3806 Y3.6171
G01 X5.3919 Y3.8514
G01 X5.3684 Y4.0848
G01 X5.3107 Y4.3121
G01 X5.2200 Y4.5284
G01 X5.2013 Y4.5592
G00 X5.2013 Y4.5592
G01 F60.00
G01 Z-0.0950
G01 F250.00
G01 X5.1190 Y4.4769
G01 X5.1641 Y4.3815
G01 X5.1716 Y4.3634
G01 X5.2136 Y4.2460
G01 X5.2193 Y4.2273
G01 X5.2496 Y4.1064
G01 X5.2534 Y4.0871
G01 X5.2717 Y3.9638
G01 X5.2736 Y3.9443
G01 X5.2798 Y3.8198
G01 X5.2798 Y3.8002
G01 X5.2736 Y3.6757
G01 X5.2717 Y3.6562
G01 X5.2534 Y3.5329
G01 X5.2496 Y3.5136
G01 X5.2193 Y3.3927
G01 X5.2136 Y3.3740
G01 X5.1716 Y3.2566
G01 X5.1641 Y3.2385
G01 X5.1190 Y3.1431
G01 X5.1997 Y3.0623
G01 X5.2556 Y3.1664
G01 X5.3349 Y3.3871
G01 X5.3806 Y3.6171
G01 X5.3919 Y3.8514
G01 X5.3684 Y4.0848
G01 X5.3107 Y4.3121
G01 X5.2200 Y4.5284
G01 X5.2013 Y4.5592
G00 Z2.0000
G00 X5.2230 Y2.8976
G01 F60.00
G01 Z-0.0475
G01 F250.00
G01 X5.2296 Y2.9067
G01 X5.3468 Y3.1247
G01 X5.4312 Y3.3594
G01 X5.4800 Y3.6040
G01 X5.4921 Y3.8531
G01 X5.4672 Y4.1012
G01 X5.4060 Y4.3430
G01 X5.3097 Y4.5730
G01 X5.2207 Y4.7200
G01 X4.9952 Y4.4945
G01 X5.0158 Y4.4601
G01 X5.0204 Y4.4514
G01 X5.0737 Y4.3388
G01 X5.0775 Y4.3297
G01 X5.1195 Y4.2124
G01 X5.1223 Y4.2030
G01 X5.1526 Y4.0821
G01 X5.1545 Y4.0724
G01 X5.1728 Y3.9492
G01 X5.1738 Y3.9394
G01 X5.1799 Y3.8149
G01 X5.1799 Y3.8051
G01 X5.1738 Y3.6806
G01 X5.1728 Y3.6708
G01 X5.1545 Y3.5476
G01 X5.1526 Y3.5379
G01 X5.1223 Y3.4170
G01 X5.1195 Y3.4076
G01 X5.0775 Y3.2903
G01 X5.0737 Y3.2812
G01 X5.0204 Y3.1686
G01 X5.0158 Y3.1599
G01 X4.9952 Y3.1255
G01 X5.2230 Y2.8976
G00 X5.2230 Y2.8976
G01 F60.00
G01 Z-0.0950
G01 F250.00
G01 X5.2296 Y2.9067
G01 X5.3468 Y3.1247
G01 X5.4312 Y3.3594
G01 X5.4800 Y3.6040
G01 X5.4921 Y3.8531
G01 X5.4672 Y4.1012
G01 X5.4060 Y4.3430
G01 X5.3097 Y4.5730
G01 X5.2207 Y4.7200
G01 X4.9952 Y4.4945
G01 X5.0158 Y4.4601
G01 X5.0204 Y4.4514
G01 X5.0737 Y4.3388
G01 X5.0775 Y4.3297
G01 X5.1195 Y4.2124
G01 X5.1223 Y4.2030
G01 X5.1526 Y4.0821
G01 X5.1545 Y4.0724
G01 X5.1728 Y3.9492
G01 X5.1738 Y3.9394
G01 X5.1799 Y3.8149
G01 X5.1799 Y3.8051
G01 X5.1738 Y3.6806
G01 X5.1728 Y3.6708
G01 X5.1545 Y3.5476
G01 X5.1526 Y3.5379
G01 X5.1223 Y3.4170
G01 X5.1195 Y3.4076
G01 X5.0775 Y3.2903
G01 X5.0737 Y3.2812
G01 X5.0204 Y3.1686
G01 X5.0158 Y3.1599
G01 X4.9952 Y3.1255
G01 X5.2230 Y2.8976
G00 Z2.0000
G00 X20.2107 Y2.2609
G01 F60.00
G01 Z-0.0475
G01 F250.00
G01 X20.1924 Y2.2478
G01 X20.1709 Y2.2291
G01 X20.1512 Y2.2085
G01 X20.1047 Y2.1548
G01 X20.0862 Y2.1312
G01 X20.0702 Y2.1059
G01 X20.0567 Y2.0791
G01 X20.0461 Y2.0510
G01 X20.0382 Y2.0221
G01 X20.0269 Y1.9698
G01 X20.0217 Y1.9381
G01 X20.0200 Y1.9040
G01 X20.0214 Y1.8755
G01 X20.0254 Y1.8472
G01 X20.0322 Y1.8195
G01 X20.0522 Y1.7514
G01 X20.0615 Y1.7244
G01 X20.0734 Y1.6984
G01 X20.0876 Y1.6737
G01 X20.1042 Y1.6504
G01 X20.1229 Y1.6289
G01 X20.1435 Y1.6092
G01 X20.1972 Y1.5627
G01 X20.2208 Y1.5442
G01 X20.2461 Y1.5282
G01 X20.2729 Y1.5147
G01 X20.3010 Y1.5041
G01 X20.3299 Y1.4962
G01 X20.3822 Y1.4849
G01 X20.4139 Y1.4797
G01 X20.4460 Y1.4780
G01 X88.2660 Y1.4780
G01 X88.2945 Y1.4794
G01 X88.3228 Y1.4834
G01 X88.3505 Y1.4902
G01 X88.4186 Y1.5102
G01 X88.4456 Y1.5195
G01 X88.4716 Y1.5314
G01 X88.4963 Y1.5456
G01 X88.5196 Y1.5622
G01 X88.5411 Y1.5809
G01 X88.5608 Y1.6015
G01 X88.6073 Y1.6552
G01 X88.6258 Y1.6788
G01 X88.6418 Y1.7041
G01 X88.6553 Y1.7309
G01 X88.6659 Y1.7590
G01 X88.6738 Y1.7879
G01 X88.6851 Y1.8402
G01 X88.6903 Y1.8719
G01 X88.6920 Y1.9040
G01 X88.6920 Y4.9540
G01 X88.6906 Y4.9825
G01 X88.6866 Y5.0108
G01 X88.6798 Y5.0385
G01 X88.6598 Y5.1066
G01 X88.6505 Y5.1336
G01 X88.6386 Y5.1596
G01 X88.6244 Y5.1843
G01 X88.6078 Y5.2076
G01 X88.5891 Y5.2291
G01 X88.5685 Y5.2488
G01 X88.5148 Y5.2953
G01 X88.4912 Y5.3138
G01 X88.4659 Y5.3298
G01 X88.4391 Y5.3433
G01 X88.4110 Y5.3539
G01 X88.3821 Y5.3618
G01 X88.3298 Y5.3731
G01 X88.2981 Y5.3783
G01 X88.2660 Y5.3800
G01 X87.5840 Y5.3800
G01 X87.5555 Y5.3786
G01 X87.5272 Y5.3746
G01 X87.4995 Y5.3678
G01 X87.4314 Y5.3478
G01 X87.4044 Y5.3385
G01 X87.3784 Y5.3266
G01 X87.3537 Y5.3124
G01 X87.3304 Y5.2958
G01 X87.3089 Y5.2771
G01 X87.2892 Y5.2565
G01 X87.2500 Y5.2113
G01 X87.2500 Y6.0865
G01 X87.2614 Y6.0733
G01 X87.2820 Y6.0536
G01 X87.3357 Y6.0072
G01 X87.3593 Y5.9887
G01 X87.3846 Y5.9727
G01 X87.4114 Y5.9592
G01 X87.4395 Y5.9486
G01 X87.4684 Y5.9407
G01 X87.5207 Y5.9293
G01 X87.5524 Y5.9242
G01 X87.5845 Y5.9225
G01 X88.2660 Y5.9225
G01 X88.2945 Y5.9239
G01 X88.3228 Y5.9279
G01 X88.3505 Y5.9346
G01 X88.4186 Y5.9546
G01 X88.4456 Y5.9640
G01 X88.4716 Y5.9758
G01 X88.4963 Y5.9901
G01 X88.5196 Y6.0067
G01 X88.5411 Y6.0254
G01 X88.5608 Y6.0460
G01 X88.6073 Y6.0997
G01 X88.6258 Y6.1233
G01 X88.6418 Y6.1486
G01 X88.6553 Y6.1754
G01 X88.6659 Y6.2034
G01 X88.6738 Y6.2324
G01 X88.6851 Y6.2847
G01 X88.6903 Y6.3164
G01 X88.6920 Y6.3485
G01 X88.6920 Y14.7981
G01 X88.6906 Y14.8266
G01 X88.6866 Y14.8549
G01 X88.6798 Y14.8827
G01 X88.6598 Y14.9508
G01 X88.6505 Y14.9778
G01 X88.6386 Y15.0037
G01 X88.6244 Y15.0284
G01 X88.6078 Y15.0517
G01 X88.5891 Y15.0733
G01 X88.5685 Y15.0930
G01 X88.5148 Y15.1395
G01 X88.4924 Y15.1571
G01 X88.4683 Y15.1726
G01 X88.4430 Y15.1856
G01 X88.4165 Y15.1962
G01 X88.3891 Y15.2043
G01 X88.3610 Y15.2097
G01 X88.2908 Y15.2198
G01 X88.2623 Y15.2225
G01 X88.2338 Y15.2225
G01 X88.2054 Y15.2198
G01 X88.1773 Y15.2144
G01 X88.1499 Y15.2063
G01 X88.1234 Y15.1957
G01 X88.0589 Y15.1662
G01 X88.0330 Y15.1529
G01 X88.0085 Y15.1370
G01 X87.9936 Y15.1252
G01 X87.9959 Y15.1488
G01 X87.9996 Y15.2253
G01 X87.9996 Y15.2547
G01 X87.9959 Y15.3312
G01 X87.9935 Y15.3550
G01 X88.0015 Y15.3485
G01 X88.0251 Y15.3325
G01 X88.0502 Y15.3188
G01 X88.1140 Y15.2878
G01 X88.1403 Y15.2765
G01 X88.1675 Y15.2678
G01 X88.1954 Y15.2618
G01 X88.2237 Y15.2584
G01 X88.2522 Y15.2577
G01 X88.2807 Y15.2597
G01 X88.3512 Y15.2682
G01 X88.3794 Y15.2729
G01 X88.4069 Y15.2803
G01 X88.4337 Y15.2903
G01 X88.4594 Y15.3027
G01 X88.4838 Y15.3176
G01 X88.5066 Y15.3347
G01 X88.5614 Y15.3799
G01 X88.5829 Y15.3995
G01 X88.6024 Y15.4212
G01 X88.6198 Y15.4446
G01 X88.6348 Y15.4696
G01 X88.6473 Y15.4959
G01 X88.6572 Y15.5233
G01 X88.6788 Y15.5939
G01 X88.6861 Y15.6228
G01 X88.6905 Y15.6522
G01 X88.6920 Y15.6819
G01 X88.6920 Y39.8995
G01 X88.6906 Y39.9280
G01 X88.6866 Y39.9563
G01 X88.6798 Y39.9840
G01 X88.6598 Y40.0521
G01 X88.6505 Y40.0791
G01 X88.6386 Y40.1051
G01 X88.6244 Y40.1298
G01 X88.6078 Y40.1530
G01 X88.5891 Y40.1746
G01 X88.5685 Y40.1943
G01 X88.5148 Y40.2408
G01 X88.4924 Y40.2585
G01 X88.4683 Y40.2739
G01 X88.4430 Y40.2870
G01 X88.4165 Y40.2976
G01 X88.3891 Y40.3056
G01 X88.3610 Y40.3110
G01 X88.2908 Y40.3211
G01 X88.2623 Y40.3239
G01 X88.2338 Y40.3239
G01 X88.2054 Y40.3211
G01 X88.1773 Y40.3157
G01 X88.1499 Y40.3077
G01 X88.1234 Y40.2971
G01 X88.0603 Y40.2683
G01 X88.0637 Y40.2777
G01 X88.0723 Y40.3058
G01 X88.0937 Y40.3915
G01 X88.0995 Y40.4204
G01 X88.1124 Y40.5078
G01 X88.1153 Y40.5371
G01 X88.1196 Y40.6253
G01 X88.1196 Y40.6547
G01 X88.1153 Y40.7429
G01 X88.1124 Y40.7722
G01 X88.0995 Y40.8596
G01 X88.0937 Y40.8885
G01 X88.0723 Y40.9742
G01 X88.0637 Y41.0023
G01 X88.0600 Y41.0127
G01 X88.0635 Y41.0107
G01 X88.0892 Y40.9993
G01 X88.1158 Y40.9903
G01 X88.1840 Y40.9707
G01 X88.2118 Y40.9641
G01 X88.2401 Y40.9602
G01 X88.2686 Y40.9591
G01 X88.2971 Y40.9606
G01 X88.3254 Y40.9648
G01 X88.3531 Y40.9717
G01 X88.4211 Y40.9922
G01 X88.4480 Y41.0017
G01 X88.4739 Y41.0137
G01 X88.4985 Y41.0281
G01 X88.5217 Y41.0448
G01 X88.5431 Y41.0636
G01 X88.5627 Y41.0844
G01 X88.6089 Y41.1384
G01 X88.6271 Y41.1619
G01 X88.6429 Y41.1872
G01 X88.6561 Y41.2139
G01 X88.6666 Y41.2418
G01 X88.6743 Y41.2706
G01 X88.6853 Y41.3222
G01 X88.6903 Y41.3534
G01 X88.6920 Y41.3851
G01 X88.6920 Y64.1360
G01 X88.6906 Y64.1645
G01 X88.6866 Y64.1928
G01 X88.6798 Y64.2205
G01 X88.6598 Y64.2886
G01 X88.6505 Y64.3156
G01 X88.6386 Y64.3416
G01 X88.6244 Y64.3663
G01 X88.6078 Y64.3896
G01 X88.5891 Y64.4111
G01 X88.5685 Y64.4308
G01 X88.5148 Y64.4773
G01 X88.4912 Y64.4958
G01 X88.4659 Y64.5118
G01 X88.4391 Y64.5253
G01 X88.4110 Y64.5359
G01 X88.3821 Y64.5438
G01 X88.3298 Y64.5551
G01 X88.2981 Y64.5603
G01 X88.2660 Y64.5620
G01 X1.9040 Y64.5620
G01 X1.8755 Y64.5606
G01 X1.8472 Y64.5566
G01 X1.8195 Y64.5498
G01 X1.7514 Y64.5298
G01 X1.7244 Y64.5205
G01 X1.6984 Y64.5086
G01 X1.6737 Y64.4944
G01 X1.6504 Y64.4778
G01 X1.6289 Y64.4591
G01 X1.6092 Y64.4385
G01 X1.5627 Y64.3848
G01 X1.5442 Y64.3612
G01 X1.5282 Y64.3359
G01 X1.5147 Y64.3091
G01 X1.5041 Y64.2810
G01 X1.4962 Y64.2521
G01 X1.4849 Y64.1998
G01 X1.4797 Y64.1681
G01 X1.4780 Y64.1360
G01 X1.4780 Y44.4949
G01 X1.4794 Y44.4663
G01 X1.4834 Y44.4381
G01 X1.4860 Y44.4276
G01 X1.4824 Y44.4044
G01 X1.4796 Y44.3782
G01 X1.4780 Y44.3469
G01 X1.4780 Y3.8549
G01 X1.4794 Y3.8263
G01 X1.4834 Y3.7981
G01 X1.4860 Y3.7876
G01 X1.4824 Y3.7644
G01 X1.4796 Y3.7382
G01 X1.4780 Y3.7069
G01 X1.4780 Y1.9040
G01 X1.4794 Y1.8755
G01 X1.4834 Y1.8472
G01 X1.4902 Y1.8195
G01 X1.5102 Y1.7514
G01 X1.5195 Y1.7244
G01 X1.5314 Y1.6984
G01 X1.5456 Y1.6737
G01 X1.5622 Y1.6504
G01 X1.5809 Y1.6289
G01 X1.6015 Y1.6092
G01 X1.6552 Y1.5627
G01 X1.6788 Y1.5442
G01 X1.7041 Y1.5282
G01 X1.7309 Y1.5147
G01 X1.7590 Y1.5041
G01 X1.7879 Y1.4962
G01 X1.8402 Y1.4849
G01 X1.8719 Y1.4797
G01 X1.9040 Y1.4780
G01 X3.7235 Y1.4780
G01 X3.7521 Y1.4794
G01 X3.7600 Y1.4805
G01 X3.7986 Y1.4780
G01 X18.9171 Y1.4780
G01 X18.9456 Y1.4794
G01 X18.9739 Y1.4834
G01 X19.0017 Y1.4902
G01 X19.0698 Y1.5102
G01 X19.0968 Y1.5195
G01 X19.1227 Y1.5314
G01 X19.1474 Y1.5456
G01 X19.1707 Y1.5622
G01 X19.1923 Y1.5809
G01 X19.2120 Y1.6015
G01 X19.2585 Y1.6552
G01 X19.2771 Y1.6791
G01 X19.2933 Y1.7047
G01 X19.3068 Y1.7318
G01 X19.3175 Y1.7602
G01 X19.3252 Y1.7895
G01 X19.3366 Y1.8432
G01 X19.3417 Y1.8757
G01 X19.3431 Y1.9086
G01 X19.3000 Y5.8926
G01 X24.1307 Y5.9225
G01 X24.5235 Y5.9225
G01 X24.5520 Y5.9239
G01 X24.5802 Y5.9279
G01 X24.6080 Y5.9346
G01 X24.6761 Y5.9546
G01 X24.7031 Y5.9640
G01 X24.7291 Y5.9758
G01 X24.7538 Y5.9901
G01 X24.7770 Y6.0067
G01 X24.7986 Y6.0254
G01 X24.8183 Y6.0460
G01 X24.8648 Y6.0997
G01 X24.8824 Y6.1221
G01 X24.8979 Y6.1462
G01 X24.9110 Y6.1715
G01 X24.9216 Y6.1980
G01 X24.9296 Y6.2254
G01 X24.9350 Y6.2535
G01 X24.9408 Y6.2933
G01 X24.9465 Y6.2881
G01 X24.9702 Y6.2706
G01 X24.9954 Y6.2554
G01 X25.0220 Y6.2428
G01 X25.0497 Y6.2329
G01 X25.0783 Y6.2258
G01 X25.1074 Y6.2214
G01 X25.1368 Y6.2200
G01 X26.6466 Y6.2200
G01 X27.0117 Y5.8549
G01 X27.0224 Y5.8447
G01 X27.0515 Y5.8184
G01 X27.0742 Y5.7997
G01 X27.1058 Y5.7763
G01 X27.1303 Y5.7599
G01 X27.1639 Y5.7397
G01 X27.1899 Y5.7259
G01 X27.2254 Y5.7091
G01 X27.2526 Y5.6978
G01 X27.2896 Y5.6846
G01 X27.3178 Y5.6760
G01 X27.3559 Y5.6665
G01 X27.3847 Y5.6607
G01 X27.4236 Y5.6550
G01 X27.4529 Y5.6521
G01 X27.4921 Y5.6502
G01 X27.5068 Y5.6498
G01 X30.0921 Y5.6498
G01 X30.1559 Y5.5146
G01 X30.1698 Y5.4887
G01 X30.2445 Y5.3640
G01 X30.2232 Y5.3698
G01 X30.1936 Y5.3747
G01 X30.1649 Y5.3780
G01 X30.1305 Y5.3800
G01 X23.4940 Y5.3800
G01 X23.4655 Y5.3786
G01 X23.4372 Y5.3746
G01 X23.4095 Y5.3678
G01 X23.3414 Y5.3478
G01 X23.3144 Y5.3385
G01 X23.2884 Y5.3266
G01 X23.2637 Y5.3124
G01 X23.2404 Y5.2958
G01 X23.2189 Y5.2771
G01 X23.1992 Y5.2565
G01 X23.1527 Y5.2028
G01 X23.1401 Y5.1867
G01 X23.1372 Y5.1948
G01 X23.1246 Y5.2214
G01 X23.1094 Y5.2467
G01 X23.0919 Y5.2703
G01 X23.0721 Y5.2921
G01 X23.0503 Y5.3119
G01 X23.0267 Y5.3294
G01 X23.0014 Y5.3446
G01 X22.9748 Y5.3572
G01 X22.9471 Y5.3671
G01 X22.9185 Y5.3742
G01 X22.8894 Y5.3786
G01 X22.8600 Y5.3800
G01 X20.3200 Y5.3800
G01 X20.2906 Y5.3786
G01 X20.2615 Y5.3742
G01 X20.2329 Y5.3671
G01 X20.2052 Y5.3572
G01 X20.1786 Y5.3446
G01 X20.1533 Y5.3294
G01 X20.1297 Y5.3119
G01 X20.1079 Y5.2921
G01 X20.0881 Y5.2703
G01 X20.0706 Y5.2467
G01 X20.0554 Y5.2214
G01 X20.0428 Y5.1948
G01 X20.0329 Y5.1671
G01 X20.0258 Y5.1385
G01 X20.0214 Y5.1094
G01 X20.0200 Y5.0800
G01 X20.0200 Y2.5400
G01 X20.0214 Y2.5106
G01 X20.0258 Y2.4815
G01 X20.0329 Y2.4529
G01 X20.0428 Y2.4252
G01 X20.0554 Y2.3986
G01 X20.0706 Y2.3733
G01 X20.0881 Y2.3497
G01 X20.1079 Y2.3279
G01 X20.1297 Y2.3081
G01 X20.1533 Y2.2906
G01 X20.1786 Y2.2754
G01 X20.2052 Y2.2628
G01 X20.2107 Y2.2609
G00 X20.2107 Y2.2609
G01 F60.00
G01 Z-0.0950
G01 F250.00
G01 X20.1924 Y2.2478
G01 X20.1709 Y2.2291
G01 X20.1512 Y2.2085
G01 X20.1047 Y2.1548
G01 X20.0862 Y2.1312
G01 X20.0702 Y2.1059
G01 X20.0567 Y2.0791
G01 X20.0461 Y2.0510
G01 X20.0382 Y2.0221
G01 X20.0269 Y1.9698
G01 X20.0217 Y1.9381
G01 X20.0200 Y1.9040
G01 X20.0214 Y1.8755
G01 X20.0254 Y1.8472
G01 X20.0322 Y1.8195
G01 X20.0522 Y1.7514
G01 X20.0615 Y1.7244
G01 X20.0734 Y1.6984
G01 X20.0876 Y1.6737
G01 X20.1042 Y1.6504
G01 X20.1229 Y1.6289
G01 X20.1435 Y1.6092
G01 X20.1972 Y1.5627
G01 X20.2208 Y1.5442
G01 X20.2461 Y1.5282
G01 X20.2729 Y1.5147
G01 X20.3010 Y1.5041
G01 X20.3299 Y1.4962
G01 X20.3822 Y1.4849
G01 X20.4139 Y1.4797
G01 X20.4460 Y1.4780
G01 X88.2660 Y1.4780
G01 X88.2945 Y1.4794
G01 X88.3228 Y1.4834
G01 X88.3505 Y1.4902
G01 X88.4186 Y1.5102
G01 X88.4456 Y1.5195
G01 X88.4716 Y1.5314
G01 X88.4963 Y1.5456
G01 X88.5196 Y1.5622
G01 X88.5411 Y1.5809
G01 X88.5608 Y1.6015
G01 X88.6073 Y1.6552
G01 X88.6258 Y1.6788
G01 X88.6418 Y1.7041
G01 X88.6553 Y1.7309
G01 X88.6659 Y1.7590
G01 X88.6738 Y1.7879
G01 X88.6851 Y1.8402
G01 X88.6903 Y1.8719
G01 X88.6920 Y1.9040
G01 X88.6920 Y4.9540
G01 X88.6906 Y4.9825
G01 X88.6866 Y5.0108
G01 X88.6798 Y5.0385
G01 X88.6598 Y5.1066
G01 X88.6505 Y5.1336
G01 X88.6386 Y5.1596
G01 X88.6244 Y5.1843
G01 X88.6078 Y5.2076
G01 X88.5891 Y5.2291
G01 X88.5685 Y5.2488
G01 X88.5148 Y5.2953
G01 X88.4912 Y5.3138
G01 X88.4659 Y5.3298
G01 X88.4391 Y5.3433
G01 X88.4110 Y5.3539
G01 X88.3821 Y5.3618
G01 X88.3298 Y5.3731
G01 X88.2981 Y5.3783
G01 X88.2660 Y5.3800
G01 X87.5840 Y5.3800
G01 X87.5555 Y5.3786
G01 X87.5272 Y5.3746
G01 X87.4995 Y5.3678
G01 X87.4314 Y5.3478
G01 X87.4044 Y5.3385
G01 X87.3784 Y5.3266
G01 X87.3537 Y5.3124
G01 X87.3304 Y5.2958
G01 X87.3089 Y5.2771
G01 X87.2892 Y5.2565
G01 X87.2500 Y5.2113
G01 X87.2500 Y6.0865
G01 X87.2614 Y6.0733
G01 X87.2820 Y6.0536
G01 X87.3357 Y6.0072
G01 X87.3593 Y5.9887
G01 X87.3846 Y5.9727
G01 X87.4114 Y5.9592
G01 X87.4395 Y5.9486
G01 X87.4684 Y5.9407
G01 X87.5207 Y5.9293
G01 X87.5524 Y5.9242
G01 X87.5845 Y5.9225
G01 X88.2660 Y5.9225
G01 X88.2945 Y5.9239
G01 X88.3228 Y5.9279
G01 X88.3505 Y5.9346
G01 X88.4186 Y5.9546
G01 X88.4456 Y5.9640
G01 X88.4716 Y5.9758
G01 X88.4963 Y5.9901
G01 X88.5196 Y6.0067
G01 X88.5411 Y6.0254
G01 X88.5608 Y6.0460
G01 X88.6073 Y6.0997
G01 X88.6258 Y6.1233
G01 X88.6418 Y6.1486
G01 X88.6553 Y6.1754
G01 X88.6659 Y6.2034
G01 X88.6738 Y6.2324
G01 X88.6851 Y6.2847
G01 X88.6903 Y6.3164
G01 X88.6920 Y6.3485
G01 X88.6920 Y14.7981
G01 X88.6906 Y14.8266
G01 X88.6866 Y14.8549
G01 X88.6798 Y14.8827
G01 X88.6598 Y14.9508
G01 X88.6505 Y14.9778
G01 X88.6386 Y15.0037
G01 X88.6244 Y15.0284
G01 X88.6078 Y15.0517
G01 X88.5891 Y15.0733
G01 X88.5685 Y15.0930
G01 X88.5148 Y15.1395
G01 X88.4924 Y15.1571
G01 X88.4683 Y15.1726
G01 X88.4430 Y15.1856
G01 X88.4165 Y15.1962
G01 X88.3891 Y15.2043
G01 X88.3610 Y15.2097
G01 X88.2908 Y15.2198
G01 X88.2623 Y15.2225
G01 X88.2338 Y15.2225
G01 X88.2054 Y15.2198
G01 X88.1773 Y15.2144
G01 X88.1499 Y15.2063
G01 X88.1234 Y15.1957
G01 X88.0589 Y15.1662
G01 X88.0330 Y15.1529
G01 X88.0085 Y15.1370
G01 X87.9936 Y15.1252
G01 X87.9959 Y15.1488
G01 X87.9996 Y15.2253
G01 X87.9996 Y15.2547
G01 X87.9959 Y15.3312
G01 X87.9935 Y15.3550
G01 X88.0015 Y15.3485
G01 X88.0251 Y15.3325
G01 X88.0502 Y15.3188
G01 X88.1140 Y15.2878
G01 X88.1403 Y15.2765
G01 X88.1675 Y15.2678
G01 X88.1954 Y15.2618
G01 X88.2237 Y15.2584
G01 X88.2522 Y15.2577
G01 X88.2807 Y15.2597
G01 X88.3512 Y15.2682
G01 X88.3794 Y15.2729
G01 X88.4069 Y15.2803
G01 X88.4337 Y15.2903
G01 X88.4594 Y15.3027
G01 X88.4838 Y15.3176
G01 X88.5066 Y15.3347
G01 X88.5614 Y15.3799
G01 X88.5829 Y15.3995
G01 X88.6024 Y15.4212
G01 X88.6198 Y15.4446
G01 X88.6348 Y15.4696
G01 X88.6473 Y15.4959
G01 X88.6572 Y15.5233
G01 X88.6788 Y15.5939
G01 X88.6861 Y15.6228
G01 X88.6905 Y15.6522
G01 X88.6920 Y15.6819
G01 X88.6920 Y39.8995
G01 X88.6906 Y39.9280
G01 X88.6866 Y39.9563
G01 X88.6798 Y39.9840
G01 X88.6598 Y40.0521
G01 X88.6505 Y40.0791
G01 X88.6386 Y40.1051
G01 X88.6244 Y40.1298
G01 X88.6078 Y40.1530
G01 X88.5891 Y40.1746
G01 X88.5685 Y40.1943
G01 X88.5148 Y40.2408
G01 X88.4924 Y40.2585
G01 X88.4683 Y40.2739
G01 X88.4430 Y40.2870
G01 X88.4165 Y40.2976
G01 X88.3891 Y40.3056
G01 X88.3610 Y40.3110
G01 X88.2908 Y40.3211
G01 X88.2623 Y40.3239
G01 X88.2338 Y40.3239
G01 X88.2054 Y40.3211
G01 X88.1773 Y40.3157
G01 X88.1499 Y40.3077
G01 X88.1234 Y40.2971
G01 X88.0603 Y40.2683
G01 X88.0637 Y40.2777
G01 X88.0723 Y40.3058
G01 X88.0937 Y40.3915
G01 X88.0995 Y40.4204
G01 X88.1124 Y40.5078
G01 X88.1153 Y40.5371
G01 X88.1196 Y40.6253
G01 X88.1196 Y40.6547
G01 X88.1153 Y40.7429
G01 X88.1124 Y40.7722
G01 X88.0995 Y40.8596
G01 X88.0937 Y40.8885
G01 X88.0723 Y40.9742
G01 X88.0637 Y41.0023
G01 X88.0600 Y41.0127
G01 X88.0635 Y41.0107
G01 X88.0892 Y40.9993
G01 X88.1158 Y40.9903
G01 X88.1840 Y40.9707
G01 X88.2118 Y40.9641
G01 X88.2401 Y40.9602
G01 X88.2686 Y40.9591
G01 X88.2971 Y40.9606
G01 X88.3254 Y40.9648
G01 X88.3531 Y40.9717
G01 X88.4211 Y40.9922
G01 X88.4480 Y41.0017
G01 X88.4739 Y41.0137
G01 X88.4985 Y41.0281
G01 X88.5217 Y41.0448
G01 X88.5431 Y41.0636
G01 X88.5627 Y41.0844
G01 X88.6089 Y41.1384
G01 X88.6271 Y41.1619
G01 X88.6429 Y41.1872
G01 X88.6561 Y41.2139
G01 X88.6666 Y41.2418
G01 X88.6743 Y41.2706
G01 X88.6853 Y41.3222
G01 X88.6903 Y41.3534
G01 X88.6920 Y41.3851
G01 X88.6920 Y64.1360
G01 X88.6906 Y64.1645
G01 X88.6866 Y64.1928
G01 X88.6798 Y64.2205
G01 X88.6598 Y64.2886
G01 X88.6505 Y64.3156
G01 X88.6386 Y64.3416
G01 X88.6244 Y64.3663
G01 X88.6078 Y64.3896
G01 X88.5891 Y64.4111
G01 X88.5685 Y64.4308
G01 X88.5148 Y64.4773
G01 X88.4912 Y64.4958
G01 X88.4659 Y64.5118
G01 X88.4391 Y64.5253
G01 X88.4110 Y64.5359
G01 X88.3821 Y64.5438
G01 X88.3298 Y64.5551
G01 X88.2981 Y64.5603
G01 X88.2660 Y64.5620
G01 X1.9040 Y64.5620
G01 X1.8755 Y64.5606
G01 X1.8472 Y64.5566
G01 X1.8195 Y64.5498
G01 X1.7514 Y64.5298
G01 X1.7244 Y64.5205
G01 X1.6984 Y64.5086
G01 X1.6737 Y64.4944
G01 X1.6504 Y64.4778
G01 X1.6289 Y64.4591
G01 X1.6092 Y64.4385
G01 X1.5627 Y64.3848
G01 X1.5442 Y64.3612
G01 X1.5282 Y64.3359
G01 X1.5147 Y64.3091
G01 X1.5041 Y64.2810
G01 X1.4962 Y64.2521
G01 X1.4849 Y64.1998
G01 X1.4797 Y64.1681
G01 X1.4780 Y64.1360
G01 X1.4780 Y44.4949
G01 X1.4794 Y44.4663
G01 X1.4834 Y44.4381
G01 X1.4860 Y44.4276
G01 X1.4824 Y44.4044
G01 X1.4796 Y44.3782
G01 X1.4780 Y44.3469
G01 X1.4780 Y3.8549
G01 X1.4794 Y3.8263
G01 X1.4834 Y3.7981
G01 X1.4860 Y3.7876
G01 X1.4824 Y3.7644
G01 X1.4796 Y3.7382
G01 X1.4780 Y3.7069
G01 X1.4780 Y1.9040
G01 X1.4794 Y1.8755
G01 X1.4834 Y1.8472
G01 X1.4902 Y1.8195
G01 X1.5102 Y1.7514
G01 X1.5195 Y1.7244
G01 X1.5314 Y1.6984
G01 X1.5456 Y1.6737
G01 X1.5622 Y1.6504
G01 X1.5809 Y1.6289
G01 X1.6015 Y1.6092
G01 X1.6552 Y1.5627
G01 X1.6788 Y1.5442
G01 X1.7041 Y1.5282
G01 X1.7309 Y1.5147
G01 X1.7590 Y1.5041
G01 X1.7879 Y1.4962
G01 X1.8402 Y1.4849
G01 X1.8719 Y1.4797
G01 X1.9040 Y1.4780
G01 X3.7235 Y1.4780
G01 X3.7521 Y1.4794
G01 X3.7600 Y1.4805
G01 X3.7986 Y1.4780
G01 X18.9171 Y1.4780
G01 X18.9456 Y1.4794
G01 X18.9739 Y1.4834
G01 X19.0017 Y1.4902
G01 X19.0698 Y1.5102
G01 X19.0968 Y1.5195
G01 X19.1227 Y1.5314
G01 X19.1474 Y1.5456
G01 X19.1707 Y1.5622
G01 X19.1923 Y1.5809
G01 X19.2120 Y1.6015
G01 X19.2585 Y1.6552
G01 X19.2771 Y1.6791
G01 X19.2933 Y1.7047
G01 X19.3068 Y1.7318
G01 X19.3175 Y1.7602
G01 X19.3252 Y1.7895
G01 X19.3366 Y1.8432
G01 X19.3417 Y1.8757
G01 X19.3431 Y1.9086
G01 X19.3000 Y5.8926
G01 X24.1307 Y5.9225
G01 X24.5235 Y5.9225
G01 X24.5520 Y5.9239
G01 X24.5802 Y5.9279
G01 X24.6080 Y5.9346
G01 X24.6761 Y5.9546
G01 X24.7031 Y5.9640
G01 X24.7291 Y5.9758
G01 X24.7538 Y5.9901
G01 X24.7770 Y6.0067
G01 X24.7986 Y6.0254
G01 X24.8183 Y6.0460
G01 X24.8648 Y6.0997
G01 X24.8824 Y6.1221
G01 X24.8979 Y6.1462
G01 X24.9110 Y6.1715
G01 X24.9216 Y6.1980
G01 X24.9296 Y6.2254
G01 X24.9350 Y6.2535
G01 X24.9408 Y6.2933
G01 X24.9465 Y6.2881
G01 X24.9702 Y6.2706
G01 X24.9954 Y6.2554
G01 X25.0220 Y6.2428
G01 X25.0497 Y6.2329
G01 X25.0783 Y6.2258
G01 X25.1074 Y6.2214
G01 X25.1368 Y6.2200
G01 X26.6466 Y6.2200
G01 X27.0117 Y5.8549
G01 X27.0224 Y5.8447
G01 X27.0515 Y5.8184
G01 X27.0742 Y5.7997
G01 X27.1058 Y5.7763
G01 X27.1303 Y5.7599
G01 X27.1639 Y5.7397
G01 X27.1899 Y5.7259
G01 X27.2254 Y5.7091
G01 X27.2526 Y5.6978
G01 X27.2896 Y5.6846
G01 X27.3178 Y5.6760
G01 X27.3559 Y5.6665
G01 X27.3847 Y5.6607
G01 X27.4236 Y5.6550
G01 X27.4529 Y5.6521
G01 X27.4921 Y5.6502
G01 X27.5068 Y5.6498
G01 X30.0921 Y5.6498
G01 X30.1559 Y5.5146
G01 X30.1698 Y5.4887
G01 X30.2445 Y5.3640
G01 X30.2232 Y5.3698
G01 X30.1936 Y5.3747
G01 X30.1649 Y5.3780
G01 X30.1305 Y5.3800
G01 X23.4940 Y5.3800
G01 X23.4655 Y5.3786
G01 X23.4372 Y5.3746
G01 X23.4095 Y5.3678
G01 X23.3414 Y5.3478
G01 X23.3144 Y5.3385
G01 X23.2884 Y5.3266
G01 X23.2637 Y5.3124
G01 X23.2404 Y5.2958
G01 X23.2189 Y5.2771
G01 X23.1992 Y5.2565
G01 X23.1527 Y5.2028
G01 X23.1401 Y5.1867
G01 X23.1372 Y5.1948
G01 X23.1246 Y5.2214
G01 X23.1094 Y5.2467
G01 X23.0919 Y5.2703
G01 X23.0721 Y5.2921
G01 X23.0503 Y5.3119
G01 X23.0267 Y5.3294
G01 X23.0014 Y5.3446
G01 X22.9748 Y5.3572
G01 X22.9471 Y5.3671
G01 X22.9185 Y5.3742
G01 X22.8894 Y5.3786
G01 X22.8600 Y5.3800
G01 X20.3200 Y5.3800
G01 X20.2906 Y5.3786
G01 X20.2615 Y5.3742
G01 X20.2329 Y5.3671
G01 X20.2052 Y5.3572
G01 X20.1786 Y5.3446
G01 X20.1533 Y5.3294
G01 X20.1297 Y5.3119
G01 X20.1079 Y5.2921
G01 X20.0881 Y5.2703
G01 X20.0706 Y5.2467
G01 X20.0554 Y5.2214
G01 X20.0428 Y5.1948
G01 X20.0329 Y5.1671
G01 X20.0258 Y5.1385
G01 X20.0214 Y5.1094
G01 X20.0200 Y5.0800
G01 X20.0200 Y2.5400
G01 X20.0214 Y2.5106
G01 X20.0258 Y2.4815
G01 X20.0329 Y2.4529
G01 X20.0428 Y2.4252
G01 X20.0554 Y2.3986
G01 X20.0706 Y2.3733
G01 X20.0881 Y2.3497
G01 X20.1079 Y2.3279
G01 X20.1297 Y2.3081
G01 X20.1533 Y2.2906
G01 X20.1786 Y2.2754
G01 X20.2052 Y2.2628
G01 X20.2107 Y2.2609
G00 Z2.0000
G00 X20.8900 Y2.2320
G01 F60.00
G01 Z-0.0475
G01 F250.00
G01 X20.4460 Y2.2320
G01 X20.4270 Y2.2311
G01 X20.4081 Y2.2284
G01 X20.3897 Y2.2239
G01 X20.3215 Y2.2039
G01 X20.3035 Y2.1977
G01 X20.2862 Y2.1898
G01 X20.2698 Y2.1802
G01 X20.2542 Y2.1692
G01 X20.2399 Y2.1567
G01 X20.2267 Y2.1430
G01 X20.1802 Y2.0893
G01 X20.1679 Y2.0736
G01 X20.1572 Y2.0567
G01 X20.1483 Y2.0388
G01 X20.1412 Y2.0201
G01 X20.1360 Y2.0009
G01 X20.1246 Y1.9485
G01 X20.1211 Y1.9274
G01 X20.1200 Y1.9060
G01 X20.1209 Y1.8850
G01 X20.1236 Y1.8661
G01 X20.1281 Y1.8477
G01 X20.1481 Y1.7795
G01 X20.1543 Y1.7615
G01 X20.1622 Y1.7442
G01 X20.1718 Y1.7278
G01 X20.1828 Y1.7122
G01 X20.1953 Y1.6979
G01 X20.2090 Y1.6847
G01 X20.2627 Y1.6382
G01 X20.2784 Y1.6259
G01 X20.2953 Y1.6152
G01 X20.3132 Y1.6063
G01 X20.3319 Y1.5992
G01 X20.3511 Y1.5940
G01 X20.4035 Y1.5826
G01 X20.4246 Y1.5791
G01 X20.4460 Y1.5780
G01 X88.2660 Y1.5780
G01 X88.2850 Y1.5789
G01 X88.3039 Y1.5816
G01 X88.3223 Y1.5861
G01 X88.3905 Y1.6061
G01 X88.4085 Y1.6123
G01 X88.4258 Y1.6202
G01 X88.4422 Y1.6298
G01 X88.4578 Y1.6408
G01 X88.4721 Y1.6533
G01 X88.4853 Y1.6670
G01 X88.5318 Y1.7207
G01 X88.5441 Y1.7364
G01 X88.5548 Y1.7533
G01 X88.5637 Y1.7712
G01 X88.5708 Y1.7899
G01 X88.5760 Y1.8091
G01 X88.5874 Y1.8615
G01 X88.5909 Y1.8826
G01 X88.5920 Y1.9040
G01 X88.5920 Y4.9540
G01 X88.5911 Y4.9730
G01 X88.5884 Y4.9919
G01 X88.5839 Y5.0103
G01 X88.5639 Y5.0785
G01 X88.5577 Y5.0965
G01 X88.5498 Y5.1138
G01 X88.5402 Y5.1302
G01 X88.5292 Y5.1458
G01 X88.5167 Y5.1601
G01 X88.5030 Y5.1733
G01 X88.4493 Y5.2198
G01 X88.4336 Y5.2321
G01 X88.4167 Y5.2428
G01 X88.3988 Y5.2517
G01 X88.3801 Y5.2588
G01 X88.3609 Y5.2640
G01 X88.3085 Y5.2754
G01 X88.2874 Y5.2789
G01 X88.2660 Y5.2800
G01 X87.5840 Y5.2800
G01 X87.5650 Y5.2791
G01 X87.5461 Y5.2764
G01 X87.5277 Y5.2719
G01 X87.4595 Y5.2519
G01 X87.4415 Y5.2457
G01 X87.4242 Y5.2378
G01 X87.4077 Y5.2282
G01 X87.3922 Y5.2172
G01 X87.3779 Y5.2047
G01 X87.3647 Y5.1910
G01 X87.3182 Y5.1373
G01 X87.3059 Y5.1216
G01 X87.2952 Y5.1047
G01 X87.2863 Y5.0868
G01 X87.2792 Y5.0681
G01 X87.2740 Y5.0489
G01 X87.2626 Y4.9965
G01 X87.2591 Y4.9754
G01 X87.2580 Y4.9540
G01 X87.2580 Y4.8127
G01 X87.2551 Y4.7864
G01 X87.2230 Y4.7006
G01 X87.1700 Y4.6300
G01 X87.0994 Y4.5770
G01 X87.0136 Y4.5449
G01 X86.9873 Y4.5420
G01 X86.1500 Y4.5420
G01 X86.1500 Y4.6500
G01 X86.9500 Y4.6500
G01 X86.9696 Y4.6510
G01 X86.9890 Y4.6538
G01 X87.0081 Y4.6586
G01 X87.0265 Y4.6652
G01 X87.0443 Y4.6736
G01 X87.0611 Y4.6837
G01 X87.0769 Y4.6954
G01 X87.0914 Y4.7086
G01 X87.1046 Y4.7231
G01 X87.1163 Y4.7389
G01 X87.1264 Y4.7557
G01 X87.1348 Y4.7735
G01 X87.1414 Y4.7919
G01 X87.1462 Y4.8110
G01 X87.1490 Y4.8304
G01 X87.1500 Y4.8500
G01 X87.1500 Y7.8500
G01 X87.1490 Y7.8696
G01 X87.1462 Y7.8890
G01 X87.1414 Y7.9081
G01 X87.1348 Y7.9265
G01 X87.1264 Y7.9443
G01 X87.1163 Y7.9611
G01 X87.1046 Y7.9769
G01 X87.0914 Y7.9914
G01 X87.0769 Y8.0046
G01 X87.0611 Y8.0163
G01 X87.0443 Y8.0264
G01 X87.0265 Y8.0348
G01 X87.0081 Y8.0414
G01 X86.9890 Y8.0462
G01 X86.9696 Y8.0490
G01 X86.9500 Y8.0500
G01 X83.9500 Y8.0500
G01 X83.9304 Y8.0490
G01 X83.9110 Y8.0462
G01 X83.8919 Y8.0414
G01 X83.8735 Y8.0348
G01 X83.8557 Y8.0264
G01 X83.8389 Y8.0163
G01 X83.8231 Y8.0046
G01 X83.8086 Y7.9914
G01 X83.7954 Y7.9769
G01 X83.7837 Y7.9611
G01 X83.7736 Y7.9443
G01 X83.7652 Y7.9265
G01 X83.7586 Y7.9081
G01 X83.7538 Y7.8890
G01 X83.7510 Y7.8696
G01 X83.7500 Y7.8500
G01 X83.7500 Y4.8500
G01 X83.7510 Y4.8304
G01 X83.7538 Y4.8110
G01 X83.7586 Y4.7919
G01 X83.7652 Y4.7735
G01 X83.7736 Y4.7557
G01 X83.7837 Y4.7389
G01 X83.7954 Y4.7231
G01 X83.8086 Y4.7086
G01 X83.8231 Y4.6954
G01 X83.8389 Y4.6837
G01 X83.8557 Y4.6736
G01 X83.8735 Y4.6652
G01 X83.8919 Y4.6586
G01 X83.9110 Y4.6538
G01 X83.9304 Y4.6510
G01 X83.9500 Y4.6500
G01 X84.7500 Y4.6500
G01 X84.7500 Y4.5420
G01 X83.9127 Y4.5420
G01 X83.8864 Y4.5449
G01 X83.8006 Y4.5770
G01 X83.7300 Y4.6300
G01 X83.6770 Y4.7006
G01 X83.6449 Y4.7864
G01 X83.6420 Y4.8127
G01 X83.6420 Y4.9540
G01 X83.6411 Y4.9730
G01 X83.6384 Y4.9919
G01 X83.6339 Y5.0103
G01 X83.6139 Y5.0785
G01 X83.6077 Y5.0965
G01 X83.5998 Y5.1138
G01 X83.5902 Y5.1302
G01 X83.5792 Y5.1458
G01 X83.5667 Y5.1601
G01 X83.5530 Y5.1733
G01 X83.4993 Y5.2198
G01 X83.4836 Y5.2321
G01 X83.4667 Y5.2428
G01 X83.4488 Y5.2517
G01 X83.4301 Y5.2588
G01 X83.4109 Y5.2640
G01 X83.3585 Y5.2754
G01 X83.3374 Y5.2789
G01 X83.3160 Y5.2800
G01 X81.9857 Y5.2800
G01 X81.9667 Y5.2791
G01 X81.9478 Y5.2764
G01 X81.9293 Y5.2719
G01 X81.8612 Y5.2519
G01 X81.8416 Y5.2450
G01 X81.8228 Y5.2361
G01 X81.8050 Y5.2253
G01 X81.7884 Y5.2127
G01 X81.7634 Y5.1915
G01 X81.7446 Y5.1734
G01 X81.6247 Y5.0416
G01 X81.4355 Y4.8835
G01 X81.2266 Y4.7524
G01 X81.0019 Y4.6510
G01 X80.7654 Y4.5809
G01 X80.5217 Y4.5436
G01 X80.2751 Y4.5398
G01 X80.0303 Y4.5694
G01 X79.7918 Y4.6320
G01 X79.5640 Y4.7263
G01 X79.3511 Y4.8507
G01 X79.1570 Y5.0029
G01 X78.9846 Y5.1809
G01 X78.9707 Y5.1939
G01 X78.9556 Y5.2055
G01 X78.9395 Y5.2157
G01 X78.8778 Y5.2507
G01 X78.8599 Y5.2597
G01 X78.8412 Y5.2668
G01 X78.8219 Y5.2721
G01 X78.8021 Y5.2754
G01 X78.7734 Y5.2787
G01 X78.7505 Y5.2800
G01 X76.0340 Y5.2800
G01 X76.0150 Y5.2791
G01 X75.9961 Y5.2764
G01 X75.9777 Y5.2719
G01 X75.9095 Y5.2519
G01 X75.8915 Y5.2457
G01 X75.8742 Y5.2378
G01 X75.8577 Y5.2282
G01 X75.8422 Y5.2172
G01 X75.8279 Y5.2047
G01 X75.8147 Y5.1910
G01 X75.7682 Y5.1373
G01 X75.7559 Y5.1216
G01 X75.7452 Y5.1047
G01 X75.7363 Y5.0868
G01 X75.7292 Y5.0681
G01 X75.7240 Y5.0489
G01 X75.7126 Y4.9965
G01 X75.7091 Y4.9754
G01 X75.7080 Y4.9540
G01 X75.7080 Y4.8127
G01 X75.7051 Y4.7864
G01 X75.6730 Y4.7006
G01 X75.6200 Y4.6300
G01 X75.5494 Y4.5770
G01 X75.4636 Y4.5449
G01 X75.4373 Y4.5420
G01 X74.6000 Y4.5420
G01 X74.6000 Y4.6500
G01 X75.4000 Y4.6500
G01 X75.4196 Y4.6510
G01 X75.4390 Y4.6538
G01 X75.4581 Y4.6586
G01 X75.4765 Y4.6652
G01 X75.4943 Y4.6736
G01 X75.5111 Y4.6837
G01 X75.5269 Y4.6954
G01 X75.5414 Y4.7086
G01 X75.5546 Y4.7231
G01 X75.5663 Y4.7389
G01 X75.5764 Y4.7557
G01 X75.5848 Y4.7735
G01 X75.5914 Y4.7919
G01 X75.5962 Y4.8110
G01 X75.5990 Y4.8304
G01 X75.6000 Y4.8500
G01 X75.6000 Y7.8500
G01 X75.5990 Y7.8696
G01 X75.5962 Y7.8890
G01 X75.5914 Y7.9081
G01 X75.5848 Y7.9265
G01 X75.5764 Y7.9443
G01 X75.5663 Y7.9611
G01 X75.5546 Y7.9769
G01 X75.5414 Y7.9914
G01 X75.5269 Y8.0046
G01 X75.5111 Y8.0163
G01 X75.4943 Y8.0264
G01 X75.4765 Y8.0348
G01 X75.4581 Y8.0414
G01 X75.4390 Y8.0462
G01 X75.4196 Y8.0490
G01 X75.4000 Y8.0500
G01 X72.4000 Y8.0500
G01 X72.3804 Y8.0490
G01 X72.3610 Y8.0462
G01 X72.3419 Y8.0414
G01 X72.3235 Y8.0348
G01 X72.3057 Y8.0264
G01 X72.2889 Y8.0163
G01 X72.2731 Y8.0046
G01 X72.2586 Y7.9914
G01 X72.2454 Y7.9769
G01 X72.2337 Y7.9611
G01 X72.2236 Y7.9443
G01 X72.2152 Y7.9265
G01 X72.2086 Y7.9081
G01 X72.2038 Y7.8890
G01 X72.2010 Y7.8696
G01 X72.2000 Y7.8500
G01 X72.2000 Y4.8500
G01 X72.2010 Y4.8304
G01 X72.2038 Y4.8110
G01 X72.2086 Y4.7919
G01 X72.2152 Y4.7735
G01 X72.2236 Y4.7557
G01 X72.2337 Y4.7389
G01 X72.2454 Y4.7231
G01 X72.2586 Y4.7086
G01 X72.2731 Y4.6954
G01 X72.2889 Y4.6837
G01 X72.3057 Y4.6736
G01 X72.3235 Y4.6652
G01 X72.3419 Y4.6586
G01 X72.3610 Y4.6538
G01 X72.3804 Y4.6510
G01 X72.4000 Y4.6500
G01 X73.2000 Y4.6500
G01 X73.2000 Y4.5420
G01 X72.3627 Y4.5420
G01 X72.3364 Y4.5449
G01 X72.2506 Y4.5770
G01 X72.1800 Y4.6300
G01 X72.1270 Y4.7006
G01 X72.0949 Y4.7864
G01 X72.0920 Y4.8127
G01 X72.0920 Y4.9540
G01 X72.0911 Y4.9730
G01 X72.0884 Y4.9919
G01 X72.0839 Y5.0103
G01 X72.0639 Y5.0785
G01 X72.0577 Y5.0965
G01 X72.0498 Y5.1138
G01 X72.0402 Y5.1302
G01 X72.0292 Y5.1458
G01 X72.0167 Y5.1601
G01 X72.0030 Y5.1733
G01 X71.9493 Y5.2198
G01 X71.9336 Y5.2321
G01 X71.9167 Y5.2428
G01 X71.8988 Y5.2517
G01 X71.8801 Y5.2588
G01 X71.8609 Y5.2640
G01 X71.8085 Y5.2754
G01 X71.7874 Y5.2789
G01 X71.7660 Y5.2800
G01 X70.4357 Y5.2800
G01 X70.4167 Y5.2791
G01 X70.3978 Y5.2764
G01 X70.3793 Y5.2719
G01 X70.3112 Y5.2519
G01 X70.2916 Y5.2450
G01 X70.2728 Y5.2361
G01 X70.2550 Y5.2253
G01 X70.2384 Y5.2127
G01 X70.2134 Y5.1915
G01 X70.1946 Y5.1734
G01 X70.0747 Y5.0416
G01 X69.8855 Y4.8835
G01 X69.6766 Y4.7524
G01 X69.4519 Y4.6510
G01 X69.2154 Y4.5809
G01 X68.9717 Y4.5436
G01 X68.7251 Y4.5398
G01 X68.4803 Y4.5694
G01 X68.2418 Y4.6320
G01 X68.0140 Y4.7263
G01 X67.8011 Y4.8507
G01 X67.6070 Y5.0029
G01 X67.4346 Y5.1809
G01 X67.4207 Y5.1939
G01 X67.4056 Y5.2055
G01 X67.3895 Y5.2157
G01 X67.3278 Y5.2507
G01 X67.3099 Y5.2597
G01 X67.2912 Y5.2668
G01 X67.2719 Y5.2721
G01 X67.2521 Y5.2754
G01 X67.2234 Y5.2787
G01 X67.2005 Y5.2800
G01 X64.4840 Y5.2800
G01 X64.4650 Y5.2791
G01 X64.4461 Y5.2764
G01 X64.4277 Y5.2719
G01 X64.3595 Y5.2519
G01 X64.3415 Y5.2457
G01 X64.3242 Y5.2378
G01 X64.3077 Y5.2282
G01 X64.2922 Y5.2172
G01 X64.2779 Y5.2047
G01 X64.2647 Y5.1910
G01 X64.2182 Y5.1373
G01 X64.2059 Y5.1216
G01 X64.1952 Y5.1047
G01 X64.1863 Y5.0868
G01 X64.1792 Y5.0681
G01 X64.1740 Y5.0489
G01 X64.1626 Y4.9965
G01 X64.1591 Y4.9754
G01 X64.1580 Y4.9540
G01 X64.1580 Y4.8127
G01 X64.1551 Y4.7864
G01 X64.1230 Y4.7006
G01 X64.0700 Y4.6300
G01 X63.9994 Y4.5770
G01 X63.9136 Y4.5449
G01 X63.8873 Y4.5420
G01 X63.0500 Y4.5420
G01 X63.0500 Y4.6500
G01 X63.8500 Y4.6500
G01 X63.8696 Y4.6510
G01 X63.8890 Y4.6538
G01 X63.9081 Y4.6586
G01 X63.9265 Y4.6652
G01 X63.9443 Y4.6736
G01 X63.9611 Y4.6837
G01 X63.9769 Y4.6954
G01 X63.9914 Y4.7086
G01 X64.0046 Y4.7231
G01 X64.0163 Y4.7389
G01 X64.0264 Y4.7557
G01 X64.0348 Y4.7735
G01 X64.0414 Y4.7919
G01 X64.0462 Y4.8110
G01 X64.0490 Y4.8304
G01 X64.0500 Y4.8500
G01 X64.0500 Y7.8500
G01 X64.0490 Y7.8696
G01 X64.0462 Y7.8890
G01 X64.0414 Y7.9081
G01 X64.0348 Y7.9265
G01 X64.0264 Y7.9443
G01 X64.0163 Y7.9611
G01 X64.0046 Y7.9769
G01 X63.9914 Y7.9914
G01 X63.9769 Y8.0046
G01 X63.9611 Y8.0163
G01 X63.9443 Y8.0264
G01 X63.9265 Y8.0348
G01 X63.9081 Y8.0414
G01 X63.8890 Y8.0462
G01 X63.8696 Y8.0490
G01 X63.8500 Y8.0500
G01 X60.8500 Y8.0500
G01 X60.8304 Y8.0490
G01 X60.8110 Y8.0462
G01 X60.7919 Y8.0414
G01 X60.7735 Y8.0348
G01 X60.7557 Y8.0264
G01 X60.7389 Y8.0163
G01 X60.7231 Y8.0046
G01 X60.7086 Y7.9914
G01 X60.6954 Y7.9769
G01 X60.6837 Y7.9611
G01 X60.6736 Y7.9443
G01 X60.6652 Y7.9265
G01 X60.6586 Y7.9081
G01 X60.6538 Y7.8890
G01 X60.6510 Y7.8696
G01 X60.6500 Y7.8500
G01 X60.6500 Y4.8500
G01 X60.6510 Y4.8304
G01 X60.6538 Y4.8110
G01 X60.6586 Y4.7919
G01 X60.6652 Y4.7735
G01 X60.6736 Y4.7557
G01 X60.6837 Y4.7389
G01 X60.6954 Y4.7231
G01 X60.7086 Y4.7086
G01 X60.7231 Y4.6954
G01 X60.7389 Y4.6837
G01 X60.7557 Y4.6736
G01 X60.7735 Y4.6652
G01 X60.7919 Y4.6586
G01 X60.8110 Y4.6538
G01 X60.8304 Y4.6510
G01 X60.8500 Y4.6500
G01 X61.6500 Y4.6500
G01 X61.6500 Y4.5420
G01 X60.8127 Y4.5420
G01 X60.7864 Y4.5449
G01 X60.7006 Y4.5770
G01 X60.6300 Y4.6300
G01 X60.5770 Y4.7006
G01 X60.5449 Y4.7864
G01 X60.5420 Y4.8127
G01 X60.5420 Y4.9540
G01 X60.5411 Y4.9730
G01 X60.5384 Y4.9919
G01 X60.5339 Y5.0103
G01 X60.5139 Y5.0785
G01 X60.5077 Y5.0965
G01 X60.4998 Y5.1138
G01 X60.4902 Y5.1302
G01 X60.4792 Y5.1458
G01 X60.4667 Y5.1601
G01 X60.4530 Y5.1733
G01 X60.3993 Y5.2198
G01 X60.3836 Y5.2321
G01 X60.3667 Y5.2428
G01 X60.3488 Y5.2517
G01 X60.3301 Y5.2588
G01 X60.3109 Y5.2640
G01 X60.2585 Y5.2754
G01 X60.2374 Y5.2789
G01 X60.2160 Y5.2800
G01 X58.8857 Y5.2800
G01 X58.8667 Y5.2791
G01 X58.8478 Y5.2764
G01 X58.8293 Y5.2719
G01 X58.7612 Y5.2519
G01 X58.7416 Y5.2450
G01 X58.7228 Y5.2361
G01 X58.7050 Y5.2253
G01 X58.6884 Y5.2127
G01 X58.6634 Y5.1915
G01 X58.6446 Y5.1734
G01 X58.5247 Y5.0416
G01 X58.3355 Y4.8835
G01 X58.1266 Y4.7524
G01 X57.9019 Y4.6510
G01 X57.6654 Y4.5809
G01 X57.4217 Y4.5436
G01 X57.1751 Y4.5398
G01 X56.9303 Y4.5694
G01 X56.6918 Y4.6320
G01 X56.4640 Y4.7263
G01 X56.2511 Y4.8507
G01 X56.0570 Y5.0029
G01 X55.8846 Y5.1809
G01 X55.8707 Y5.1939
G01 X55.8556 Y5.2055
G01 X55.8395 Y5.2157
G01 X55.7778 Y5.2507
G01 X55.7599 Y5.2597
G01 X55.7412 Y5.2668
G01 X55.7219 Y5.2721
G01 X55.7021 Y5.2754
G01 X55.6734 Y5.2787
G01 X55.6505 Y5.2800
G01 X52.9340 Y5.2800
G01 X52.9150 Y5.2791
G01 X52.8961 Y5.2764
G01 X52.8777 Y5.2719
G01 X52.8095 Y5.2519
G01 X52.7915 Y5.2457
G01 X52.7742 Y5.2378
G01 X52.7577 Y5.2282
G01 X52.7422 Y5.2172
G01 X52.7279 Y5.2047
G01 X52.7147 Y5.1910
G01 X52.6682 Y5.1373
G01 X52.6559 Y5.1216
G01 X52.6452 Y5.1047
G01 X52.6363 Y5.0868
G01 X52.6292 Y5.0681
G01 X52.6240 Y5.0489
G01 X52.6126 Y4.9965
G01 X52.6091 Y4.9754
G01 X52.6080 Y4.9540
G01 X52.6080 Y4.8127
G01 X52.6051 Y4.7864
G01 X52.5730 Y4.7006
G01 X52.5200 Y4.6300
G01 X52.4494 Y4.5770
G01 X52.3636 Y4.5449
G01 X52.3373 Y4.5420
G01 X51.5000 Y4.5420
G01 X51.5000 Y4.6500
G01 X52.3000 Y4.6500
G01 X52.3196 Y4.6510
G01 X52.3390 Y4.6538
G01 X52.3581 Y4.6586
G01 X52.3765 Y4.6652
G01 X52.3943 Y4.6736
G01 X52.4111 Y4.6837
G01 X52.4269 Y4.6954
G01 X52.4414 Y4.7086
G01 X52.4546 Y4.7231
G01 X52.4663 Y4.7389
G01 X52.4764 Y4.7557
G01 X52.4848 Y4.7735
G01 X52.4914 Y4.7919
G01 X52.4962 Y4.8110
G01 X52.4990 Y4.8304
G01 X52.5000 Y4.8500
G01 X52.5000 Y7.8500
G01 X52.4990 Y7.8696
G01 X52.4962 Y7.8890
G01 X52.4914 Y7.9081
G01 X52.4848 Y7.9265
G01 X52.4764 Y7.9443
G01 X52.4663 Y7.9611
G01 X52.4546 Y7.9769
G01 X52.4414 Y7.9914
G01 X52.4269 Y8.0046
G01 X52.4111 Y8.0163
G01 X52.3943 Y8.0264
G01 X52.3765 Y8.0348
G01 X52.3581 Y8.0414
G01 X52.3390 Y8.0462
G01 X52.3196 Y8.0490
G01 X52.3000 Y8.0500
G01 X49.3000 Y8.0500
G01 X49.2804 Y8.0490
G01 X49.2610 Y8.0462
G01 X49.2419 Y8.0414
G01 X49.2235 Y8.0348
G01 X49.2057 Y8.0264
G01 X49.1889 Y8.0163
G01 X49.1731 Y8.0046
G01 X49.1586 Y7.9914
G01 X49.1454 Y7.9769
G01 X49.1337 Y7.9611
G01 X49.1236 Y7.9443
G01 X49.1152 Y7.9265
G01 X49.1086 Y7.9081
G01 X49.1038 Y7.8890
G01 X49.1010 Y7.8696
G01 X49.1000 Y7.8500
G01 X49.1000 Y4.8500
G01 X49.1010 Y4.8304
G01 X49.1038 Y4.8110
G01 X49.1086 Y4.7919
G01 X49.1152 Y4.7735
G01 X49.1236 Y4.7557
G01 X49.1337 Y4.7389
G01 X49.1454 Y4.7231
G01 X49.1586 Y4.7086
G01 X49.1731 Y4.6954
G01 X49.1889 Y4.6837
G01 X49.2057 Y4.6736
G01 X49.2235 Y4.6652
G01 X49.2419 Y4.6586
G01 X49.2610 Y4.6538
G01 X49.2804 Y4.6510
G01 X49.3000 Y4.6500
G01 X50.1000 Y4.6500
G01 X50.1000 Y4.5420
G01 X49.2627 Y4.5420
G01 X49.2364 Y4.5449
G01 X49.1506 Y4.5770
G01 X49.0800 Y4.6300
G01 X49.0270 Y4.7006
G01 X48.9949 Y4.7864
G01 X48.9920 Y4.8127
G01 X48.9920 Y4.9540
G01 X48.9911 Y4.9730
G01 X48.9884 Y4.9919
G01 X48.9839 Y5.0103
G01 X48.9639 Y5.0785
G01 X48.9577 Y5.0965
G01 X48.9498 Y5.1138
G01 X48.9402 Y5.1302
G01 X48.9292 Y5.1458
G01 X48.9167 Y5.1601
G01 X48.9030 Y5.1733
G01 X48.8493 Y5.2198
G01 X48.8336 Y5.2321
G01 X48.8167 Y5.2428
G01 X48.7988 Y5.2517
G01 X48.7801 Y5.2588
G01 X48.7609 Y5.2640
G01 X48.7085 Y5.2754
G01 X48.6874 Y5.2789
G01 X48.6660 Y5.2800
G01 X47.3357 Y5.2800
G01 X47.3167 Y5.2791
G01 X47.2978 Y5.2764
G01 X47.2793 Y5.2719
G01 X47.2112 Y5.2519
G01 X47.1916 Y5.2450
G01 X47.1728 Y5.2361
G01 X47.1550 Y5.2253
G01 X47.1384 Y5.2127
G01 X47.1134 Y5.1915
G01 X47.0946 Y5.1734
G01 X46.9747 Y5.0416
G01 X46.7855 Y4.8835
G01 X46.5766 Y4.7524
G01 X46.3519 Y4.6510
G01 X46.1154 Y4.5809
G01 X45.8717 Y4.5436
G01 X45.6251 Y4.5398
G01 X45.3803 Y4.5694
G01 X45.1418 Y4.6320
G01 X44.9140 Y4.7263
G01 X44.7011 Y4.8507
G01 X44.5070 Y5.0029
G01 X44.3346 Y5.1809
G01 X44.3207 Y5.1939
G01 X44.3056 Y5.2055
G01 X44.2895 Y5.2157
G01 X44.2278 Y5.2507
G01 X44.2099 Y5.2597
G01 X44.1912 Y5.2668
G01 X44.1719 Y5.2721
G01 X44.1521 Y5.2754
G01 X44.1234 Y5.2787
G01 X44.1005 Y5.2800
G01 X38.9640 Y5.2800
G01 X38.9450 Y5.2791
G01 X38.9261 Y5.2764
G01 X38.9077 Y5.2719
G01 X38.8395 Y5.2519
G01 X38.8215 Y5.2457
G01 X38.8042 Y5.2378
G01 X38.7877 Y5.2282
G01 X38.7722 Y5.2172
G01 X38.7579 Y5.2047
G01 X38.7447 Y5.1910
G01 X38.6982 Y5.1373
G01 X38.6859 Y5.1216
G01 X38.6752 Y5.1047
G01 X38.6663 Y5.0868
G01 X38.6592 Y5.0681
G01 X38.6540 Y5.0489
G01 X38.6426 Y4.9965
G01 X38.6391 Y4.9754
G01 X38.6380 Y4.9540
G01 X38.6380 Y4.8127
G01 X38.6351 Y4.7864
G01 X38.6030 Y4.7006
G01 X38.5500 Y4.6300
G01 X38.4794 Y4.5770
G01 X38.3936 Y4.5449
G01 X38.3673 Y4.5420
G01 X37.5300 Y4.5420
G01 X37.5300 Y4.6500
G01 X38.3300 Y4.6500
G01 X38.3496 Y4.6510
G01 X38.3690 Y4.6538
G01 X38.3881 Y4.6586
G01 X38.4065 Y4.6652
G01 X38.4243 Y4.6736
G01 X38.4411 Y4.6837
G01 X38.4569 Y4.6954
G01 X38.4714 Y4.7086
G01 X38.4846 Y4.7231
G01 X38.4963 Y4.7389
G01 X38.5064 Y4.7557
G01 X38.5148 Y4.7735
G01 X38.5214 Y4.7919
G01 X38.5262 Y4.8110
G01 X38.5290 Y4.8304
G01 X38.5300 Y4.8500
G01 X38.5300 Y7.8500
G01 X38.5290 Y7.8696
G01 X38.5262 Y7.8890
G01 X38.5214 Y7.9081
G01 X38.5148 Y7.9265
G01 X38.5064 Y7.9443
G01 X38.4963 Y7.9611
G01 X38.4846 Y7.9769
G01 X38.4714 Y7.9914
G01 X38.4569 Y8.0046
G01 X38.4411 Y8.0163
G01 X38.4243 Y8.0264
G01 X38.4065 Y8.0348
G01 X38.3881 Y8.0414
G01 X38.3690 Y8.0462
G01 X38.3496 Y8.0490
G01 X38.3300 Y8.0500
G01 X35.3300 Y8.0500
G01 X35.3104 Y8.0490
G01 X35.2910 Y8.0462
G01 X35.2719 Y8.0414
G01 X35.2535 Y8.0348
G01 X35.2357 Y8.0264
G01 X35.2189 Y8.0163
G01 X35.2031 Y8.0046
G01 X35.1886 Y7.9914
G01 X35.1754 Y7.9769
G01 X35.1637 Y7.9611
G01 X35.1536 Y7.9443
G01 X35.1452 Y7.9265
G01 X35.1386 Y7.9081
G01 X35.1338 Y7.8890
G01 X35.1310 Y7.8696
G01 X35.1300 Y7.8500
G01 X35.1300 Y4.8500
G01 X35.1310 Y4.8304
G01 X35.1338 Y4.8110
G01 X35.1386 Y4.7919
G01 X35.1452 Y4.7735
G01 X35.1536 Y4.7557
G01 X35.1637 Y4.7389
G01 X35.1754 Y4.7231
G01 X35.1886 Y4.7086
G01 X35.2031 Y4.6954
G01 X35.2189 Y4.6837
G01 X35.2357 Y4.6736
G01 X35.2535 Y4.6652
G01 X35.2719 Y4.6586
G01 X35.2910 Y4.6538
G01 X35.3104 Y4.6510
G01 X35.3300 Y4.6500
G01 X36.1300 Y4.6500
G01 X36.1300 Y4.5420
G01 X35.2927 Y4.5420
G01 X35.2664 Y4.5449
G01 X35.1806 Y4.5770
G01 X35.1100 Y4.6300
G01 X35.0570 Y4.7006
G01 X35.0249 Y4.7864
G01 X35.0220 Y4.8127
G01 X35.0220 Y4.9540
G01 X35.0211 Y4.9730
G01 X35.0184 Y4.9919
G01 X35.0139 Y5.0103
G01 X34.9939 Y5.0785
G01 X34.9877 Y5.0965
G01 X34.9798 Y5.1138
G01 X34.9702 Y5.1302
G01 X34.9592 Y5.1458
G01 X34.9467 Y5.1601
G01 X34.9330 Y5.1733
G01 X34.8793 Y5.2198
G01 X34.8636 Y5.2321
G01 X34.8467 Y5.2428
G01 X34.8288 Y5.2517
G01 X34.8101 Y5.2588
G01 X34.7909 Y5.2640
G01 X34.7385 Y5.2754
G01 X34.7174 Y5.2789
G01 X34.6960 Y5.2800
G01 X33.3657 Y5.2800
G01 X33.3467 Y5.2791
G01 X33.3278 Y5.2764
G01 X33.3093 Y5.2719
G01 X33.2412 Y5.2519
G01 X33.2216 Y5.2450
G01 X33.2028 Y5.2361
G01 X33.1850 Y5.2253
G01 X33.1684 Y5.2127
G01 X33.1434 Y5.1915
G01 X33.1246 Y5.1734
G01 X33.0047 Y5.0416
G01 X32.8155 Y4.8835
G01 X32.6066 Y4.7524
G01 X32.3819 Y4.6510
G01 X32.1454 Y4.5809
G01 X31.9017 Y4.5436
G01 X31.6551 Y4.5398
G01 X31.4103 Y4.5694
G01 X31.1718 Y4.6320
G01 X30.9440 Y4.7263
G01 X30.7311 Y4.8507
G01 X30.5370 Y5.0029
G01 X30.3646 Y5.1809
G01 X30.3507 Y5.1939
G01 X30.3356 Y5.2055
G01 X30.3195 Y5.2157
G01 X30.2578 Y5.2507
G01 X30.2399 Y5.2597
G01 X30.2212 Y5.2668
G01 X30.2019 Y5.2721
G01 X30.1821 Y5.2754
G01 X30.1534 Y5.2787
G01 X30.1305 Y5.2800
G01 X23.4940 Y5.2800
G01 X23.4750 Y5.2791
G01 X23.4561 Y5.2764
G01 X23.4377 Y5.2719
G01 X23.3695 Y5.2519
G01 X23.3515 Y5.2457
G01 X23.3342 Y5.2378
G01 X23.3178 Y5.2282
G01 X23.3022 Y5.2172
G01 X23.2879 Y5.2047
G01 X23.2747 Y5.1910
G01 X23.2282 Y5.1373
G01 X23.2159 Y5.1216
G01 X23.2052 Y5.1047
G01 X23.1963 Y5.0868
G01 X23.1892 Y5.0681
G01 X23.1840 Y5.0489
G01 X23.1726 Y4.9965
G01 X23.1691 Y4.9754
G01 X23.1680 Y4.9540
G01 X23.1680 Y4.5100
G01 X23.0600 Y4.5100
G01 X23.0600 Y5.0800
G01 X23.0590 Y5.0996
G01 X23.0562 Y5.1190
G01 X23.0514 Y5.1381
G01 X23.0448 Y5.1565
G01 X23.0364 Y5.1743
G01 X23.0263 Y5.1911
G01 X23.0146 Y5.2069
G01 X23.0014 Y5.2214
G01 X22.9869 Y5.2346
G01 X22.9711 Y5.2463
G01 X22.9543 Y5.2564
G01 X22.9365 Y5.2648
G01 X22.9181 Y5.2714
G01 X22.8990 Y5.2762
G01 X22.8796 Y5.2790
G01 X22.8600 Y5.2800
G01 X20.3200 Y5.2800
G01 X20.3004 Y5.2790
G01 X20.2810 Y5.2762
G01 X20.2619 Y5.2714
G01 X20.2435 Y5.2648
G01 X20.2257 Y5.2564
G01 X20.2089 Y5.2463
G01 X20.1931 Y5.2346
G01 X20.1786 Y5.2214
G01 X20.1654 Y5.2069
G01 X20.1537 Y5.1911
G01 X20.1436 Y5.1743
G01 X20.1352 Y5.1565
G01 X20.1286 Y5.1381
G01 X20.1238 Y5.1190
G01 X20.1210 Y5.0996
G01 X20.1200 Y5.0800
G01 X20.1200 Y2.5400
G01 X20.1210 Y2.5204
G01 X20.1238 Y2.5010
G01 X20.1286 Y2.4819
G01 X20.1352 Y2.4635
G01 X20.1436 Y2.4457
G01 X20.1537 Y2.4289
G01 X20.1654 Y2.4131
G01 X20.1786 Y2.3986
G01 X20.1931 Y2.3854
G01 X20.2089 Y2.3737
G01 X20.2257 Y2.3636
G01 X20.2435 Y2.3552
G01 X20.2619 Y2.3486
G01 X20.2810 Y2.3438
G01 X20.3004 Y2.3410
G01 X20.3200 Y2.3400
G01 X20.8900 Y2.3400
G01 X20.8900 Y2.2320
G00 X20.8900 Y2.2320
G01 F60.00
G01 Z-0.0950
G01 F250.00
G01 X20.4460 Y2.2320
G01 X20.4270 Y2.2311
G01 X20.4081 Y2.2284
G01 X20.3897 Y2.2239
G01 X20.3215 Y2.2039
G01 X20.3035 Y2.1977
G01 X20.2862 Y2.1898
G01 X20.2698 Y2.1802
G01 X20.2542 Y2.1692
G01 X20.2399 Y2.1567
G01 X20.2267 Y2.1430
G01 X20.1802 Y2.0893
G01 X20.1679 Y2.0736
G01 X20.1572 Y2.0567
G01 X20.1483 Y2.0388
G01 X20.1412 Y2.0201
G01 X20.1360 Y2.0009
G01 X20.1246 Y1.9485
G01 X20.1211 Y1.9274
G01 X20.1200 Y1.9060
G01 X20.1209 Y1.8850
G01 X20.1236 Y1.8661
G01 X20.1281 Y1.8477
G01 X20.1481 Y1.7795
G01 X20.1543 Y1.7615
G01 X20.1622 Y1.7442
G01 X20.1718 Y1.7278
G01 X20.1828 Y1.7122
G01 X20.1953 Y1.6979
G01 X20.2090 Y1.6847
G01 X20.2627 Y1.6382
G01 X20.2784 Y1.6259
G01 X20.2953 Y1.6152
G01 X20.3132 Y1.6063
G01 X20.3319 Y1.5992
G01 X20.3511 Y1.5940
G01 X20.4035 Y1.5826
G01 X20.4246 Y1.5791
G01 X20.4460 Y1.5780
G01 X88.2660 Y1.5780
G01 X88.2850 Y1.5789
G01 X88.3039 Y1.5816
G01 X88.3223 Y1.5861
G01 X88.3905 Y1.6061
G01 X88.4085 Y1.6123
G01 X88.4258 Y1.6202
G01 X88.4422 Y1.6298
G01 X88.4578 Y1.6408
G01 X88.4721 Y1.6533
G01 X88.4853 Y1.6670
G01 X88.5318 Y1.7207
G01 X88.5441 Y1.7364
G01 X88.5548 Y1.7533
G01 X88.5637 Y1.7712
G01 X88.5708 Y1.7899
G01 X88.5760 Y1.8091
G01 X88.5874 Y1.8615
G01 X88.5909 Y1.8826
G01 X88.5920 Y1.9040
G01 X88.5920 Y4.9540
G01 X88.5911 Y4.9730
G01 X88.5884 Y4.9919
G01 X88.5839 Y5.0103
G01 X88.5639 Y5.0785
G01 X88.5577 Y5.0965
G01 X88.5498 Y5.1138
G01 X88.5402 Y5.1302
G01 X88.5292 Y5.1458
G01 X88.5167 Y5.1601
G01 X88.5030 Y5.1733
G01 X88.4493 Y5.2198
G01 X88.4336 Y5.2321
G01 X88.4167 Y5.2428
G01 X88.3988 Y5.2517
G01 X88.3801 Y5.2588
G01 X88.3609 Y5.2640
G01 X88.3085 Y5.2754
G01 X88.2874 Y5.2789
G01 X88.2660 Y5.2800
G01 X87.5840 Y5.2800
G01 X87.5650 Y5.2791
G01 X87.5461 Y5.2764
G01 X87.5277 Y5.2719
G01 X87.4595 Y5.2519
G01 X87.4415 Y5.2457
G01 X87.4242 Y5.2378
G01 X87.4077 Y5.2282
G01 X87.3922 Y5.2172
G01 X87.3779 Y5.2047
G01 X87.3647 Y5.1910
G01 X87.3182 Y5.1373
G01 X87.3059 Y5.1216
G01 X87.2952 Y5.1047
G01 X87.2863 Y5.0868
G01 X87.2792 Y5.0681
G01 X87.2740 Y5.0489
G01 X87.2626 Y4.9965
G01 X87.2591 Y4.9754
G01 X87.2580 Y4.9540
G01 X87.2580 Y4.8127
G01 X87.2551 Y4.7864
G01 X87.2230 Y4.7006
G01 X87.1700 Y4.6300
G01 X87.0994 Y4.5770
G01 X87.0136 Y4.5449
G01 X86.9873 Y4.5420
G01 X86.1500 Y4.5420
G01 X86.1500 Y4.6500
G01 X86.9500 Y4.6500
G01 X86.9696 Y4.6510
G01 X86.9890 Y4.6538
G01 X87.0081 Y4.6586
G01 X87.0265 Y4.6652
G01 X87.0443 Y4.6736
G01 X87.0611 Y4.6837
G01 X87.0769 Y4.6954
G01 X87.0914 Y4.7086
G01 X87.1046 Y4.7231
G01 X87.1163 Y4.7389
G01 X87.1264 Y4.7557
G01 X87.1348 Y4.7735
G01 X87.1414 Y4.7919
G01 X87.1462 Y4.8110
G01 X87.1490 Y4.8304
G01 X87.1500 Y4.8500
G01 X87.1500 Y7.8500
G01 X87.1490 Y7.8696
G01 X87.1462 Y7.8890
G01 X87.1414 Y7.9081
G01 X87.1348 Y7.9265
G01 X87.1264 Y7.9443
G01 X87.1163 Y7.9611
G01 X87.1046 Y7.9769
G01 X87.0914 Y7.9914
G01 X87.0769 Y8.0046
G01 X87.0611 Y8.0163
G01 X87.0443 Y8.0264
G01 X87.0265 Y8.0348
G01 X87.0081 Y8.0414
G01 X86.9890 Y8.0462
G01 X86.9696 Y8.0490
G01 X86.9500 Y8.0500
G01 X83.9500 Y8.0500
G01 X83.9304 Y8.0490
G01 X83.9110 Y8.0462
G01 X83.8919 Y8.0414
G01 X83.8735 Y8.0348
G01 X83.8557 Y8.0264
G01 X83.8389 Y8.0163
G01 X83.8231 Y8.0046
G01 X83.8086 Y7.9914
G01 X83.7954 Y7.9769
G01 X83.7837 Y7.9611
G01 X83.7736 Y7.9443
G01 X83.7652 Y7.9265
G01 X83.7586 Y7.9081
G01 X83.7538 Y7.8890
G01 X83.7510 Y7.8696
G01 X83.7500 Y7.8500
G01 X83.7500 Y4.8500
G01 X83.7510 Y4.8304
G01 X83.7538 Y4.8110
G01 X83.7586 Y4.7919
G01 X83.7652 Y4.7735
G01 X83.7736 Y4.7557
G01 X83.7837 Y4.7389
G01 X83.7954 Y4.7231
G01 X83.8086 Y4.7086
G01 X83.8231 Y4.6954
G01 X83.8389 Y4.6837
G01 X83.8557 Y4.6736
G01 X83.8735 Y4.6652
G01 X83.8919 Y4.6586
G01 X83.9110 Y4.6538
G01 X83.9304 Y4.6510
G01 X83.9500 Y4.6500
G01 X84.7500 Y4.6500
G01 X84.7500 Y4.5420
G01 X83.9127 Y4.5420
G01 X83.8864 Y4.5449
G01 X83.8006 Y4.5770
G01 X83.7300 Y4.6300
G01 X83.6770 Y4.7006
G01 X83.6449 Y4.7864
G01 X83.6420 Y4.8127
G01 X83.6420 Y4.9540
G01 X83.6411 Y4.9730
G01 X83.6384 Y4.9919
G01 X83.6339 Y5.0103
G01 X83.6139 Y5.0785
G01 X83.6077 Y5.0965
G01 X83.5998 Y5.1138
G01 X83.5902 Y5.1302
G01 X83.5792 Y5.1458
G01 X83.5667 Y5.1601
G01 X83.5530 Y5.1733
G01 X83.4993 Y5.2198
G01 X83.4836 Y5.2321
G01 X83.4667 Y5.2428
G01 X83.4488 Y5.2517
G01 X83.4301 Y5.2588
G01 X83.4109 Y5.2640
G01 X83.3585 Y5.2754
G01 X83.3374 Y5.2789
G01 X83.3160 Y5.2800
G01 X81.9857 Y5.2800
G01 X81.9667 Y5.2791
G01 X81.9478 Y5.2764
G01 X81.9293 Y5.2719
G01 X81.8612 Y5.2519
G01 X81.8416 Y5.2450
G01 X81.8228 Y5.2361
G01 X81.8050 Y5.2253
G01 X81.7884 Y5.2127
G01 X81.7634 Y5.1915
G01 X81.7446 Y5.1734
G01 X81.6247 Y5.0416
G01 X81.4355 Y4.8835
G01 X81.2266 Y4.7524
G01 X81.0019 Y4.6510
G01 X80.7654 Y4.5809
G01 X80.5217 Y4.5436
G01 X80.2751 Y4.5398
G01 X80.0303 Y4.5694
G01 X79.7918 Y4.6320
G01 X79.5640 Y4.7263
G01 X79.3511 Y4.8507
G01 X79.1570 Y5.0029
G01 X78.9846 Y5.1809
G01 X78.9707 Y5.1939
G01 X78.9556 Y5.2055
G01 X78.9395 Y5.2157
G01 X78.8778 Y5.2507
G01 X78.8599 Y5.2597
G01 X78.8412 Y5.2668
G01 X78.8219 Y5.2721
G01 X78.8021 Y5.2754
G01 X78.7734 Y5.2787
G01 X78.7505 Y5.2800
G01 X76.0340 Y5.2800
G01 X76.0150 Y5.2791
G01 X75.9961 Y5.2764
G01 X75.9777 Y5.2719
G01 X75.9095 Y5.2519
G01 X75.8915 Y5.2457
G01 X75.8742 Y5.2378
G01 X75.8577 Y5.2282
G01 X75.8422 Y5.2172
G01 X75.8279 Y5.2047
G01 X75.8147 Y5.1910
G01 X75.7682 Y5.1373
G01 X75.7559 Y5.1216
G01 X75.7452 Y5.1047
G01 X75.7363 Y5.0868
G01 X75.7292 Y5.0681
G01 X75.7240 Y5.0489
G01 X75.7126 Y4.9965
G01 X75.7091 Y4.9754
G01 X75.7080 Y4.9540
G01 X75.7080 Y4.8127
G01 X75.7051 Y4.7864
G01 X75.6730 Y4.7006
G01 X75.6200 Y4.6300
G01 X75.5494 Y4.5770
G01 X75.4636 Y4.5449
G01 X75.4373 Y4.5420
G01 X74.6000 Y4.5420
G01 X74.6000 Y4.6500
G01 X75.4000 Y4.6500
G01 X75.4196 Y4.6510
G01 X75.4390 Y4.6538
G01 X75.4581 Y4.6586
G01 X75.4765 Y4.6652
G01 X75.4943 Y4.6736
G01 X75.5111 Y4.6837
G01 X75.5269 Y4.6954
G01 X75.5414 Y4.7086
G01 X75.5546 Y4.7231
G01 X75.5663 Y4.7389
G01 X75.5764 Y4.7557
G01 X75.5848 Y4.7735
G01 X75.5914 Y4.7919
G01 X75.5962 Y4.8110
G01 X75.5990 Y4.8304
G01 X75.6000 Y4.8500
G01 X75.6000 Y7.8500
G01 X75.5990 Y7.8696
G01 X75.5962 Y7.8890
G01 X75.5914 Y7.9081
G01 X75.5848 Y7.9265
G01 X75.5764 Y7.9443
G01 X75.5663 Y7.9611
G01 X75.5546 Y7.9769
G01 X75.5414 Y7.9914
G01 X75.5269 Y8.0046
G01 X75.5111 Y8.0163
G01 X75.4943 Y8.0264
G01 X75.4765 Y8.0348
G01 X75.4581 Y8.0414
G01 X75.4390 Y8.0462
G01 X75.4196 Y8.0490
G01 X75.4000 Y8.0500
G01 X72.4000 Y8.0500
G01 X72.3804 Y8.0490
G01 X72.3610 Y8.0462
G01 X72.3419 Y8.0414
G01 X72.3235 Y8.0348
G01 X72.3057 Y8.0264
G01 X72.2889 Y8.0163
G01 X72.2731 Y8.0046
G01 X72.2586 Y7.9914
G01 X72.2454 Y7.9769
G01 X72.2337 Y7.9611
G01 X72.2236 Y7.9443
G01 X72.2152 Y7.9265
G01 X72.2086 Y7.9081
G01 X72.2038 Y7.8890
G01 X72.2010 Y7.8696
G01 X72.2000 Y7.8500
G01 X72.2000 Y4.8500
G01 X72.2010 Y4.8304
G01 X72.2038 Y4.8110
G01 X72.2086 Y4.7919
G01 X72.2152 Y4.7735
G01 X72.2236 Y4.7557
G01 X72.2337 Y4.7389
G01 X72.2454 Y4.7231
G01 X72.2586 Y4.7086
G01 X72.2731 Y4.6954
G01 X72.2889 Y4.6837
G01 X72.3057 Y4.6736
G01 X72.3235 Y4.6652
G01 X72.3419 Y4.6586
G01 X72.3610 Y4.6538
G01 X72.3804 Y4.6510
G01 X72.4000 Y4.6500
G01 X73.2000 Y4.6500
G01 X73.2000 Y4.5420
G01 X72.3627 Y4.5420
G01 X72.3364 Y4.5449
G01 X72.2506 Y4.5770
G01 X72.1800 Y4.6300
G01 X72.1270 Y4.7006
G01 X72.0949 Y4.7864
G01 X72.0920 Y4.8127
G01 X72.0920 Y4.9540
G01 X72.0911 Y4.9730
G01 X72.0884 Y4.9919
G01 X72.0839 Y5.0103
G01 X72.0639 Y5.0785
G01 X72.0577 Y5.0965
G01 X72.0498 Y5.1138
G01 X72.0402 Y5.1302
G01 X72.0292 Y5.1458
G01 X72.0167 Y5.1601
G01 X72.0030 Y5.1733
G01 X71.9493 Y5.2198
G01 X71.9336 Y5.2321
G01 X71.9167 Y5.2428
G01 X71.8988 Y5.2517
G01 X71.8801 Y5.2588
G01 X71.8609 Y5.2640
G01 X71.8085 Y5.2754
G01 X71.7874 Y5.2789
G01 X71.7660 Y5.2800
G01 X70.4357 Y5.2800
G01 X70.4167 Y5.2791
G01 X70.3978 Y5.2764
G01 X70.3793 Y5.2719
G01 X70.3112 Y5.2519
G01 X70.2916 Y5.2450
G01 X70.2728 Y5.2361
G01 X70.2550 Y5.2253
G01 X70.2384 Y5.2127
G01 X70.2134 Y5.1915
G01 X70.1946 Y5.1734
G01 X70.0747 Y5.0416
G01 X69.8855 Y4.8835
G01 X69.6766 Y4.7524
G01 X69.4519 Y4.6510
G01 X69.2154 Y4.5809
G01 X68.9717 Y4.5436
G01 X68.7251 Y4.5398
G01 X68.4803 Y4.5694
G01 X68.2418 Y4.6320
G01 X68.0140 Y4.7263
G01 X67.8011 Y4.8507
G01 X67.6070 Y5.0029
G01 X67.4346 Y5.1809
G01 X67.4207 Y5.1939
G01 X67.4056 Y5.2055
G01 X67.3895 Y5.2157
G01 X67.3278 Y5.2507
G01 X67.3099 Y5.2597
G01 X67.2912 Y5.2668
G01 X67.2719 Y5.2721
G01 X67.2521 Y5.2754
G01 X67.2234 Y5.2787
G01 X67.2005 Y5.2800
G01 X64.4840 Y5.2800
G01 X64.4650 Y5.2791
G01 X64.4461 Y5.2764
G01 X64.4277 Y5.2719
G01 X64.3595 Y5.2519
G01 X64.3415 Y5.2457
G01 X64.3242 Y5.2378
G01 X64.3077 Y5.2282
G01 X64.2922 Y5.2172
G01 X64.2779 Y5.2047
G01 X64.2647 Y5.1910
G01 X64.2182 Y5.1373
G01 X64.2059 Y5.1216
G01 X64.1952 Y5.1047
G01 X64.1863 Y5.0868
G01 X64.1792 Y5.0681
G01 X64.1740 Y5.0489
G01 X64.1626 Y4.9965
G01 X64.1591 Y4.9754
G01 X64.1580 Y4.9540
G01 X64.1580 Y4.8127
G01 X64.1551 Y4.7864
G01 X64.1230 Y4.7006
G01 X64.0700 Y4.6300
G01 X63.9994 Y4.5770
G01 X63.9136 Y4.5449
G01 X63.8873 Y4.5420
G01 X63.0500 Y4.5420
G01 X63.0500 Y4.6500
G01 X63.8500 Y4.6500
G01 X63.8696 Y4.6510
G01 X63.8890 Y4.6538
G01 X63.9081 Y4.6586
G01 X63.9265 Y4.6652
G01 X63.9443 Y4.6736
G01 X63.9611 Y4.6837
G01 X63.9769 Y4.6954
G01 X63.9914 Y4.7086
G01 X64.0046 Y4.7231
G01 X64.0163 Y4.7389
G01 X64.0264 Y4.7557
G01 X64.0348 Y4.7735
G01 X64.0414 Y4.7919
G01 X64.0462 Y4.8110
G01 X64.0490 Y4.8304
G01 X64.0500 Y4.8500
G01 X64.0500 Y7.8500
G01 X64.0490 Y7.8696
G01 X64.0462 Y7.8890
G01 X64.0414 Y7.9081
G01 X64.0348 Y7.9265
G01 X64.0264 Y7.9443
G01 X64.0163 Y7.9611
G01 X64.0046 Y7.9769
G01 X63.9914 Y7.9914
G01 X63.9769 Y8.0046
G01 X63.9611 Y8.0163
G01 X63.9443 Y8.0264
G01 X63.9265 Y8.0348
G01 X63.9081 Y8.0414
G01 X63.8890 Y8.0462
G01 X63.8696 Y8.0490
G01 X63.8500 Y8.0500
G01 X60.8500 Y8.0500
G01 X60.8304 Y8.0490
G01 X60.8110 Y8.0462
G01 X60.7919 Y8.0414
G01 X60.7735 Y8.0348
G01 X60.7557 Y8.0264
G01 X60.7389 Y8.0163
G01 X60.7231 Y8.0046
G01 X60.7086 Y7.9914
G01 X60.6954 Y7.9769
G01 X60.6837 Y7.9611
G01 X60.6736 Y7.9443
G01 X60.6652 Y7.9265
G01 X60.6586 Y7.9081
G01 X60.6538 Y7.8890
G01 X60.6510 Y7.8696
G01 X60.6500 Y7.8500
G01 X60.6500 Y4.8500
G01 X60.6510 Y4.8304
G01 X60.6538 Y4.8110
G01 X60.6586 Y4.7919
G01 X60.6652 Y4.7735
G01 X60.6736 Y4.7557
G01 X60.6837 Y4.7389
G01 X60.6954 Y4.7231
G01 X60.7086 Y4.7086
G01 X60.7231 Y4.6954
G01 X60.7389 Y4.6837
G01 X60.7557 Y4.6736
G01 X60.7735 Y4.6652
G01 X60.7919 Y4.6586
G01 X60.8110 Y4.6538
G01 X60.8304 Y4.6510
G01 X60.8500 Y4.6500
G01 X61.6500 Y4.6500
G01 X61.6500 Y4.5420
G01 X60.8127 Y4.5420
G01 X60.7864 Y4.5449
G01 X60.7006 Y4.5770
G01 X60.6300 Y4.6300
G01 X60.5770 Y4.7006
G01 X60.5449 Y4.7864
G01 X60.5420 Y4.8127
G01 X60.5420 Y4.9540
G01 X60.5411 Y4.9730
G01 X60.5384 Y4.9919
G01 X60.5339 Y5.0103
G01 X60.5139 Y5.0785
G01 X60.5077 Y5.0965
G01 X60.4998 Y5.1138
G01 X60.4902 Y5.1302
G01 X60.4792 Y5.1458
G01 X60.4667 Y5.1601
G01 X60.4530 Y5.1733
G01 X60.3993 Y5.2198
G01 X60.3836 Y5.2321
G01 X60.3667 Y5.2428
G01 X60.3488 Y5.2517
G01 X60.3301 Y5.2588
G01 X60.3109 Y5.2640
G01 X60.2585 Y5.2754
G01 X60.2374 Y5.2789
G01 X60.2160 Y5.2800
G01 X58.8857 Y5.2800
G01 X58.8667 Y5.2791
G01 X58.8478 Y5.2764
G01 X58.8293 Y5.2719
G01 X58.7612 Y5.2519
G01 X58.7416 Y5.2450
G01 X58.7228 Y5.2361
G01 X58.7050 Y5.2253
G01 X58.6884 Y5.2127
G01 X58.6634 Y5.1915
G01 X58.6446 Y5.1734
G01 X58.5247 Y5.0416
G01 X58.3355 Y4.8835
G01 X58.1266 Y4.7524
G01 X57.9019 Y4.6510
G01 X57.6654 Y4.5809
G01 X57.4217 Y4.5436
G01 X57.1751 Y4.5398
G01 X56.9303 Y4.5694
G01 X56.6918 Y4.6320
G01 X56.4640 Y4.7263
G01 X56.2511 Y4.8507
G01 X56.0570 Y5.0029
G01 X55.8846 Y5.1809
G01 X55.8707 Y5.1939
G01 X55.8556 Y5.2055
G01 X55.8395 Y5.2157
G01 X55.7778 Y5.2507
G01 X55.7599 Y5.2597
G01 X55.7412 Y5.2668
G01 X55.7219 Y5.2721
G01 X55.7021 Y5.2754
G01 X55.6734 Y5.2787
G01 X55.6505 Y5.2800
G01 X52.9340 Y5.2800
G01 X52.9150 Y5.2791
G01 X52.8961 Y5.2764
G01 X52.8777 Y5.2719
G01 X52.8095 Y5.2519
G01 X52.7915 Y5.2457
G01 X52.7742 Y5.2378
G01 X52.7577 Y5.2282
G01 X52.7422 Y5.2172
G01 X52.7279 Y5.2047
G01 X52.7147 Y5.1910
G01 X52.6682 Y5.1373
G01 X52.6559 Y5.1216
G01 X52.6452 Y5.1047
G01 X52.6363 Y5.0868
G01 X52.6292 Y5.0681
G01 X52.6240 Y5.0489
G01 X52.6126 Y4.9965
G01 X52.6091 Y4.9754
G01 X52.6080 Y4.9540
G01 X52.6080 Y4.8127
G01 X52.6051 Y4.7864
G01 X52.5730 Y4.7006
G01 X52.5200 Y4.6300
G01 X52.4494 Y4.5770
G01 X52.3636 Y4.5449
G01 X52.3373 Y4.5420
G01 X51.5000 Y4.5420
G01 X51.5000 Y4.6500
G01 X52.3000 Y4.6500
G01 X52.3196 Y4.6510
G01 X52.3390 Y4.6538
G01 X52.3581 Y4.6586
G01 X52.3765 Y4.6652
G01 X52.3943 Y4.6736
G01 X52.4111 Y4.6837
G01 X52.4269 Y4.6954
G01 X52.4414 Y4.7086
G01 X52.4546 Y4.7231
G01 X52.4663 Y4.7389
G01 X52.4764 Y4.7557
G01 X52.4848 Y4.7735
G01 X52.4914 Y4.7919
G01 X52.4962 Y4.8110
G01 X52.4990 Y4.8304
G01 X52.5000 Y4.8500
G01 X52.5000 Y7.8500
G01 X52.4990 Y7.8696
G01 X52.4962 Y7.8890
G01 X52.4914 Y7.9081
G01 X52.4848 Y7.9265
G01 X52.4764 Y7.9443
G01 X52.4663 Y7.9611
G01 X52.4546 Y7.9769
G01 X52.4414 Y7.9914
G01 X52.4269 Y8.0046
G01 X52.4111 Y8.0163
G01 X52.3943 Y8.0264
G01 X52.3765 Y8.0348
G01 X52.3581 Y8.0414
G01 X52.3390 Y8.0462
G01 X52.3196 Y8.0490
G01 X52.3000 Y8.0500
G01 X49.3000 Y8.0500
G01 X49.2804 Y8.0490
G01 X49.2610 Y8.0462
G01 X49.2419 Y8.0414
G01 X49.2235 Y8.0348
G01 X49.2057 Y8.0264
G01 X49.1889 Y8.0163
G01 X49.1731 Y8.0046
G01 X49.1586 Y7.9914
G01 X49.1454 Y7.9769
G01 X49.1337 Y7.9611
G01 X49.1236 Y7.9443
G01 X49.1152 Y7.9265
G01 X49.1086 Y7.9081
G01 X49.1038 Y7.8890
G01 X49.1010 Y7.8696
G01 X49.1000 Y7.8500
G01 X49.1000 Y4.8500
G01 X49.1010 Y4.8304
G01 X49.1038 Y4.8110
G01 X49.1086 Y4.7919
G01 X49.1152 Y4.7735
G01 X49.1236 Y4.7557
G01 X49.1337 Y4.7389
G01 X49.1454 Y4.7231
G01 X49.1586 Y4.7086
G01 X49.1731 Y4.6954
G01 X49.1889 Y4.6837
G01 X49.2057 Y4.6736
G01 X49.2235 Y4.6652
G01 X49.2419 Y4.6586
G01 X49.2610 Y4.6538
G01 X49.2804 Y4.6510
G01 X49.3000 Y4.6500
G01 X50.1000 Y4.6500
G01 X50.1000 Y4.5420
G01 X49.2627 Y4.5420
G01 X49.2364 Y4.5449
G01 X49.1506 Y4.5770
G01 X49.0800 Y4.6300
G01 X49.0270 Y4.7006
G01 X48.9949 Y4.7864
G01 X48.9920 Y4.8127
G01 X48.9920 Y4.9540
G01 X48.9911 Y4.9730
G01 X48.9884 Y4.9919
G01 X48.9839 Y5.0103
G01 X48.9639 Y5.0785
G01 X48.9577 Y5.0965
G01 X48.9498 Y5.1138
G01 X48.9402 Y5.1302
G01 X48.9292 Y5.1458
G01 X48.9167 Y5.1601
G01 X48.9030 Y5.1733
G01 X48.8493 Y5.2198
G01 X48.8336 Y5.2321
G01 X48.8167 Y5.2428
G01 X48.7988 Y5.2517
G01 X48.7801 Y5.2588
G01 X48.7609 Y5.2640
G01 X48.7085 Y5.2754
G01 X48.6874 Y5.2789
G01 X48.6660 Y5.2800
G01 X47.3357 Y5.2800
G01 X47.3167 Y5.2791
G01 X47.2978 Y5.2764
G01 X47.2793 Y5.2719
G01 X47.2112 Y5.2519
G01 X47.1916 Y5.2450
G01 X47.1728 Y5.2361
G01 X47.1550 Y5.2253
G01 X47.1384 Y5.2127
G01 X47.1134 Y5.1915
G01 X47.0946 Y5.1734
G01 X46.9747 Y5.0416
G01 X46.7855 Y4.8835
G01 X46.5766 Y4.7524
G01 X46.3519 Y4.6510
G01 X46.1154 Y4.5809
G01 X45.8717 Y4.5436
G01 X45.6251 Y4.5398
G01 X45.3803 Y4.5694
G01 X45.1418 Y4.6320
G01 X44.9140 Y4.7263
G01 X44.7011 Y4.8507
G01 X44.5070 Y5.0029
G01 X44.3346 Y5.1809
G01 X44.3207 Y5.1939
G01 X44.3056 Y5.2055
G01 X44.2895 Y5.2157
G01 X44.2278 Y5.2507
G01 X44.2099 Y5.2597
G01 X44.1912 Y5.2668
G01 X44.1719 Y5.2721
G01 X44.1521 Y5.2754
G01 X44.1234 Y5.2787
G01 X44.1005 Y5.2800
G01 X38.9640 Y5.2800
G01 X38.9450 Y5.2791
G01 X38.9261 Y5.2764
G01 X38.9077 Y5.2719
G01 X38.8395 Y5.2519
G01 X38.8215 Y5.2457
G01 X38.8042 Y5.2378
G01 X38.7877 Y5.2282
G01 X38.7722 Y5.2172
G01 X38.7579 Y5.2047
G01 X38.7447 Y5.1910
G01 X38.6982 Y5.1373
G01 X38.6859 Y5.1216
G01 X38.6752 Y5.1047
G01 X38.6663 Y5.0868
G01 X38.6592 Y5.0681
G01 X38.6540 Y5.0489
G01 X38.6426 Y4.9965
G01 X38.6391 Y4.9754
G01 X38.6380 Y4.9540
G01 X38.6380 Y4.8127
G01 X38.6351 Y4.7864
G01 X38.6030 Y4.7006
G01 X38.5500 Y4.6300
G01 X38.4794 Y4.5770
G01 X38.3936 Y4.5449
G01 X38.3673 Y4.5420
G01 X37.5300 Y4.5420
G01 X37.5300 Y4.6500
G01 X38.3300 Y4.6500
G01 X38.3496 Y4.6510
G01 X38.3690 Y4.6538
G01 X38.3881 Y4.6586
G01 X38.4065 Y4.6652
G01 X38.4243 Y4.6736
G01 X38.4411 Y4.6837
G01 X38.4569 Y4.6954
G01 X38.4714 Y4.7086
G01 X38.4846 Y4.7231
G01 X38.4963 Y4.7389
G01 X38.5064 Y4.7557
G01 X38.5148 Y4.7735
G01 X38.5214 Y4.7919
G01 X38.5262 Y4.8110
G01 X38.5290 Y4.8304
G01 X38.5300 Y4.8500
G01 X38.5300 Y7.8500
G01 X38.5290 Y7.8696
G01 X38.5262 Y7.8890
G01 X38.5214 Y7.9081
G01 X38.5148 Y7.9265
G01 X38.5064 Y7.9443
G01 X38.4963 Y7.9611
G01 X38.4846 Y7.9769
G01 X38.4714 Y7.9914
G01 X38.4569 Y8.0046
G01 X38.4411 Y8.0163
G01 X38.4243 Y8.0264
G01 X38.4065 Y8.0348
G01 X38.3881 Y8.0414
G01 X38.3690 Y8.0462
G01 X38.3496 Y8.0490
G01 X38.3300 Y8.0500
G01 X35.3300 Y8.0500
G01 X35.3104 Y8.0490
G01 X35.2910 Y8.0462
G01 X35.2719 Y8.0414
G01 X35.2535 Y8.0348
G01 X35.2357 Y8.0264
G01 X35.2189 Y8.0163
G01 X35.2031 Y8.0046
G01 X35.1886 Y7.9914
G01 X35.1754 Y7.9769
G01 X35.1637 Y7.9611
G01 X35.1536 Y7.9443
G01 X35.1452 Y7.9265
G01 X35.1386 Y7.9081
G01 X35.1338 Y7.8890
G01 X35.1310 Y7.8696
G01 X35.1300 Y7.8500
G01 X35.1300 Y4.8500
G01 X35.1310 Y4.8304
G01 X35.1338 Y4.8110
G01 X35.1386 Y4.7919
G01 X35.1452 Y4.7735
G01 X35.1536 Y4.7557
G01 X35.1637 Y4.7389
G01 X35.1754 Y4.7231
G01 X35.1886 Y4.7086
G01 X35.2031 Y4.6954
G01 X35.2189 Y4.6837
G01 X35.2357 Y4.6736
G01 X35.2535 Y4.6652
G01 X35.2719 Y4.6586
G01 X35.2910 Y4.6538
G01 X35.3104 Y4.6510
G01 X35.3300 Y4.6500
G01 X36.1300 Y4.6500
G01 X36.1300 Y4.5420
G01 X35.2927 Y4.5420
G01 X35.2664 Y4.5449
G01 X35.1806 Y4.5770
G01 X35.1100 Y4.6300
G01 X35.0570 Y4.7006
G01 X35.0249 Y4.7864
G01 X35.0220 Y4.8127
G01 X35.0220 Y4.9540
G01 X35.0211 Y4.9730
G01 X35.0184 Y4.9919
G01 X35.0139 Y5.0103
G01 X34.9939 Y5.0785
G01 X34.9877 Y5.0965
G01 X34.9798 Y5.1138
G01 X34.9702 Y5.1302
G01 X34.9592 Y5.1458
G01 X34.9467 Y5.1601
G01 X34.9330 Y5.1733
G01 X34.8793 Y5.2198
G01 X34.8636 Y5.2321
G01 X34.8467 Y5.2428
G01 X34.8288 Y5.2517
G01 X34.8101 Y5.2588
G01 X34.7909 Y5.2640
G01 X34.7385 Y5.2754
G01 X34.7174 Y5.2789
G01 X34.6960 Y5.2800
G01 X33.3657 Y5.2800
G01 X33.3467 Y5.2791
G01 X33.3278 Y5.2764
G01 X33.3093 Y5.2719
G01 X33.2412 Y5.2519
G01 X33.2216 Y5.2450
G01 X33.2028 Y5.2361
G01 X33.1850 Y5.2253
G01 X33.1684 Y5.2127
G01 X33.1434 Y5.1915
G01 X33.1246 Y5.1734
G01 X33.0047 Y5.0416
G01 X32.8155 Y4.8835
G01 X32.6066 Y4.7524
G01 X32.3819 Y4.6510
G01 X32.1454 Y4.5809
G01 X31.9017 Y4.5436
G01 X31.6551 Y4.5398
G01 X31.4103 Y4.5694
G01 X31.1718 Y4.6320
G01 X30.9440 Y4.7263
G01 X30.7311 Y4.8507
G01 X30.5370 Y5.0029
G01 X30.3646 Y5.1809
G01 X30.3507 Y5.1939
G01 X30.3356 Y5.2055
G01 X30.3195 Y5.2157
G01 X30.2578 Y5.2507
G01 X30.2399 Y5.2597
G01 X30.2212 Y5.2668
G01 X30.2019 Y5.2721
G01 X30.1821 Y5.2754
G01 X30.1534 Y5.2787
G01 X30.1305 Y5.2800
G01 X23.4940 Y5.2800
G01 X23.4750 Y5.2791
G01 X23.4561 Y5.2764
G01 X23.4377 Y5.2719
G01 X23.3695 Y5.2519
G01 X23.3515 Y5.2457
G01 X23.3342 Y5.2378
G01 X23.3178 Y5.2282
G01 X23.3022 Y5.2172
G01 X23.2879 Y5.2047
G01 X23.2747 Y5.1910
G01 X23.2282 Y5.1373
G01 X23.2159 Y5.1216
G01 X23.2052 Y5.1047
G01 X23.1963 Y5.0868
G01 X23.1892 Y5.0681
G01 X23.1840 Y5.0489
G01 X23.1726 Y4.9965
G01 X23.1691 Y4.9754
G01 X23.1680 Y4.9540
G01 X23.1680 Y4.5100
G01 X23.0600 Y4.5100
G01 X23.0600 Y5.0800
G01 X23.0590 Y5.0996
G01 X23.0562 Y5.1190
G01 X23.0514 Y5.1381
G01 X23.0448 Y5.1565
G01 X23.0364 Y5.1743
G01 X23.0263 Y5.1911
G01 X23.0146 Y5.2069
G01 X23.0014 Y5.2214
G01 X22.9869 Y5.2346
G01 X22.9711 Y5.2463
G01 X22.9543 Y5.2564
G01 X22.9365 Y5.2648
G01 X22.9181 Y5.2714
G01 X22.8990 Y5.2762
G01 X22.8796 Y5.2790
G01 X22.8600 Y5.2800
G01 X20.3200 Y5.2800
G01 X20.3004 Y5.2790
G01 X20.2810 Y5.2762
G01 X20.2619 Y5.2714
G01 X20.2435 Y5.2648
G01 X20.2257 Y5.2564
G01 X20.2089 Y5.2463
G01 X20.1931 Y5.2346
G01 X20.1786 Y5.2214
G01 X20.1654 Y5.2069
G01 X20.1537 Y5.1911
G01 X20.1436 Y5.1743
G01 X20.1352 Y5.1565
G01 X20.1286 Y5.1381
G01 X20.1238 Y5.1190
G01 X20.1210 Y5.0996
G01 X20.1200 Y5.0800
G01 X20.1200 Y2.5400
G01 X20.1210 Y2.5204
G01 X20.1238 Y2.5010
G01 X20.1286 Y2.4819
G01 X20.1352 Y2.4635
G01 X20.1436 Y2.4457
G01 X20.1537 Y2.4289
G01 X20.1654 Y2.4131
G01 X20.1786 Y2.3986
G01 X20.1931 Y2.3854
G01 X20.2089 Y2.3737
G01 X20.2257 Y2.3636
G01 X20.2435 Y2.3552
G01 X20.2619 Y2.3486
G01 X20.2810 Y2.3438
G01 X20.3004 Y2.3410
G01 X20.3200 Y2.3400
G01 X20.8900 Y2.3400
G01 X20.8900 Y2.2320
G00 Z2.0000
G00 X20.9900 Y2.1320
G01 F60.00
G01 Z-0.0475
G01 F250.00
G01 X20.4460 Y2.1320
G01 X20.4365 Y2.1315
G01 X20.4271 Y2.1302
G01 X20.4178 Y2.1280
G01 X20.3497 Y2.1079
G01 X20.3407 Y2.1048
G01 X20.3321 Y2.1009
G01 X20.3238 Y2.0961
G01 X20.3161 Y2.0906
G01 X20.3089 Y2.0844
G01 X20.3023 Y2.0775
G01 X20.2558 Y2.0238
G01 X20.2497 Y2.0160
G01 X20.2443 Y2.0075
G01 X20.2398 Y1.9986
G01 X20.2363 Y1.9892
G01 X20.2337 Y1.9796
G01 X20.2223 Y1.9273
G01 X20.2206 Y1.9167
G01 X20.2200 Y1.9060
G01 X20.2205 Y1.8945
G01 X20.2218 Y1.8851
G01 X20.2241 Y1.8758
G01 X20.2441 Y1.8077
G01 X20.2472 Y1.7987
G01 X20.2511 Y1.7901
G01 X20.2559 Y1.7818
G01 X20.2614 Y1.7741
G01 X20.2676 Y1.7669
G01 X20.2745 Y1.7603
G01 X20.3282 Y1.7138
G01 X20.3360 Y1.7077
G01 X20.3445 Y1.7023
G01 X20.3534 Y1.6978
G01 X20.3628 Y1.6943
G01 X20.3724 Y1.6917
G01 X20.4247 Y1.6803
G01 X20.4353 Y1.6786
G01 X20.4460 Y1.6780
G01 X88.2660 Y1.6780
G01 X88.2755 Y1.6785
G01 X88.2849 Y1.6798
G01 X88.2942 Y1.6821
G01 X88.3623 Y1.7021
G01 X88.3713 Y1.7052
G01 X88.3799 Y1.7091
G01 X88.3882 Y1.7139
G01 X88.3959 Y1.7194
G01 X88.4031 Y1.7256
G01 X88.4097 Y1.7325
G01 X88.4562 Y1.7862
G01 X88.4623 Y1.7940
G01 X88.4677 Y1.8025
G01 X88.4722 Y1.8114
G01 X88.4757 Y1.8208
G01 X88.4783 Y1.8304
G01 X88.4897 Y1.8827
G01 X88.4914 Y1.8933
G01 X88.4920 Y1.9040
G01 X88.4920 Y4.9540
G01 X88.4915 Y4.9635
G01 X88.4902 Y4.9729
G01 X88.4879 Y4.9822
G01 X88.4679 Y5.0503
G01 X88.4648 Y5.0593
G01 X88.4609 Y5.0679
G01 X88.4561 Y5.0762
G01 X88.4506 Y5.0839
G01 X88.4444 Y5.0911
G01 X88.4375 Y5.0977
G01 X88.3838 Y5.1442
G01 X88.3760 Y5.1503
G01 X88.3675 Y5.1557
G01 X88.3586 Y5.1602
G01 X88.3492 Y5.1637
G01 X88.3396 Y5.1663
G01 X88.2873 Y5.1777
G01 X88.2767 Y5.1794
G01 X88.2660 Y5.1800
G01 X87.5840 Y5.1800
G01 X87.5745 Y5.1795
G01 X87.5651 Y5.1782
G01 X87.5558 Y5.1759
G01 X87.4877 Y5.1559
G01 X87.4787 Y5.1528
G01 X87.4701 Y5.1489
G01 X87.4618 Y5.1441
G01 X87.4541 Y5.1386
G01 X87.4469 Y5.1324
G01 X87.4403 Y5.1255
G01 X87.3938 Y5.0718
G01 X87.3877 Y5.0640
G01 X87.3823 Y5.0555
G01 X87.3778 Y5.0466
G01 X87.3743 Y5.0372
G01 X87.3717 Y5.0276
G01 X87.3603 Y4.9753
G01 X87.3586 Y4.9647
G01 X87.3580 Y4.9540
G01 X87.3580 Y4.8080
G01 X87.3534 Y4.7647
G01 X87.3526 Y4.7616
G01 X87.3122 Y4.6537
G01 X87.3105 Y4.6506
G01 X87.2425 Y4.5599
G01 X87.2401 Y4.5575
G01 X87.1494 Y4.4895
G01 X87.1463 Y4.4878
G01 X87.0384 Y4.4474
G01 X87.0353 Y4.4466
G01 X86.9920 Y4.4420
G01 X86.0500 Y4.4420
G01 X86.0500 Y4.7500
G01 X86.9500 Y4.7500
G01 X86.9598 Y4.7505
G01 X86.9695 Y4.7519
G01 X86.9790 Y4.7543
G01 X86.9883 Y4.7576
G01 X86.9971 Y4.7618
G01 X87.0056 Y4.7669
G01 X87.0134 Y4.7727
G01 X87.0207 Y4.7793
G01 X87.0273 Y4.7866
G01 X87.0331 Y4.7944
G01 X87.0382 Y4.8029
G01 X87.0424 Y4.8117
G01 X87.0457 Y4.8210
G01 X87.0481 Y4.8305
G01 X87.0495 Y4.8402
G01 X87.0500 Y4.8500
G01 X87.0500 Y7.8500
G01 X87.0495 Y7.8598
G01 X87.0481 Y7.8695
G01 X87.0457 Y7.8790
G01 X87.0424 Y7.8883
G01 X87.0382 Y7.8971
G01 X87.0331 Y7.9056
G01 X87.0273 Y7.9134
G01 X87.0207 Y7.9207
G01 X87.0134 Y7.9273
G01 X87.0056 Y7.9331
G01 X86.9971 Y7.9382
G01 X86.9883 Y7.9424
G01 X86.9790 Y7.9457
G01 X86.9695 Y7.9481
G01 X86.9598 Y7.9495
G01 X86.9500 Y7.9500
G01 X83.9500 Y7.9500
G01 X83.9402 Y7.9495
G01 X83.9305 Y7.9481
G01 X83.9210 Y7.9457
G01 X83.9117 Y7.9424
G01 X83.9029 Y7.9382
G01 X83.8944 Y7.9331
G01 X83.8866 Y7.9273
G01 X83.8793 Y7.9207
G01 X83.8727 Y7.9134
G01 X83.8669 Y7.9056
G01 X83.8618 Y7.8971
G01 X83.8576 Y7.8883
G01 X83.8543 Y7.8790
G01 X83.8519 Y7.8695
G01 X83.8505 Y7.8598
G01 X83.8500 Y7.8500
G01 X83.8500 Y4.8500
G01 X83.8505 Y4.8402
G01 X83.8519 Y4.8305
G01 X83.8543 Y4.8210
G01 X83.8576 Y4.8117
G01 X83.8618 Y4.8029
G01 X83.8669 Y4.7944
G01 X83.8727 Y4.7866
G01 X83.8793 Y4.7793
G01 X83.8866 Y4.7727
G01 X83.8944 Y4.7669
G01 X83.9029 Y4.7618
G01 X83.9117 Y4.7576
G01 X83.9210 Y4.7543
G01 X83.9305 Y4.7519
G01 X83.9402 Y4.7505
G01 X83.9500 Y4.7500
G01 X84.8500 Y4.7500
G01 X84.8500 Y4.4420
G01 X83.9080 Y4.4420
G01 X83.8647 Y4.4466
G01 X83.8616 Y4.4474
G01 X83.7537 Y4.4878
G01 X83.7506 Y4.4895
G01 X83.6599 Y4.5575
G01 X83.6575 Y4.5599
G01 X83.5895 Y4.6506
G01 X83.5878 Y4.6537
G01 X83.5474 Y4.7616
G01 X83.5466 Y4.7647
G01 X83.5420 Y4.8080
G01 X83.5420 Y4.9540
G01 X83.5415 Y4.9635
G01 X83.5402 Y4.9729
G01 X83.5379 Y4.9822
G01 X83.5179 Y5.0503
G01 X83.5148 Y5.0593
G01 X83.5109 Y5.0679
G01 X83.5061 Y5.0762
G01 X83.5006 Y5.0839
G01 X83.4944 Y5.0911
G01 X83.4875 Y5.0977
G01 X83.4338 Y5.1442
G01 X83.4260 Y5.1503
G01 X83.4175 Y5.1557
G01 X83.4086 Y5.1602
G01 X83.3992 Y5.1637
G01 X83.3896 Y5.1663
G01 X83.3373 Y5.1777
G01 X83.3267 Y5.1794
G01 X83.3160 Y5.1800
G01 X81.9857 Y5.1800
G01 X81.9762 Y5.1795
G01 X81.9668 Y5.1782
G01 X81.9575 Y5.1759
G01 X81.8894 Y5.1559
G01 X81.8796 Y5.1525
G01 X81.8702 Y5.1481
G01 X81.8613 Y5.1427
G01 X81.8530 Y5.1364
G01 X81.8279 Y5.1152
G01 X81.8185 Y5.1061
G01 X81.6940 Y4.9693
G01 X81.4944 Y4.8024
G01 X81.2740 Y4.6641
G01 X81.0368 Y4.5570
G01 X80.7873 Y4.4831
G01 X80.5301 Y4.4437
G01 X80.2699 Y4.4397
G01 X80.0115 Y4.4709
G01 X79.7598 Y4.5370
G01 X79.5194 Y4.6365
G01 X79.2948 Y4.7678
G01 X79.0900 Y4.9284
G01 X78.9128 Y5.1113
G01 X78.9058 Y5.1178
G01 X78.8983 Y5.1236
G01 X78.8902 Y5.1287
G01 X78.8285 Y5.1637
G01 X78.8195 Y5.1682
G01 X78.8102 Y5.1718
G01 X78.8005 Y5.1744
G01 X78.7906 Y5.1760
G01 X78.7619 Y5.1793
G01 X78.7505 Y5.1800
G01 X76.0340 Y5.1800
G01 X76.0245 Y5.1795
G01 X76.0151 Y5.1782
G01 X76.0058 Y5.1759
G01 X75.9377 Y5.1559
G01 X75.9287 Y5.1528
G01 X75.9201 Y5.1489
G01 X75.9118 Y5.1441
G01 X75.9041 Y5.1386
G01 X75.8969 Y5.1324
G01 X75.8903 Y5.1255
G01 X75.8438 Y5.0718
G01 X75.8377 Y5.0640
G01 X75.8323 Y5.0555
G01 X75.8278 Y5.0466
G01 X75.8243 Y5.0372
G01 X75.8217 Y5.0276
G01 X75.8103 Y4.9753
G01 X75.8086 Y4.9647
G01 X75.8080 Y4.9540
G01 X75.8080 Y4.8080
G01 X75.8034 Y4.7647
G01 X75.8026 Y4.7616
G01 X75.7622 Y4.6537
G01 X75.7605 Y4.6506
G01 X75.6925 Y4.5599
G01 X75.6901 Y4.5575
G01 X75.5994 Y4.4895
G01 X75.5963 Y4.4878
G01 X75.4884 Y4.4474
G01 X75.4853 Y4.4466
G01 X75.4420 Y4.4420
G01 X74.5000 Y4.4420
G01 X74.5000 Y4.7500
G01 X75.4000 Y4.7500
G01 X75.4098 Y4.7505
G01 X75.4195 Y4.7519
G01 X75.4290 Y4.7543
G01 X75.4383 Y4.7576
G01 X75.4471 Y4.7618
G01 X75.4556 Y4.7669
G01 X75.4634 Y4.7727
G01 X75.4707 Y4.7793
G01 X75.4773 Y4.7866
G01 X75.4831 Y4.7944
G01 X75.4882 Y4.8029
G01 X75.4924 Y4.8117
G01 X75.4957 Y4.8210
G01 X75.4981 Y4.8305
G01 X75.4995 Y4.8402
G01 X75.5000 Y4.8500
G01 X75.5000 Y7.8500
G01 X75.4995 Y7.8598
G01 X75.4981 Y7.8695
G01 X75.4957 Y7.8790
G01 X75.4924 Y7.8883
G01 X75.4882 Y7.8971
G01 X75.4831 Y7.9056
G01 X75.4773 Y7.9134
G01 X75.4707 Y7.9207
G01 X75.4634 Y7.9273
G01 X75.4556 Y7.9331
G01 X75.4471 Y7.9382
G01 X75.4383 Y7.9424
G01 X75.4290 Y7.9457
G01 X75.4195 Y7.9481
G01 X75.4098 Y7.9495
G01 X75.4000 Y7.9500
G01 X72.4000 Y7.9500
G01 X72.3902 Y7.9495
G01 X72.3805 Y7.9481
G01 X72.3710 Y7.9457
G01 X72.3617 Y7.9424
G01 X72.3529 Y7.9382
G01 X72.3444 Y7.9331
G01 X72.3366 Y7.9273
G01 X72.3293 Y7.9207
G01 X72.3227 Y7.9134
G01 X72.3169 Y7.9056
G01 X72.3118 Y7.8971
G01 X72.3076 Y7.8883
G01 X72.3043 Y7.8790
G01 X72.3019 Y7.8695
G01 X72.3005 Y7.8598
G01 X72.3000 Y7.8500
G01 X72.3000 Y4.8500
G01 X72.3005 Y4.8402
G01 X72.3019 Y4.8305
G01 X72.3043 Y4.8210
G01 X72.3076 Y4.8117
G01 X72.3118 Y4.8029
G01 X72.3169 Y4.7944
G01 X72.3227 Y4.7866
G01 X72.3293 Y4.7793
G01 X72.3366 Y4.7727
G01 X72.3444 Y4.7669
G01 X72.3529 Y4.7618
G01 X72.3617 Y4.7576
G01 X72.3710 Y4.7543
G01 X72.3805 Y4.7519
G01 X72.3902 Y4.7505
G01 X72.4000 Y4.7500
G01 X73.3000 Y4.7500
G01 X73.3000 Y4.4420
G01 X72.3580 Y4.4420
G01 X72.3147 Y4.4466
G01 X72.3116 Y4.4474
G01 X72.2037 Y4.4878
G01 X72.2006 Y4.4895
G01 X72.1099 Y4.5575
G01 X72.1075 Y4.5599
G01 X72.0395 Y4.6506
G01 X72.0378 Y4.6537
G01 X71.9974 Y4.7616
G01 X71.9966 Y4.7647
G01 X71.9920 Y4.8080
G01 X71.9920 Y4.9540
G01 X71.9915 Y4.9635
G01 X71.9902 Y4.9729
G01 X71.9879 Y4.9822
G01 X71.9679 Y5.0503
G01 X71.9648 Y5.0593
G01 X71.9609 Y5.0679
G01 X71.9561 Y5.0762
G01 X71.9506 Y5.0839
G01 X71.9444 Y5.0911
G01 X71.9375 Y5.0977
G01 X71.8838 Y5.1442
G01 X71.8760 Y5.1503
G01 X71.8675 Y5.1557
G01 X71.8586 Y5.1602
G01 X71.8492 Y5.1637
G01 X71.8396 Y5.1663
G01 X71.7873 Y5.1777
G01 X71.7767 Y5.1794
G01 X71.7660 Y5.1800
G01 X70.4357 Y5.1800
G01 X70.4262 Y5.1795
G01 X70.4168 Y5.1782
G01 X70.4075 Y5.1759
G01 X70.3394 Y5.1559
G01 X70.3296 Y5.1525
G01 X70.3202 Y5.1481
G01 X70.3113 Y5.1427
G01 X70.3030 Y5.1364
G01 X70.2779 Y5.1152
G01 X70.2685 Y5.1061
G01 X70.1440 Y4.9693
G01 X69.9444 Y4.8024
G01 X69.7240 Y4.6641
G01 X69.4868 Y4.5570
G01 X69.2373 Y4.4831
G01 X68.9801 Y4.4437
G01 X68.7199 Y4.4397
G01 X68.4615 Y4.4709
G01 X68.2098 Y4.5370
G01 X67.9694 Y4.6365
G01 X67.7448 Y4.7678
G01 X67.5400 Y4.9284
G01 X67.3628 Y5.1113
G01 X67.3558 Y5.1178
G01 X67.3483 Y5.1236
G01 X67.3402 Y5.1287
G01 X67.2785 Y5.1637
G01 X67.2695 Y5.1682
G01 X67.2602 Y5.1718
G01 X67.2505 Y5.1744
G01 X67.2406 Y5.1760
G01 X67.2119 Y5.1793
G01 X67.2005 Y5.1800
G01 X64.4840 Y5.1800
G01 X64.4745 Y5.1795
G01 X64.4651 Y5.1782
G01 X64.4558 Y5.1759
G01 X64.3877 Y5.1559
G01 X64.3787 Y5.1528
G01 X64.3701 Y5.1489
G01 X64.3618 Y5.1441
G01 X64.3541 Y5.1386
G01 X64.3469 Y5.1324
G01 X64.3403 Y5.1255
G01 X64.2938 Y5.0718
G01 X64.2877 Y5.0640
G01 X64.2823 Y5.0555
G01 X64.2778 Y5.0466
G01 X64.2743 Y5.0372
G01 X64.2717 Y5.0276
G01 X64.2603 Y4.9753
G01 X64.2586 Y4.9647
G01 X64.2580 Y4.9540
G01 X64.2580 Y4.8080
G01 X64.2534 Y4.7647
G01 X64.2526 Y4.7616
G01 X64.2122 Y4.6537
G01 X64.2105 Y4.6506
G01 X64.1425 Y4.5599
G01 X64.1401 Y4.5575
G01 X64.0494 Y4.4895
G01 X64.0463 Y4.4878
G01 X63.9384 Y4.4474
G01 X63.9353 Y4.4466
G01 X63.8920 Y4.4420
G01 X62.9500 Y4.4420
G01 X62.9500 Y4.7500
G01 X63.8500 Y4.7500
G01 X63.8598 Y4.7505
G01 X63.8695 Y4.7519
G01 X63.8790 Y4.7543
G01 X63.8883 Y4.7576
G01 X63.8971 Y4.7618
G01 X63.9056 Y4.7669
G01 X63.9134 Y4.7727
G01 X63.9207 Y4.7793
G01 X63.9273 Y4.7866
G01 X63.9331 Y4.7944
G01 X63.9382 Y4.8029
G01 X63.9424 Y4.8117
G01 X63.9457 Y4.8210
G01 X63.9481 Y4.8305
G01 X63.9495 Y4.8402
G01 X63.9500 Y4.8500
G01 X63.9500 Y7.8500
G01 X63.9495 Y7.8598
G01 X63.9481 Y7.8695
G01 X63.9457 Y7.8790
G01 X63.9424 Y7.8883
G01 X63.9382 Y7.8971
G01 X63.9331 Y7.9056
G01 X63.9273 Y7.9134
G01 X63.9207 Y7.9207
G01 X63.9134 Y7.9273
G01 X63.9056 Y7.9331
G01 X63.8971 Y7.9382
G01 X63.8883 Y7.9424
G01 X63.8790 Y7.9457
G01 X63.8695 Y7.9481
G01 X63.8598 Y7.9495
G01 X63.8500 Y7.9500
G01 X60.8500 Y7.9500
G01 X60.8402 Y7.9495
G01 X60.8305 Y7.9481
G01 X60.8210 Y7.9457
G01 X60.8117 Y7.9424
G01 X60.8029 Y7.9382
G01 X60.7944 Y7.9331
G01 X60.7866 Y7.9273
G01 X60.7793 Y7.9207
G01 X60.7727 Y7.9134
G01 X60.7669 Y7.9056
G01 X60.7618 Y7.8971
G01 X60.7576 Y7.8883
G01 X60.7543 Y7.8790
G01 X60.7519 Y7.8695
G01 X60.7505 Y7.8598
G01 X60.7500 Y7.8500
G01 X60.7500 Y4.8500
G01 X60.7505 Y4.8402
G01 X60.7519 Y4.8305
G01 X60.7543 Y4.8210
G01 X60.7576 Y4.8117
G01 X60.7618 Y4.8029
G01 X60.7669 Y4.7944
G01 X60.7727 Y4.7866
G01 X60.7793 Y4.7793
G01 X60.7866 Y4.7727
G01 X60.7944 Y4.7669
G01 X60.8029 Y4.7618
G01 X60.8117 Y4.7576
G01 X60.8210 Y4.7543
G01 X60.8305 Y4.7519
G01 X60.8402 Y4.7505
G01 X60.8500 Y4.7500
G01 X61.7500 Y4.7500
G01 X61.7500 Y4.4420
G01 X60.8080 Y4.4420
G01 X60.7647 Y4.4466
G01 X60.7616 Y4.4474
G01 X60.6537 Y4.4878
G01 X60.6506 Y4.4895
G01 X60.5599 Y4.5575
G01 X60.5575 Y4.5599
G01 X60.4895 Y4.6506
G01 X60.4878 Y4.6537
G01 X60.4474 Y4.7616
G01 X60.4466 Y4.7647
G01 X60.4420 Y4.8080
G01 X60.4420 Y4.9540
G01 X60.4415 Y4.9635
G01 X60.4402 Y4.9729
G01 X60.4379 Y4.9822
G01 X60.4179 Y5.0503
G01 X60.4148 Y5.0593
G01 X60.4109 Y5.0679
G01 X60.4061 Y5.0762
G01 X60.4006 Y5.0839
G01 X60.3944 Y5.0911
G01 X60.3875 Y5.0977
G01 X60.3338 Y5.1442
G01 X60.3260 Y5.1503
G01 X60.3175 Y5.1557
G01 X60.3086 Y5.1602
G01 X60.2992 Y5.1637
G01 X60.2896 Y5.1663
G01 X60.2373 Y5.1777
G01 X60.2267 Y5.1794
G01 X60.2160 Y5.1800
G01 X58.8857 Y5.1800
G01 X58.8762 Y5.1795
G01 X58.8668 Y5.1782
G01 X58.8575 Y5.1759
G01 X58.7894 Y5.1559
G01 X58.7796 Y5.1525
G01 X58.7702 Y5.1481
G01 X58.7613 Y5.1427
G01 X58.7530 Y5.1364
G01 X58.7279 Y5.1152
G01 X58.7185 Y5.1061
G01 X58.5940 Y4.9693
G01 X58.3944 Y4.8024
G01 X58.1740 Y4.6641
G01 X57.9368 Y4.5570
G01 X57.6873 Y4.4831
G01 X57.4301 Y4.4437
G01 X57.1699 Y4.4397
G01 X56.9115 Y4.4709
G01 X56.6598 Y4.5370
G01 X56.4194 Y4.6365
G01 X56.1948 Y4.7678
G01 X55.9900 Y4.9284
G01 X55.8128 Y5.1113
G01 X55.8058 Y5.1178
G01 X55.7983 Y5.1236
G01 X55.7902 Y5.1287
G01 X55.7285 Y5.1637
G01 X55.7195 Y5.1682
G01 X55.7102 Y5.1718
G01 X55.7005 Y5.1744
G01 X55.6906 Y5.1760
G01 X55.6619 Y5.1793
G01 X55.6505 Y5.1800
G01 X52.9340 Y5.1800
G01 X52.9245 Y5.1795
G01 X52.9151 Y5.1782
G01 X52.9058 Y5.1759
G01 X52.8377 Y5.1559
G01 X52.8287 Y5.1528
G01 X52.8201 Y5.1489
G01 X52.8118 Y5.1441
G01 X52.8041 Y5.1386
G01 X52.7969 Y5.1324
G01 X52.7903 Y5.1255
G01 X52.7438 Y5.0718
G01 X52.7377 Y5.0640
G01 X52.7323 Y5.0555
G01 X52.7278 Y5.0466
G01 X52.7243 Y5.0372
G01 X52.7217 Y5.0276
G01 X52.7103 Y4.9753
G01 X52.7086 Y4.9647
G01 X52.7080 Y4.9540
G01 X52.7080 Y4.8080
G01 X52.7034 Y4.7647
G01 X52.7026 Y4.7616
G01 X52.6622 Y4.6537
G01 X52.6605 Y4.6506
G01 X52.5925 Y4.5599
G01 X52.5901 Y4.5575
G01 X52.4994 Y4.4895
G01 X52.4963 Y4.4878
G01 X52.3884 Y4.4474
G01 X52.3853 Y4.4466
G01 X52.3420 Y4.4420
G01 X51.4000 Y4.4420
G01 X51.4000 Y4.7500
G01 X52.3000 Y4.7500
G01 X52.3098 Y4.7505
G01 X52.3195 Y4.7519
G01 X52.3290 Y4.7543
G01 X52.3383 Y4.7576
G01 X52.3471 Y4.7618
G01 X52.3556 Y4.7669
G01 X52.3634 Y4.7727
G01 X52.3707 Y4.7793
G01 X52.3773 Y4.7866
G01 X52.3831 Y4.7944
G01 X52.3882 Y4.8029
G01 X52.3924 Y4.8117
G01 X52.3957 Y4.8210
G01 X52.3981 Y4.8305
G01 X52.3995 Y4.8402
G01 X52.4000 Y4.8500
G01 X52.4000 Y7.8500
G01 X52.3995 Y7.8598
G01 X52.3981 Y7.8695
G01 X52.3957 Y7.8790
G01 X52.3924 Y7.8883
G01 X52.3882 Y7.8971
G01 X52.3831 Y7.9056
G01 X52.3773 Y7.9134
G01 X52.3707 Y7.9207
G01 X52.3634 Y7.9273
G01 X52.3556 Y7.9331
G01 X52.3471 Y7.9382
G01 X52.3383 Y7.9424
G01 X52.3290 Y7.9457
G01 X52.3195 Y7.9481
G01 X52.3098 Y7.9495
G01 X52.3000 Y7.9500
G01 X49.3000 Y7.9500
G01 X49.2902 Y7.9495
G01 X49.2805 Y7.9481
G01 X49.2710 Y7.9457
G01 X49.2617 Y7.9424
G01 X49.2529 Y7.9382
G01 X49.2444 Y7.9331
G01 X49.2366 Y7.9273
G01 X49.2293 Y7.9207
G01 X49.2227 Y7.9134
G01 X49.2169 Y7.9056
G01 X49.2118 Y7.8971
G01 X49.2076 Y7.8883
G01 X49.2043 Y7.8790
G01 X49.2019 Y7.8695
G01 X49.2005 Y7.8598
G01 X49.2000 Y7.8500
G01 X49.2000 Y4.8500
G01 X49.2005 Y4.8402
G01 X49.2019 Y4.8305
G01 X49.2043 Y4.8210
G01 X49.2076 Y4.8117
G01 X49.2118 Y4.8029
G01 X49.2169 Y4.7944
G01 X49.2227 Y4.7866
G01 X49.2293 Y4.7793
G01 X49.2366 Y4.7727
G01 X49.2444 Y4.7669
G01 X49.2529 Y4.7618
G01 X49.2617 Y4.7576
G01 X49.2710 Y4.7543
G01 X49.2805 Y4.7519
G01 X49.2902 Y4.7505
G01 X49.3000 Y4.7500
G01 X50.2000 Y4.7500
G01 X50.2000 Y4.4420
G01 X49.2580 Y4.4420
G01 X49.2147 Y4.4466
G01 X49.2116 Y4.4474
G01 X49.1037 Y4.4878
G01 X49.1006 Y4.4895
G01 X49.0099 Y4.5575
G01 X49.0075 Y4.5599
G01 X48.9395 Y4.6506
G01 X48.9378 Y4.6537
G01 X48.8974 Y4.7616
G01 X48.8966 Y4.7647
G01 X48.8920 Y4.8080
G01 X48.8920 Y4.9540
G01 X48.8915 Y4.9635
G01 X48.8902 Y4.9729
G01 X48.8879 Y4.9822
G01 X48.8679 Y5.0503
G01 X48.8648 Y5.0593
G01 X48.8609 Y5.0679
G01 X48.8561 Y5.0762
G01 X48.8506 Y5.0839
G01 X48.8444 Y5.0911
G01 X48.8375 Y5.0977
G01 X48.7838 Y5.1442
G01 X48.7760 Y5.1503
G01 X48.7675 Y5.1557
G01 X48.7586 Y5.1602
G01 X48.7492 Y5.1637
G01 X48.7396 Y5.1663
G01 X48.6873 Y5.1777
G01 X48.6767 Y5.1794
G01 X48.6660 Y5.1800
G01 X47.3357 Y5.1800
G01 X47.3262 Y5.1795
G01 X47.3168 Y5.1782
G01 X47.3075 Y5.1759
G01 X47.2394 Y5.1559
G01 X47.2296 Y5.1525
G01 X47.2202 Y5.1481
G01 X47.2113 Y5.1427
G01 X47.2030 Y5.1364
G01 X47.1779 Y5.1152
G01 X47.1685 Y5.1061
G01 X47.0440 Y4.9693
G01 X46.8444 Y4.8024
G01 X46.6240 Y4.6641
G01 X46.3868 Y4.5570
G01 X46.1373 Y4.4831
G01 X45.8801 Y4.4437
G01 X45.6199 Y4.4397
G01 X45.3615 Y4.4709
G01 X45.1098 Y4.5370
G01 X44.8694 Y4.6365
G01 X44.6448 Y4.7678
G01 X44.4400 Y4.9284
G01 X44.2628 Y5.1113
G01 X44.2558 Y5.1178
G01 X44.2483 Y5.1236
G01 X44.2402 Y5.1287
G01 X44.1785 Y5.1637
G01 X44.1695 Y5.1682
G01 X44.1602 Y5.1718
G01 X44.1505 Y5.1744
G01 X44.1406 Y5.1760
G01 X44.1119 Y5.1793
G01 X44.1005 Y5.1800
G01 X38.9640 Y5.1800
G01 X38.9545 Y5.1795
G01 X38.9451 Y5.1782
G01 X38.9358 Y5.1759
G01 X38.8677 Y5.1559
G01 X38.8587 Y5.1528
G01 X38.8501 Y5.1489
G01 X38.8418 Y5.1441
G01 X38.8341 Y5.1386
G01 X38.8269 Y5.1324
G01 X38.8203 Y5.1255
G01 X38.7738 Y5.0718
G01 X38.7677 Y5.0640
G01 X38.7623 Y5.0555
G01 X38.7578 Y5.0466
G01 X38.7543 Y5.0372
G01 X38.7517 Y5.0276
G01 X38.7403 Y4.9753
G01 X38.7386 Y4.9647
G01 X38.7380 Y4.9540
G01 X38.7380 Y4.8080
G01 X38.7334 Y4.7647
G01 X38.7326 Y4.7616
G01 X38.6922 Y4.6537
G01 X38.6905 Y4.6506
G01 X38.6225 Y4.5599
G01 X38.6201 Y4.5575
G01 X38.5294 Y4.4895
G01 X38.5263 Y4.4878
G01 X38.4184 Y4.4474
G01 X38.4153 Y4.4466
G01 X38.3720 Y4.4420
G01 X37.4300 Y4.4420
G01 X37.4300 Y4.7500
G01 X38.3300 Y4.7500
G01 X38.3398 Y4.7505
G01 X38.3495 Y4.7519
G01 X38.3590 Y4.7543
G01 X38.3683 Y4.7576
G01 X38.3771 Y4.7618
G01 X38.3856 Y4.7669
G01 X38.3934 Y4.7727
G01 X38.4007 Y4.7793
G01 X38.4073 Y4.7866
G01 X38.4131 Y4.7944
G01 X38.4182 Y4.8029
G01 X38.4224 Y4.8117
G01 X38.4257 Y4.8210
G01 X38.4281 Y4.8305
G01 X38.4295 Y4.8402
G01 X38.4300 Y4.8500
G01 X38.4300 Y7.8500
G01 X38.4295 Y7.8598
G01 X38.4281 Y7.8695
G01 X38.4257 Y7.8790
G01 X38.4224 Y7.8883
G01 X38.4182 Y7.8971
G01 X38.4131 Y7.9056
G01 X38.4073 Y7.9134
G01 X38.4007 Y7.9207
G01 X38.3934 Y7.9273
G01 X38.3856 Y7.9331
G01 X38.3771 Y7.9382
G01 X38.3683 Y7.9424
G01 X38.3590 Y7.9457
G01 X38.3495 Y7.9481
G01 X38.3398 Y7.9495
G01 X38.3300 Y7.9500
G01 X35.3300 Y7.9500
G01 X35.3202 Y7.9495
G01 X35.3105 Y7.9481
G01 X35.3010 Y7.9457
G01 X35.2917 Y7.9424
G01 X35.2829 Y7.9382
G01 X35.2744 Y7.9331
G01 X35.2666 Y7.9273
G01 X35.2593 Y7.9207
G01 X35.2527 Y7.9134
G01 X35.2469 Y7.9056
G01 X35.2418 Y7.8971
G01 X35.2376 Y7.8883
G01 X35.2343 Y7.8790
G01 X35.2319 Y7.8695
G01 X35.2305 Y7.8598
G01 X35.2300 Y7.8500
G01 X35.2300 Y4.8500
G01 X35.2305 Y4.8402
G01 X35.2319 Y4.8305
G01 X35.2343 Y4.8210
G01 X35.2376 Y4.8117
G01 X35.2418 Y4.8029
G01 X35.2469 Y4.7944
G01 X35.2527 Y4.7866
G01 X35.2593 Y4.7793
G01 X35.2666 Y4.7727
G01 X35.2744 Y4.7669
G01 X35.2829 Y4.7618
G01 X35.2917 Y4.7576
G01 X35.3010 Y4.7543
G01 X35.3105 Y4.7519
G01 X35.3202 Y4.7505
G01 X35.3300 Y4.7500
G01 X36.2300 Y4.7500
G01 X36.2300 Y4.4420
G01 X35.2880 Y4.4420
G01 X35.2447 Y4.4466
G01 X35.2416 Y4.4474
G01 X35.1337 Y4.4878
G01 X35.1306 Y4.4895
G01 X35.0399 Y4.5575
G01 X35.0375 Y4.5599
G01 X34.9695 Y4.6506
G01 X34.9678 Y4.6537
G01 X34.9274 Y4.7616
G01 X34.9266 Y4.7647
G01 X34.9220 Y4.8080
G01 X34.9220 Y4.9540
G01 X34.9215 Y4.9635
G01 X34.9202 Y4.9729
G01 X34.9179 Y4.9822
G01 X34.8979 Y5.0503
G01 X34.8948 Y5.0593
G01 X34.8909 Y5.0679
G01 X34.8861 Y5.0762
G01 X34.8806 Y5.0839
G01 X34.8744 Y5.0911
G01 X34.8675 Y5.0977
G01 X34.8138 Y5.1442
G01 X34.8060 Y5.1503
G01 X34.7975 Y5.1557
G01 X34.7886 Y5.1602
G01 X34.7792 Y5.1637
G01 X34.7696 Y5.1663
G01 X34.7173 Y5.1777
G01 X34.7067 Y5.1794
G01 X34.6960 Y5.1800
G01 X33.3657 Y5.1800
G01 X33.3562 Y5.1795
G01 X33.3468 Y5.1782
G01 X33.3375 Y5.1759
G01 X33.2694 Y5.1559
G01 X33.2596 Y5.1525
G01 X33.2502 Y5.1481
G01 X33.2413 Y5.1427
G01 X33.2330 Y5.1364
G01 X33.2079 Y5.1152
G01 X33.1985 Y5.1061
G01 X33.0740 Y4.9693
G01 X32.8744 Y4.8024
G01 X32.6540 Y4.6641
G01 X32.4168 Y4.5570
G01 X32.1673 Y4.4831
G01 X31.9101 Y4.4437
G01 X31.6499 Y4.4397
G01 X31.3915 Y4.4709
G01 X31.1398 Y4.5370
G01 X30.8994 Y4.6365
G01 X30.6748 Y4.7678
G01 X30.4700 Y4.9284
G01 X30.2928 Y5.1113
G01 X30.2858 Y5.1178
G01 X30.2783 Y5.1236
G01 X30.2702 Y5.1287
G01 X30.2085 Y5.1637
G01 X30.1995 Y5.1682
G01 X30.1902 Y5.1718
G01 X30.1805 Y5.1744
G01 X30.1706 Y5.1760
G01 X30.1419 Y5.1793
G01 X30.1305 Y5.1800
G01 X23.4940 Y5.1800
G01 X23.4845 Y5.1795
G01 X23.4751 Y5.1782
G01 X23.4658 Y5.1759
G01 X23.3977 Y5.1559
G01 X23.3887 Y5.1528
G01 X23.3801 Y5.1489
G01 X23.3718 Y5.1441
G01 X23.3641 Y5.1386
G01 X23.3569 Y5.1324
G01 X23.3503 Y5.1255
G01 X23.3038 Y5.0718
G01 X23.2977 Y5.0640
G01 X23.2923 Y5.0555
G01 X23.2878 Y5.0466
G01 X23.2843 Y5.0372
G01 X23.2817 Y5.0276
G01 X23.2703 Y4.9753
G01 X23.2686 Y4.9647
G01 X23.2680 Y4.9540
G01 X23.2680 Y4.4100
G01 X22.9600 Y4.4100
G01 X22.9600 Y5.0800
G01 X22.9595 Y5.0898
G01 X22.9581 Y5.0995
G01 X22.9557 Y5.1090
G01 X22.9524 Y5.1183
G01 X22.9482 Y5.1271
G01 X22.9431 Y5.1356
G01 X22.9373 Y5.1434
G01 X22.9307 Y5.1507
G01 X22.9234 Y5.1573
G01 X22.9156 Y5.1631
G01 X22.9071 Y5.1682
G01 X22.8983 Y5.1724
G01 X22.8890 Y5.1757
G01 X22.8795 Y5.1781
G01 X22.8698 Y5.1795
G01 X22.8600 Y5.1800
G01 X20.3200 Y5.1800
G01 X20.3102 Y5.1795
G01 X20.3005 Y5.1781
G01 X20.2910 Y5.1757
G01 X20.2817 Y5.1724
G01 X20.2729 Y5.1682
G01 X20.2644 Y5.1631
G01 X20.2566 Y5.1573
G01 X20.2493 Y5.1507
G01 X20.2427 Y5.1434
G01 X20.2369 Y5.1356
G01 X20.2318 Y5.1271
G01 X20.2276 Y5.1183
G01 X20.2243 Y5.1090
G01 X20.2219 Y5.0995
G01 X20.2205 Y5.0898
G01 X20.2200 Y5.0800
G01 X20.2200 Y2.5400
G01 X20.2205 Y2.5302
G01 X20.2219 Y2.5205
G01 X20.2243 Y2.5110
G01 X20.2276 Y2.5017
G01 X20.2318 Y2.4929
G01 X20.2369 Y2.4844
G01 X20.2427 Y2.4766
G01 X20.2493 Y2.4693
G01 X20.2566 Y2.4627
G01 X20.2644 Y2.4569
G01 X20.2729 Y2.4518
G01 X20.2817 Y2.4476
G01 X20.2910 Y2.4443
G01 X20.3005 Y2.4419
G01 X20.3102 Y2.4405
G01 X20.3200 Y2.4400
G01 X20.9900 Y2.4400
G01 X20.9900 Y2.1320
G00 X20.9900 Y2.1320
G01 F60.00
G01 Z-0.0950
G01 F250.00
G01 X20.4460 Y2.1320
G01 X20.4365 Y2.1315
G01 X20.4271 Y2.1302
G01 X20.4178 Y2.1280
G01 X20.3497 Y2.1079
G01 X20.3407 Y2.1048
G01 X20.3321 Y2.1009
G01 X20.3238 Y2.0961
G01 X20.3161 Y2.0906
G01 X20.3089 Y2.0844
G01 X20.3023 Y2.0775
G01 X20.2558 Y2.0238
G01 X20.2497 Y2.0160
G01 X20.2443 Y2.0075
G01 X20.2398 Y1.9986
G01 X20.2363 Y1.9892
G01 X20.2337 Y1.9796
G01 X20.2223 Y1.9273
G01 X20.2206 Y1.9167
G01 X20.2200 Y1.9060
G01 X20.2205 Y1.8945
G01 X20.2218 Y1.8851
G01 X20.2241 Y1.8758
G01 X20.2441 Y1.8077
G01 X20.2472 Y1.7987
G01 X20.2511 Y1.7901
G01 X20.2559 Y1.7818
G01 X20.2614 Y1.7741
G01 X20.2676 Y1.7669
G01 X20.2745 Y1.7603
G01 X20.3282 Y1.7138
G01 X20.3360 Y1.7077
G01 X20.3445 Y1.7023
G01 X20.3534 Y1.6978
G01 X20.3628 Y1.6943
G01 X20.3724 Y1.6917
G01 X20.4247 Y1.6803
G01 X20.4353 Y1.6786
G01 X20.4460 Y1.6780
G01 X88.2660 Y1.6780
G01 X88.2755 Y1.6785
G01 X88.2849 Y1.6798
G01 X88.2942 Y1.6821
G01 X88.3623 Y1.7021
G01 X88.3713 Y1.7052
G01 X88.3799 Y1.7091
G01 X88.3882 Y1.7139
G01 X88.3959 Y1.7194
G01 X88.4031 Y1.7256
G01 X88.4097 Y1.7325
G01 X88.4562 Y1.7862
G01 X88.4623 Y1.7940
G01 X88.4677 Y1.8025
G01 X88.4722 Y1.8114
G01 X88.4757 Y1.8208
G01 X88.4783 Y1.8304
G01 X88.4897 Y1.8827
G01 X88.4914 Y1.8933
G01 X88.4920 Y1.9040
G01 X88.4920 Y4.9540
G01 X88.4915 Y4.9635
G01 X88.4902 Y4.9729
G01 X88.4879 Y4.9822
G01 X88.4679 Y5.0503
G01 X88.4648 Y5.0593
G01 X88.4609 Y5.0679
G01 X88.4561 Y5.0762
G01 X88.4506 Y5.0839
G01 X88.4444 Y5.0911
G01 X88.4375 Y5.0977
G01 X88.3838 Y5.1442
G01 X88.3760 Y5.1503
G01 X88.3675 Y5.1557
G01 X88.3586 Y5.1602
G01 X88.3492 Y5.1637
G01 X88.3396 Y5.1663
G01 X88.2873 Y5.1777
G01 X88.2767 Y5.1794
G01 X88.2660 Y5.1800
G01 X87.5840 Y5.1800
G01 X87.5745 Y5.1795
G01 X87.5651 Y5.1782
G01 X87.5558 Y5.1759
G01 X87.4877 Y5.1559
G01 X87.4787 Y5.1528
G01 X87.4701 Y5.1489
G01 X87.4618 Y5.1441
G01 X87.4541 Y5.1386
G01 X87.4469 Y5.1324
G01 X87.4403 Y5.1255
G01 X87.3938 Y5.0718
G01 X87.3877 Y5.0640
G01 X87.3823 Y5.0555
G01 X87.3778 Y5.0466
G01 X87.3743 Y5.0372
G01 X87.3717 Y5.0276
G01 X87.3603 Y4.9753
G01 X87.3586 Y4.9647
G01 X87.3580 Y4.9540
G01 X87.3580 Y4.8080
G01 X87.3534 Y4.7647
G01 X87.3526 Y4.7616
G01 X87.3122 Y4.6537
G01 X87.3105 Y4.6506
G01 X87.2425 Y4.5599
G01 X87.2401 Y4.5575
G01 X87.1494 Y4.4895
G01 X87.1463 Y4.4878
G01 X87.0384 Y4.4474
G01 X87.0353 Y4.4466
G01 X86.9920 Y4.4420
G01 X86.0500 Y4.4420
G01 X86.0500 Y4.7500
G01 X86.9500 Y4.7500
G01 X86.9598 Y4.7505
G01 X86.9695 Y4.7519
G01 X86.9790 Y4.7543
G01 X86.9883 Y4.7576
G01 X86.9971 Y4.7618
G01 X87.0056 Y4.7669
G01 X87.0134 Y4.7727
G01 X87.0207 Y4.7793
G01 X87.0273 Y4.7866
G01 X87.0331 Y4.7944
G01 X87.0382 Y4.8029
G01 X87.0424 Y4.8117
G01 X87.0457 Y4.8210
G01 X87.0481 Y4.8305
G01 X87.0495 Y4.8402
G01 X87.0500 Y4.8500
G01 X87.0500 Y7.8500
G01 X87.0495 Y7.8598
G01 X87.0481 Y7.8695
G01 X87.0457 Y7.8790
G01 X87.0424 Y7.8883
G01 X87.0382 Y7.8971
G01 X87.0331 Y7.9056
G01 X87.0273 Y7.9134
G01 X87.0207 Y7.9207
G01 X87.0134 Y7.9273
G01 X87.0056 Y7.9331
G01 X86.9971 Y7.9382
G01 X86.9883 Y7.9424
G01 X86.9790 Y7.9457
G01 X86.9695 Y7.9481
G01 X86.9598 Y7.9495
G01 X86.9500 Y7.9500
G01 X83.9500 Y7.9500
G01 X83.9402 Y7.9495
G01 X83.9305 Y7.9481
G01 X83.9210 Y7.9457
G01 X83.9117 Y7.9424
G01 X83.9029 Y7.9382
G01 X83.8944 Y7.9331
G01 X83.8866 Y7.9273
G01 X83.8793 Y7.9207
G01 X83.8727 Y7.9134
G01 X83.8669 Y7.9056
G01 X83.8618 Y7.8971
G01 X83.8576 Y7.8883
G01 X83.8543 Y7.8790
G01 X83.8519 Y7.8695
G01 X83.8505 Y7.8598
G01 X83.8500 Y7.8500
G01 X83.8500 Y4.8500
G01 X83.8505 Y4.8402
G01 X83.8519 Y4.8305
G01 X83.8543 Y4.8210
G01 X83.8576 Y4.8117
G01 X83.8618 Y4.8029
G01 X83.8669 Y4.7944
G01 X83.8727 Y4.7866
G01 X83.8793 Y4.7793
G01 X83.8866 Y4.7727
G01 X83.8944 Y4.7669
G01 X83.9029 Y4.7618
G01 X83.9117 Y4.7576
G01 X83.9210 Y4.7543
G01 X83.9305 Y4.7519
G01 X83.9402 Y4.7505
G01 X83.9500 Y4.7500
G01 X84.8500 Y4.7500
G01 X84.8500 Y4.4420
G01 X83.9080 Y4.4420
G01 X83.8647 Y4.4466
G01 X83.8616 Y4.4474
G01 X83.7537 Y4.4878
G01 X83.7506 Y4.4895
G01 X83.6599 Y4.5575
G01 X83.6575 Y4.5599
G01 X83.5895 Y4.6506
G01 X83.5878 Y4.6537
G01 X83.5474 Y4.7616
G01 X83.5466 Y4.7647
G01 X83.5420 Y4.8080
G01 X83.5420 Y4.9540
G01 X83.5415 Y4.9635
G01 X83.5402 Y4.9729
G01 X83.5379 Y4.9822
G01 X83.5179 Y5.0503
G01 X83.5148 Y5.0593
G01 X83.5109 Y5.0679
G01 X83.5061 Y5.0762
G01 X83.5006 Y5.0839
G01 X83.4944 Y5.0911
G01 X83.4875 Y5.0977
G01 X83.4338 Y5.1442
G01 X83.4260 Y5.1503
G01 X83.4175 Y5.1557
G01 X83.4086 Y5.1602
G01 X83.3992 Y5.1637
G01 X83.3896 Y5.1663
G01 X83.3373 Y5.1777
G01 X83.3267 Y5.1794
G01 X83.3160 Y5.1800
G01 X81.9857 Y5.1800
G01 X81.9762 Y5.1795
G01 X81.9668 Y5.1782
G01 X81.9575 Y5.1759
G01 X81.8894 Y5.1559
G01 X81.8796 Y5.1525
G01 X81.8702 Y5.1481
G01 X81.8613 Y5.1427
G01 X81.8530 Y5.1364
G01 X81.8279 Y5.1152
G01 X81.8185 Y5.1061
G01 X81.6940 Y4.9693
G01 X81.4944 Y4.8024
G01 X81.2740 Y4.6641
G01 X81.0368 Y4.5570
G01 X80.7873 Y4.4831
G01 X80.5301 Y4.4437
G01 X80.2699 Y4.4397
G01 X80.0115 Y4.4709
G01 X79.7598 Y4.5370
G01 X79.5194 Y4.6365
G01 X79.2948 Y4.7678
G01 X79.0900 Y4.9284
G01 X78.9128 Y5.1113
G01 X78.9058 Y5.1178
G01 X78.8983 Y5.1236
G01 X78.8902 Y5.1287
G01 X78.8285 Y5.1637
G01 X78.8195 Y5.1682
G01 X78.8102 Y5.1718
G01 X78.8005 Y5.1744
G01 X78.7906 Y5.1760
G01 X78.7619 Y5.1793
G01 X78.7505 Y5.1800
G01 X76.0340 Y5.1800
G01 X76.0245 Y5.1795
G01 X76.0151 Y5.1782
G01 X76.0058 Y5.1759
G01 X75.9377 Y5.1559
G01 X75.9287 Y5.1528
G01 X75.9201 Y5.1489
G01 X75.9118 Y5.1441
G01 X75.9041 Y5.1386
G01 X75.8969 Y5.1324
G01 X75.8903 Y5.1255
G01 X75.8438 Y5.0718
G01 X75.8377 Y5.0640
G01 X75.8323 Y5.0555
G01 X75.8278 Y5.0466
G01 X75.8243 Y5.0372
G01 X75.8217 Y5.0276
G01 X75.8103 Y4.9753
G01 X75.8086 Y4.9647
G01 X75.8080 Y4.9540
G01 X75.8080 Y4.8080
G01 X75.8034 Y4.7647
G01 X75.8026 Y4.7616
G01 X75.7622 Y4.6537
G01 X75.7605 Y4.6506
G01 X75.6925 Y4.5599
G01 X75.6901 Y4.5575
G01 X75.5994 Y4.4895
G01 X75.5963 Y4.4878
G01 X75.4884 Y4.4474
G01 X75.4853 Y4.4466
G01 X75.4420 Y4.4420
G01 X74.5000 Y4.4420
G01 X74.5000 Y4.7500
G01 X75.4000 Y4.7500
G01 X75.4098 Y4.7505
G01 X75.4195 Y4.7519
G01 X75.4290 Y4.7543
G01 X75.4383 Y4.7576
G01 X75.4471 Y4.7618
G01 X75.4556 Y4.7669
G01 X75.4634 Y4.7727
G01 X75.4707 Y4.7793
G01 X75.4773 Y4.7866
G01 X75.4831 Y4.7944
G01 X75.4882 Y4.8029
G01 X75.4924 Y4.8117
G01 X75.4957 Y4.8210
G01 X75.4981 Y4.8305
G01 X75.4995 Y4.8402
G01 X75.5000 Y4.8500
G01 X75.5000 Y7.8500
G01 X75.4995 Y7.8598
G01 X75.4981 Y7.8695
G01 X75.4957 Y7.8790
G01 X75.4924 Y7.8883
G01 X75.4882 Y7.8971
G01 X75.4831 Y7.9056
G01 X75.4773 Y7.9134
G01 X75.4707 Y7.9207
G01 X75.4634 Y7.9273
G01 X75.4556 Y7.9331
G01 X75.4471 Y7.9382
G01 X75.4383 Y7.9424
G01 X75.4290 Y7.9457
G01 X75.4195 Y7.9481
G01 X75.4098 Y7.9495
G01 X75.4000 Y7.9500
