(G-CODE GENERATED BY FLATCAM v8.991 - www.flatcam.org - Version Date: 2019/12/27)

(Name: Est32x4_2-NPTH.drl_cnc)
(Type: G-code from Excellon)
(Units: MM)

(Created on Saturday, 25 June 2022 at 16:00)

(Feedrate: 60.0 mm/min)
(Feedrate rapids 1500.0 mm/min)

(Z_Cut: -1.8 mm)
(Z_Move: 2.0 mm)
(Z Toolchange: 15.0 mm)
(X,Y Toolchange: 0.0000, 0.0000 mm)
(Z Start: None mm)
(Z End: 15.0 mm)
(Steps per circle: 64)
(Preprocessor Excellon: default)

(X range:    3.4800 ...   86.6020  mm)
(Y range:   49.2000 ...   52.4000  mm)

(Spindle Speed: None RPM)
G21
G90
G94

M03 S200
G4 P1
M03 S400
G4 P1
M03 S600
G4 P1
M03 S800
G4 P1
M03 S1000


G01 F60.00
G00 Z2.0000

M03
G00 X85.0020 Y50.8000
G01 Z-1.8000
G01 Z0
G00 Z2.0000
G00 X5.0800 Y50.8000
G01 Z-1.8000
G01 Z0
G00 Z2.0000
M05
G00 Z15.00
G00 X0.0 Y0.0

