(G-CODE GENERATED BY FLATCAM v8.991 - www.flatcam.org - Version Date: 2019/12/27)

(Name: Est32x4_2-PTH.drl_cnc)
(Type: G-code from Excellon)
(Units: MM)

(Created on Saturday, 25 June 2022 at 15:58)

(Feedrate: 200.0 mm/min)
(Feedrate rapids 1500.0 mm/min)

(Z_Cut: -1.8 mm)
(Z_Move: 2.0 mm)
(Z Toolchange: 15.0 mm)
(X,Y Toolchange: 0.0000, 0.0000 mm)
(Z Start: None mm)
(Z End: 15.0 mm)
(Steps per circle: 64)
(Preprocessor Excellon: default)

(X range:    3.3100 ...   87.4400  mm)
(Y range:    3.3100 ...   61.9770  mm)

(Spindle Speed: None RPM)
G21
G90
G94

M03 S200
G4 P1
M03 S400
G4 P1
M03 S600
G4 P1
M03 S800
G4 P1
M03 S1000


G01 F200.00
G00 Z2.0000

M03
G00 X78.9700 Y52.0700
G01 Z-1.8000
G01 Z0
G00 Z2.0000
G00 X76.4300 Y49.5300
G01 Z-1.8000
G01 Z0
G00 Z2.0000
G00 X73.8900 Y46.9900
G01 Z-1.8000
G01 Z0
G00 Z2.0000
G00 X71.1200 Y44.4500
G01 Z-1.8000
G01 Z0
G00 Z2.0000
G00 X49.5300 Y44.4500
G01 Z-1.8000
G01 Z0
G00 Z2.0000
G00 X34.2900 Y46.9900
G01 Z-1.8000
G01 Z0
G00 Z2.0000
G00 X29.2100 Y44.4500
G01 Z-1.8000
G01 Z0
G00 Z2.0000
G00 X19.0500 Y46.9900
G01 Z-1.8000
G01 Z0
G00 Z2.0000
G00 X21.5900 Y49.5300
G01 Z-1.8000
G01 Z0
G00 Z2.0000
G00 X24.1300 Y52.0700
G01 Z-1.8000
G01 Z0
G00 Z2.0000
G00 X36.8300 Y49.5300
G01 Z-1.8000
G01 Z0
G00 Z2.0000
G00 X39.3700 Y52.0700
G01 Z-1.8000
G01 Z0
G00 Z2.0000
G00 X57.1500 Y46.9900
G01 Z-1.8000
G01 Z0
G00 Z2.0000
G00 X59.6900 Y49.5300
G01 Z-1.8000
G01 Z0
G00 Z2.0000
G00 X62.2300 Y52.0700
G01 Z-1.8000
G01 Z0
G00 Z2.0000
M03
G00 X51.3410 Y22.7480
G01 Z-1.8000
G01 Z0
G00 Z2.0000
G00 X51.2390 Y29.2880
G01 Z-1.8000
G01 Z0
G00 Z2.0000
G00 X46.9900 Y34.2900
G01 Z-1.8000
G01 Z0
G00 Z2.0000
G00 X46.9900 Y36.7900
G01 Z-1.8000
G01 Z0
G00 Z2.0000
G00 X41.0790 Y29.2880
G01 Z-1.8000
G01 Z0
G00 Z2.0000
G00 X41.1810 Y22.7480
G01 Z-1.8000
G01 Z0
G00 Z2.0000
G00 X30.9140 Y19.0190
G01 Z-1.8000
G01 Z0
G00 Z2.0000
G00 X41.0740 Y19.0190
G01 Z-1.8000
G01 Z0
G00 Z2.0000
M03
G00 X85.0900 Y61.4770
G01 Z-1.8000
G01 Z0
G00 Z2.0000
G00 X85.0900 Y58.9380
G01 Z-1.8000
G01 Z0
G00 Z2.0000
G00 X82.5500 Y58.9380
G01 Z-1.8000
G01 Z0
G00 Z2.0000
G00 X80.0100 Y58.9380
G01 Z-1.8000
G01 Z0
G00 Z2.0000
G00 X77.4700 Y58.9380
G01 Z-1.8000
G01 Z0
G00 Z2.0000
G00 X74.9300 Y58.9380
G01 Z-1.8000
G01 Z0
G00 Z2.0000
G00 X62.2300 Y58.9380
G01 Z-1.8000
G01 Z0
G00 Z2.0000
G00 X59.6900 Y58.9380
G01 Z-1.8000
G01 Z0
G00 Z2.0000
G00 X57.1500 Y58.9380
G01 Z-1.8000
G01 Z0
G00 Z2.0000
G00 X54.6100 Y58.9380
G01 Z-1.8000
G01 Z0
G00 Z2.0000
G00 X52.0700 Y58.9380
G01 Z-1.8000
G01 Z0
G00 Z2.0000
G00 X39.3700 Y58.9380
G01 Z-1.8000
G01 Z0
G00 Z2.0000
G00 X36.8300 Y58.9380
G01 Z-1.8000
G01 Z0
G00 Z2.0000
G00 X34.2900 Y58.9380
G01 Z-1.8000
G01 Z0
G00 Z2.0000
G00 X31.7500 Y58.9380
G01 Z-1.8000
G01 Z0
G00 Z2.0000
G00 X29.2100 Y58.9380
G01 Z-1.8000
G01 Z0
G00 Z2.0000
G00 X21.5900 Y44.4500
G01 Z-1.8000
G01 Z0
G00 Z2.0000
G00 X21.5900 Y3.8100
G01 Z-1.8000
G01 Z0
G00 Z2.0000
G00 X3.8100 Y3.8100
G01 Z-1.8000
G01 Z0
G00 Z2.0000
G00 X3.8100 Y44.4500
G01 Z-1.8000
G01 Z0
G00 Z2.0000
G00 X13.9700 Y58.9380
G01 Z-1.8000
G01 Z0
G00 Z2.0000
G00 X11.4300 Y58.9380
G01 Z-1.8000
G01 Z0
G00 Z2.0000
G00 X8.8900 Y58.9380
G01 Z-1.8000
G01 Z0
G00 Z2.0000
G00 X6.3500 Y58.9380
G01 Z-1.8000
G01 Z0
G00 Z2.0000
G00 X6.3500 Y61.4770
G01 Z-1.8000
G01 Z0
G00 Z2.0000
G00 X8.8900 Y61.4770
G01 Z-1.8000
G01 Z0
G00 Z2.0000
G00 X11.4300 Y61.4770
G01 Z-1.8000
G01 Z0
G00 Z2.0000
G00 X13.9700 Y61.4770
G01 Z-1.8000
G01 Z0
G00 Z2.0000
G00 X16.5100 Y61.4770
G01 Z-1.8000
G01 Z0
G00 Z2.0000
G00 X16.5100 Y58.9380
G01 Z-1.8000
G01 Z0
G00 Z2.0000
G00 X29.2100 Y61.4770
G01 Z-1.8000
G01 Z0
G00 Z2.0000
G00 X31.7500 Y61.4770
G01 Z-1.8000
G01 Z0
G00 Z2.0000
G00 X34.2900 Y61.4770
G01 Z-1.8000
G01 Z0
G00 Z2.0000
G00 X36.8300 Y61.4770
G01 Z-1.8000
G01 Z0
G00 Z2.0000
G00 X39.3700 Y61.4770
G01 Z-1.8000
G01 Z0
G00 Z2.0000
G00 X52.0700 Y61.4770
G01 Z-1.8000
G01 Z0
G00 Z2.0000
G00 X54.6100 Y61.4770
G01 Z-1.8000
G01 Z0
G00 Z2.0000
G00 X57.1500 Y61.4770
G01 Z-1.8000
G01 Z0
G00 Z2.0000
G00 X59.6900 Y61.4770
G01 Z-1.8000
G01 Z0
G00 Z2.0000
G00 X62.2300 Y61.4770
G01 Z-1.8000
G01 Z0
G00 Z2.0000
G00 X74.9300 Y61.4770
G01 Z-1.8000
G01 Z0
G00 Z2.0000
G00 X77.4700 Y61.4770
G01 Z-1.8000
G01 Z0
G00 Z2.0000
G00 X80.0100 Y61.4770
G01 Z-1.8000
G01 Z0
G00 Z2.0000
G00 X82.5500 Y61.4770
G01 Z-1.8000
G01 Z0
G00 Z2.0000
M03
G00 X86.9200 Y40.6400
G01 Z-1.8000
G01 Z0
G00 Z2.0000
G00 X84.3800 Y40.6400
G01 Z-1.8000
G01 Z0
G00 Z2.0000
G00 X81.8400 Y40.6400
G01 Z-1.8000
G01 Z0
G00 Z2.0000
G00 X79.3000 Y40.6400
G01 Z-1.8000
G01 Z0
G00 Z2.0000
G00 X76.7600 Y40.6400
G01 Z-1.8000
G01 Z0
G00 Z2.0000
G00 X74.2200 Y40.6400
G01 Z-1.8000
G01 Z0
G00 Z2.0000
G00 X71.6800 Y40.6400
G01 Z-1.8000
G01 Z0
G00 Z2.0000
G00 X69.1400 Y40.6400
G01 Z-1.8000
G01 Z0
G00 Z2.0000
G00 X66.6000 Y40.6400
G01 Z-1.8000
G01 Z0
G00 Z2.0000
G00 X64.0600 Y40.6400
G01 Z-1.8000
G01 Z0
G00 Z2.0000
G00 X61.5200 Y40.6400
G01 Z-1.8000
G01 Z0
G00 Z2.0000
G00 X58.9800 Y40.6400
G01 Z-1.8000
G01 Z0
G00 Z2.0000
G00 X56.4400 Y40.6400
G01 Z-1.8000
G01 Z0
G00 Z2.0000
G00 X53.9000 Y40.6400
G01 Z-1.8000
G01 Z0
G00 Z2.0000
G00 X51.3600 Y40.6400
G01 Z-1.8000
G01 Z0
G00 Z2.0000
G00 X48.8200 Y40.6400
G01 Z-1.8000
G01 Z0
G00 Z2.0000
G00 X46.2800 Y40.6400
G01 Z-1.8000
G01 Z0
G00 Z2.0000
G00 X43.7400 Y40.6400
G01 Z-1.8000
G01 Z0
G00 Z2.0000
G00 X41.2000 Y40.6400
G01 Z-1.8000
G01 Z0
G00 Z2.0000
G00 X41.2000 Y15.2400
G01 Z-1.8000
G01 Z0
G00 Z2.0000
G00 X43.7400 Y15.2400
G01 Z-1.8000
G01 Z0
G00 Z2.0000
G00 X46.2800 Y15.2400
G01 Z-1.8000
G01 Z0
G00 Z2.0000
G00 X48.8200 Y15.2400
G01 Z-1.8000
G01 Z0
G00 Z2.0000
G00 X51.3600 Y15.2400
G01 Z-1.8000
G01 Z0
G00 Z2.0000
G00 X53.9000 Y15.2400
G01 Z-1.8000
G01 Z0
G00 Z2.0000
G00 X56.4400 Y15.2400
G01 Z-1.8000
G01 Z0
G00 Z2.0000
G00 X58.9800 Y15.2400
G01 Z-1.8000
G01 Z0
G00 Z2.0000
G00 X61.5200 Y15.2400
G01 Z-1.8000
G01 Z0
G00 Z2.0000
G00 X64.0600 Y15.2400
G01 Z-1.8000
G01 Z0
G00 Z2.0000
G00 X66.6000 Y15.2400
G01 Z-1.8000
G01 Z0
G00 Z2.0000
G00 X69.1400 Y15.2400
G01 Z-1.8000
G01 Z0
G00 Z2.0000
G00 X71.6800 Y15.2400
G01 Z-1.8000
G01 Z0
G00 Z2.0000
G00 X74.2200 Y15.2400
G01 Z-1.8000
G01 Z0
G00 Z2.0000
G00 X76.7600 Y15.2400
G01 Z-1.8000
G01 Z0
G00 Z2.0000
G00 X79.3000 Y15.2400
G01 Z-1.8000
G01 Z0
G00 Z2.0000
G00 X81.8400 Y15.2400
G01 Z-1.8000
G01 Z0
G00 Z2.0000
G00 X84.3800 Y15.2400
G01 Z-1.8000
G01 Z0
G00 Z2.0000
G00 X86.9200 Y15.2400
G01 Z-1.8000
G01 Z0
G00 Z2.0000
M03
G00 X30.9110 Y30.1810
G01 Z-1.8000
G01 Z0
G00 Z2.0000
G00 X26.4110 Y30.1810
G01 Z-1.8000
G01 Z0
G00 Z2.0000
G00 X26.4110 Y23.6810
G01 Z-1.8000
G01 Z0
G00 Z2.0000
G00 X26.2370 Y17.7800
G01 Z-1.8000
G01 Z0
G00 Z2.0000
G00 X26.2370 Y7.6200
G01 Z-1.8000
G01 Z0
G00 Z2.0000
G00 X30.9110 Y23.6810
G01 Z-1.8000
G01 Z0
G00 Z2.0000
M03
G00 X85.4500 Y6.3500
G01 Z-1.8000
G01 Z0
G00 Z2.0000
G00 X80.3700 Y6.3500
G01 Z-1.8000
G01 Z0
G00 Z2.0000
G00 X73.9000 Y6.3500
G01 Z-1.8000
G01 Z0
G00 Z2.0000
G00 X68.8200 Y6.3500
G01 Z-1.8000
G01 Z0
G00 Z2.0000
G00 X62.3500 Y6.3500
G01 Z-1.8000
G01 Z0
G00 Z2.0000
G00 X57.2700 Y6.3500
G01 Z-1.8000
G01 Z0
G00 Z2.0000
G00 X50.8000 Y6.3500
G01 Z-1.8000
G01 Z0
G00 Z2.0000
G00 X36.8300 Y6.3500
G01 Z-1.8000
G01 Z0
G00 Z2.0000
G00 X31.7500 Y6.3500
G01 Z-1.8000
G01 Z0
G00 Z2.0000
G00 X45.7200 Y6.3500
G01 Z-1.8000
G01 Z0
G00 Z2.0000
M05
G00 Z15.00
G00 X0.0 Y0.0

