(G-CODE GENERATED BY FLATCAM v8.991 - www.flatcam.org - Version Date: 2019/12/27)

(Name: Est32x4_2-Edge_Cuts.gbr_cutout_cnc)
(Type: G-code from Geometry)
(Units: MM)

(Created on Saturday, 25 June 2022 at 18:44)

(TOOL DIAMETER: 1.0 mm)
(Feedrate: 150.0 mm/min)
(Feedrate_Z: 60.0 mm/min)
(Feedrate rapids 1500.0 mm/min)

(Z_Cut: -1.8 mm)
(DepthPerCut: 0.45 mm <=>4 passes)
(Z_Move: 2.0 mm)
(Z Toolchange: 15.0 mm)
(X,Y Toolchange: 0.0000, 0.0000 mm)
(Z Start: None mm)
(Z End: 15.0 mm)
(Steps per circle: 64)
(Preprocessor Geometry: default)

(X range:    0.6200 ...   89.5500  mm)
(Y range:    0.6200 ...   65.4200  mm)

(Spindle Speed: None RPM)
G21
G90
G94

M03 S200
G4 P1
M03 S400
G4 P1
M03 S600
G4 P1
M03 S800
G4 P1
M03 S1000


G01 F150.00
G00 Z2.0000

M03
G00 X0.6200 Y14.8700
G01 F60.00
G01 Z-0.4500
G01 F150.00
G01 X0.6200 Y1.2700
G01 X0.6207 Y1.2406
G01 X0.6274 Y1.1722
G01 X0.6401 Y1.1097
G01 X0.6589 Y1.0487
G01 X0.6835 Y0.9899
G01 X0.7112 Y0.9380
G01 X0.7465 Y0.8848
G01 X0.7868 Y0.8353
G01 X0.8353 Y0.7868
G01 X0.8848 Y0.7465
G01 X0.9380 Y0.7112
G01 X0.9899 Y0.6835
G01 X1.0487 Y0.6589
G01 X1.1097 Y0.6401
G01 X1.1722 Y0.6274
G01 X1.2357 Y0.6209
G01 X1.2700 Y0.6200
G01 X88.9000 Y0.6200
G01 X88.9343 Y0.6209
G01 X88.9978 Y0.6274
G01 X89.0603 Y0.6401
G01 X89.1213 Y0.6589
G01 X89.1801 Y0.6835
G01 X89.2363 Y0.7138
G01 X89.2892 Y0.7494
G01 X89.3383 Y0.7901
G01 X89.3832 Y0.8353
G01 X89.4235 Y0.8848
G01 X89.4588 Y0.9380
G01 X89.4886 Y0.9943
G01 X89.5128 Y1.0533
G01 X89.5311 Y1.1145
G01 X89.5433 Y1.1771
G01 X89.5493 Y1.2406
G01 X89.5500 Y1.2700
G01 X89.5500 Y14.8700
G00 X89.5500 Y14.8700
G01 F60.00
G01 Z-0.9000
G01 F150.00
G01 X89.5500 Y1.2700
G01 X89.5493 Y1.2406
G01 X89.5433 Y1.1771
G01 X89.5311 Y1.1145
G01 X89.5128 Y1.0533
G01 X89.4886 Y0.9943
G01 X89.4588 Y0.9380
G01 X89.4235 Y0.8848
G01 X89.3832 Y0.8353
G01 X89.3383 Y0.7901
G01 X89.2892 Y0.7494
G01 X89.2363 Y0.7138
G01 X89.1801 Y0.6835
G01 X89.1213 Y0.6589
G01 X89.0603 Y0.6401
G01 X88.9978 Y0.6274
G01 X88.9343 Y0.6209
G01 X88.9000 Y0.6200
G01 X1.2700 Y0.6200
G01 X1.2357 Y0.6209
G01 X1.1722 Y0.6274
G01 X1.1097 Y0.6401
G01 X1.0487 Y0.6589
G01 X0.9899 Y0.6835
G01 X0.9380 Y0.7112
G01 X0.8848 Y0.7465
G01 X0.8353 Y0.7868
G01 X0.7868 Y0.8353
G01 X0.7465 Y0.8848
G01 X0.7112 Y0.9380
G01 X0.6835 Y0.9899
G01 X0.6589 Y1.0487
G01 X0.6401 Y1.1097
G01 X0.6274 Y1.1722
G01 X0.6207 Y1.2406
G01 X0.6200 Y1.2700
G01 X0.6200 Y14.8700
G00 X0.6200 Y14.8700
G01 F60.00
G01 Z-1.3500
G01 F150.00
G01 X0.6200 Y1.2700
G01 X0.6207 Y1.2406
G01 X0.6274 Y1.1722
G01 X0.6401 Y1.1097
G01 X0.6589 Y1.0487
G01 X0.6835 Y0.9899
G01 X0.7112 Y0.9380
G01 X0.7465 Y0.8848
G01 X0.7868 Y0.8353
G01 X0.8353 Y0.7868
G01 X0.8848 Y0.7465
G01 X0.9380 Y0.7112
G01 X0.9899 Y0.6835
G01 X1.0487 Y0.6589
G01 X1.1097 Y0.6401
G01 X1.1722 Y0.6274
G01 X1.2357 Y0.6209
G01 X1.2700 Y0.6200
G01 X88.9000 Y0.6200
G01 X88.9343 Y0.6209
G01 X88.9978 Y0.6274
G01 X89.0603 Y0.6401
G01 X89.1213 Y0.6589
G01 X89.1801 Y0.6835
G01 X89.2363 Y0.7138
G01 X89.2892 Y0.7494
G01 X89.3383 Y0.7901
G01 X89.3832 Y0.8353
G01 X89.4235 Y0.8848
G01 X89.4588 Y0.9380
G01 X89.4886 Y0.9943
G01 X89.5128 Y1.0533
G01 X89.5311 Y1.1145
G01 X89.5433 Y1.1771
G01 X89.5493 Y1.2406
G01 X89.5500 Y1.2700
G01 X89.5500 Y14.8700
G00 X89.5500 Y14.8700
G01 F60.00
G01 Z-1.8000
G01 F150.00
G01 X89.5500 Y1.2700
G01 X89.5493 Y1.2406
G01 X89.5433 Y1.1771
G01 X89.5311 Y1.1145
G01 X89.5128 Y1.0533
G01 X89.4886 Y0.9943
G01 X89.4588 Y0.9380
G01 X89.4235 Y0.8848
G01 X89.3832 Y0.8353
G01 X89.3383 Y0.7901
G01 X89.2892 Y0.7494
G01 X89.2363 Y0.7138
G01 X89.1801 Y0.6835
G01 X89.1213 Y0.6589
G01 X89.0603 Y0.6401
G01 X88.9978 Y0.6274
G01 X88.9343 Y0.6209
G01 X88.9000 Y0.6200
G01 X1.2700 Y0.6200
G01 X1.2357 Y0.6209
G01 X1.1722 Y0.6274
G01 X1.1097 Y0.6401
G01 X1.0487 Y0.6589
G01 X0.9899 Y0.6835
G01 X0.9380 Y0.7112
G01 X0.8848 Y0.7465
G01 X0.8353 Y0.7868
G01 X0.7868 Y0.8353
G01 X0.7465 Y0.8848
G01 X0.7112 Y0.9380
G01 X0.6835 Y0.9899
G01 X0.6589 Y1.0487
G01 X0.6401 Y1.1097
G01 X0.6274 Y1.1722
G01 X0.6207 Y1.2406
G01 X0.6200 Y1.2700
G01 X0.6200 Y14.8700
G00 Z2.0000
G00 X0.6200 Y18.8700
G01 F60.00
G01 Z-0.4500
G01 F150.00
G01 X0.6200 Y47.3700
G00 X0.6200 Y47.3700
G01 F60.00
G01 Z-0.9000
G01 F150.00
G01 X0.6200 Y18.8700
G00 X0.6200 Y18.8700
G01 F60.00
G01 Z-1.3500
G01 F150.00
G01 X0.6200 Y47.3700
G00 X0.6200 Y47.3700
G01 F60.00
G01 Z-1.8000
G01 F150.00
G01 X0.6200 Y18.8700
G00 Z2.0000
G00 X0.6200 Y51.3700
G01 F60.00
G01 Z-0.4500
G01 F150.00
G01 X0.6200 Y64.7700
G01 X0.6207 Y64.7994
G01 X0.6274 Y64.8678
G01 X0.6401 Y64.9303
G01 X0.6589 Y64.9913
G01 X0.6835 Y65.0501
G01 X0.7112 Y65.1020
G01 X0.7465 Y65.1552
G01 X0.7868 Y65.2047
G01 X0.8353 Y65.2532
G01 X0.8848 Y65.2935
G01 X0.9380 Y65.3288
G01 X0.9943 Y65.3586
G01 X1.0487 Y65.3811
G01 X1.1097 Y65.3999
G01 X1.1722 Y65.4126
G01 X1.2357 Y65.4191
G01 X1.2700 Y65.4200
G01 X88.9000 Y65.4200
G01 X88.9343 Y65.4191
G01 X88.9978 Y65.4126
G01 X89.0603 Y65.3999
G01 X89.1213 Y65.3811
G01 X89.1801 Y65.3565
G01 X89.2363 Y65.3262
G01 X89.2892 Y65.2906
G01 X89.3383 Y65.2499
G01 X89.3832 Y65.2047
G01 X89.4235 Y65.1552
G01 X89.4588 Y65.1020
G01 X89.4886 Y65.0457
G01 X89.5128 Y64.9867
G01 X89.5311 Y64.9255
G01 X89.5433 Y64.8629
G01 X89.5491 Y64.8043
G01 X89.5500 Y64.7700
G00 X89.5500 Y64.7700
G01 F60.00
G01 Z-0.9000
G01 F150.00
G01 X89.5491 Y64.8043
G01 X89.5433 Y64.8629
G01 X89.5311 Y64.9255
G01 X89.5128 Y64.9867
G01 X89.4886 Y65.0457
G01 X89.4588 Y65.1020
G01 X89.4235 Y65.1552
G01 X89.3832 Y65.2047
G01 X89.3383 Y65.2499
G01 X89.2892 Y65.2906
G01 X89.2363 Y65.3262
G01 X89.1801 Y65.3565
G01 X89.1213 Y65.3811
G01 X89.0603 Y65.3999
G01 X88.9978 Y65.4126
G01 X88.9343 Y65.4191
G01 X88.9000 Y65.4200
G01 X1.2700 Y65.4200
G01 X1.2357 Y65.4191
G01 X1.1722 Y65.4126
G01 X1.1097 Y65.3999
G01 X1.0487 Y65.3811
G01 X0.9943 Y65.3586
G01 X0.9380 Y65.3288
G01 X0.8848 Y65.2935
G01 X0.8353 Y65.2532
G01 X0.7868 Y65.2047
G01 X0.7465 Y65.1552
G01 X0.7112 Y65.1020
G01 X0.6835 Y65.0501
G01 X0.6589 Y64.9913
G01 X0.6401 Y64.9303
G01 X0.6274 Y64.8678
G01 X0.6207 Y64.7994
G01 X0.6200 Y64.7700
G01 X0.6200 Y51.3700
G00 X0.6200 Y51.3700
G01 F60.00
G01 Z-1.3500
G01 F150.00
G01 X0.6200 Y64.7700
G01 X0.6207 Y64.7994
G01 X0.6274 Y64.8678
G01 X0.6401 Y64.9303
G01 X0.6589 Y64.9913
G01 X0.6835 Y65.0501
G01 X0.7112 Y65.1020
G01 X0.7465 Y65.1552
G01 X0.7868 Y65.2047
G01 X0.8353 Y65.2532
G01 X0.8848 Y65.2935
G01 X0.9380 Y65.3288
G01 X0.9943 Y65.3586
G01 X1.0487 Y65.3811
G01 X1.1097 Y65.3999
G01 X1.1722 Y65.4126
G01 X1.2357 Y65.4191
G01 X1.2700 Y65.4200
G01 X88.9000 Y65.4200
G01 X88.9343 Y65.4191
G01 X88.9978 Y65.4126
G01 X89.0603 Y65.3999
G01 X89.1213 Y65.3811
G01 X89.1801 Y65.3565
G01 X89.2363 Y65.3262
G01 X89.2892 Y65.2906
G01 X89.3383 Y65.2499
G01 X89.3832 Y65.2047
G01 X89.4235 Y65.1552
G01 X89.4588 Y65.1020
G01 X89.4886 Y65.0457
G01 X89.5128 Y64.9867
G01 X89.5311 Y64.9255
G01 X89.5433 Y64.8629
G01 X89.5491 Y64.8043
G01 X89.5500 Y64.7700
G00 X89.5500 Y64.7700
G01 F60.00
G01 Z-1.8000
G01 F150.00
G01 X89.5491 Y64.8043
G01 X89.5433 Y64.8629
G01 X89.5311 Y64.9255
G01 X89.5128 Y64.9867
G01 X89.4886 Y65.0457
G01 X89.4588 Y65.1020
G01 X89.4235 Y65.1552
G01 X89.3832 Y65.2047
G01 X89.3383 Y65.2499
G01 X89.2892 Y65.2906
G01 X89.2363 Y65.3262
G01 X89.1801 Y65.3565
G01 X89.1213 Y65.3811
G01 X89.0603 Y65.3999
G01 X88.9978 Y65.4126
G01 X88.9343 Y65.4191
G01 X88.9000 Y65.4200
G01 X1.2700 Y65.4200
G01 X1.2357 Y65.4191
G01 X1.1722 Y65.4126
G01 X1.1097 Y65.3999
G01 X1.0487 Y65.3811
G01 X0.9943 Y65.3586
G01 X0.9380 Y65.3288
G01 X0.8848 Y65.2935
G01 X0.8353 Y65.2532
G01 X0.7868 Y65.2047
G01 X0.7465 Y65.1552
G01 X0.7112 Y65.1020
G01 X0.6835 Y65.0501
G01 X0.6589 Y64.9913
G01 X0.6401 Y64.9303
G01 X0.6274 Y64.8678
G01 X0.6207 Y64.7994
G01 X0.6200 Y64.7700
G01 X0.6200 Y51.3700
G00 Z2.0000
G00 X89.5500 Y51.3700
G01 F60.00
G01 Z-0.4500
G01 F150.00
G01 X89.5500 Y64.7700
G00 X89.5500 Y64.7700
G01 F60.00
G01 Z-0.9000
G01 F150.00
G01 X89.5500 Y51.3700
G00 X89.5500 Y51.3700
G01 F60.00
G01 Z-1.3500
G01 F150.00
G01 X89.5500 Y64.7700
G00 X89.5500 Y64.7700
G01 F60.00
G01 Z-1.8000
G01 F150.00
G01 X89.5500 Y51.3700
G00 Z2.0000
G00 X89.5500 Y47.3700
G01 F60.00
G01 Z-0.4500
G01 F150.00
G01 X89.5500 Y18.8700
G00 X89.5500 Y18.8700
G01 F60.00
G01 Z-0.9000
G01 F150.00
G01 X89.5500 Y47.3700
G00 X89.5500 Y47.3700
G01 F60.00
G01 Z-1.3500
G01 F150.00
G01 X89.5500 Y18.8700
G00 X89.5500 Y18.8700
G01 F60.00
G01 Z-1.8000
G01 F150.00
G01 X89.5500 Y47.3700
G00 Z2.0000
M05
G00 Z2.0000
G00 Z15.00
G00 X0.0 Y0.0

